saadzia10/Physics-Encoded-ResNet/robot/humanoid/humanoid.csv
timestep,RightFingerJoint11z_joint,RightFingerJoint12y_joint,RightFingerJoint13y_joint,RightFingerJoint11y_joint,RightFingerJoint21y_joint,RightFingerJoint22y_joint,RightFingerJoint23y_joint,RightFingerJoint21x_joint,RightFingerJoint31y_joint,RightFingerJoint32y_joint,RightFingerJoint33y_joint,RightFingerJoint41y_joint,RightFingerJoint42y_joint,RightFingerJoint43y_joint,RightFingerJoint41x_joint,RightFingerJoint51y_joint,RightFingerJoint52y_joint,RightFingerJoint53y_joint,RightFingerJoint51x_joint,LeftFingerJoint11z_joint,LeftFingerJoint12y_joint,LeftFingerJoint13y_joint,LeftFingerJoint11y_joint,LeftFingerJoint21y_joint,LeftFingerJoint22y_joint,LeftFingerJoint23y_joint,LeftFingerJoint21x_joint,LeftFingerJoint31y_joint,LeftFingerJoint32y_joint,LeftFingerJoint33y_joint,LeftFingerJoint41y_joint,LeftFingerJoint42y_joint,LeftFingerJoint43y_joint,LeftFingerJoint41x_joint,LeftFingerJoint51y_joint,LeftFingerJoint52y_joint,LeftFingerJoint53y_joint,LeftFingerJoint51x_joint,BLNx_joint,BLNy_joint,BLNz_joint,BPx_joint,BPy_joint,BPz_joint,BTx_joint,BTy_joint,BTz_joint,BUNx_joint,BUNy_joint,BUNz_joint,LAx_joint,LAy_joint,LAz_joint,LEx_joint,LEz_joint,LHx_joint,LHy_joint,LHz_joint,LKx_joint,LSx_joint,LSy_joint,LSz_joint,LWx_joint,LWy_joint,LFx_joint,LMrot_joint,RAx_joint,RAy_joint,RAz_joint,REx_joint,REz_joint,RHx_joint,RHy_joint,RHz_joint,RKx_joint,RSx_joint,RSy_joint,RSz_joint,RWx_joint,RWy_joint,RFx_joint,RMrot_joint,RootPositionX,RootPositionY,RootPositionZ,RootRotationX,RootRotationY,RootRotationZ,Height,Mass,HandLength
0.45,-0.355101,-0.297472,-0.0892415,0.11594,0.094344,0.00577219,0.00173166,0.0664845,0.165806,0.0734649,0.0220395,0.0559865,0.113295,0.0670753,-0.0880583,-0.206337,-0.00417122,-0.00125137,-0.0606573,-0.27255,2.05659,-0.047242,-10.5854,-0.0377578,0.020504,0.00615119,-0.0357929,-0.0902119,0.251513,0.0754538,-0.192843,0.12097,0.0,0.0629687,-0.427955,0.151327,0.0453982,0.13969,-0.169102,0.0664626,0.00224643,0.0923408,-0.01831,-0.0976464,0.00894374,-0.0217409,0.0523236,0.221896,-0.0136386,-0.001186,0.118704,-0.201692,0.0251929,0.220071,-0.470191,0.13548,0.0493278,0.278978,-0.16739,0.209491,0.177727,-0.656138,-0.00198149,1.01475,-0.042144,0.137348,0.21969,0.0609452,0.109771,0.32981,0.546488,0.13535,-0.0536335,-0.372944,-0.165185,0.159742,-0.184059,0.312187,-0.218092,-1.10366,-0.1129,0.0380958,138.837,341.884,945.163,-0.10564,0.0363853,1.64922,1.79,78.0,18.9
0.46,-0.351498,-0.30558,-0.0916739,0.113377,0.0929359,0.0150077,0.00450231,0.0634024,0.108412,0.0748253,0.0224476,0.0495265,0.111289,0.071182,-0.0899588,-0.203657,-0.00208561,-0.000625684,-0.0569377,-0.274013,2.20574,-0.047242,-11.102,-0.0344745,0.0141951,0.00425852,-0.032384,-0.0879845,0.240299,0.0720896,-0.199358,0.123783,0.0,0.0684442,-0.421568,0.153196,0.0459587,0.140355,-0.172728,0.0673411,0.00218783,0.0915755,-0.0181728,-0.0964906,0.00467788,-0.0220522,0.0542522,0.226524,-0.0149446,-0.00456118,0.119101,-0.200743,0.0174903,0.223467,-0.459048,0.130127,0.0504739,0.287267,-0.166419,0.208795,0.178644,-0.666419,-0.00874123,1.01161,-0.0392599,0.135291,0.221824,0.0588127,0.131714,0.330659,0.548624,0.133077,-0.0558982,-0.391695,-0.169158,0.1577,-0.18556,0.311763,-0.225665,-1.10363,-0.114537,0.037833,138.221,341.817,945.121,-0.100945,0.0358253,1.64907,1.79,78.0,18.9
0.47000000000000003,-0.353755,-0.338731,-0.101619,0.12619,0.0929359,0.0103899,0.00311698,0.0647233,0.165806,0.0775463,0.0232639,0.0516798,0.113295,0.0670753,-0.0874248,-0.200977,0.0,0.0,-0.0589406,-0.27259,2.21609,-0.047242,-11.2312,-0.0344745,0.0126178,0.00378535,-0.0340884,-0.100235,0.249911,0.0749732,-0.198055,0.12519,0.0,0.0657065,-0.430085,0.155064,0.0465191,0.141685,-0.175638,0.0681954,0.00218715,0.0921541,-0.0177696,-0.0967041,0.000515261,-0.021781,0.0555845,0.22585,-0.0156001,-0.00729687,0.120333,-0.20682,0.0146381,0.225033,-0.458806,0.127647,0.0509993,0.291232,-0.164615,0.208999,0.179556,-0.668192,-0.00113584,1.00807,-0.0487394,0.135213,0.221754,0.0619237,0.142387,0.332762,0.547765,0.132533,-0.0571045,-0.402839,-0.170186,0.15707,-0.187207,0.31358,-0.228858,-1.10697,-0.11227,0.0394316,138.219,341.672,945.12,-0.0991554,0.0354201,1.64879,1.79,78.0,18.9
0.48,-0.357458,-0.326604,-0.0979813,0.121065,0.0985684,0.00461775,0.00138533,0.0629621,0.165806,0.0761858,0.0228557,0.0581398,0.111289,0.0670753,-0.0893253,-0.206337,-0.00417122,-0.00125137,-0.0597989,-0.269243,2.21403,-0.0485542,-11.102,-0.0344745,0.0110406,0.00331218,-0.0357929,-0.108032,0.238697,0.071609,-0.196752,0.122377,0.0,0.0698131,-0.419439,0.153196,0.0459587,0.14102,-0.17866,0.0680104,0.00230344,0.0896677,-0.0175595,-0.0965801,-0.00206643,-0.0219431,0.0566092,0.236509,-0.0155112,-0.00676805,0.123334,-0.20553,0.0051482,0.227229,-0.448258,0.126112,0.0529644,0.299131,-0.170129,0.207753,0.180744,-0.674393,0.000392526,1.00957,-0.0504604,0.139345,0.222697,0.0618626,0.153736,0.335383,0.548191,0.129749,-0.0581632,-0.412991,-0.173463,0.155775,-0.187988,0.312434,-0.233108,-1.10688,-0.110733,0.0360924,137.709,341.635,945.055,-0.0948812,0.0348744,1.64863,1.79,78.0,18.9
0.5,-0.359748,-0.339521,-0.101856,0.131315,0.0957522,0.00808107,0.00242432,0.0634024,0.0765259,0.070744,0.0212232,0.0495265,0.112292,0.0670753,-0.0861577,-0.200977,-0.00208561,-0.000625684,-0.0592267,-0.270332,2.13326,-0.047242,-10.7146,-0.0328329,0.020504,0.00615119,-0.0383495,-0.0902119,0.237095,0.0711284,-0.195449,0.122377,0.0,0.0684442,-0.415181,0.155064,0.0465191,0.137029,-0.187142,0.0687552,-4.44041e-05,0.0918612,-0.0175951,-0.095564,-0.00996144,-0.0221557,0.0591495,0.243291,-0.0143589,-0.00744822,0.123442,-0.203627,-0.00314528,0.22895,-0.436131,0.124439,0.0552902,0.30771,-0.17283,0.208762,0.18244,-0.68635,-0.000771465,1.00714,-0.0442179,0.138843,0.222395,0.0653131,0.171986,0.340004,0.539969,0.130113,-0.0602148,-0.43075,-0.178926,0.154366,-0.189604,0.313442,-0.231746,-1.10503,-0.104669,0.0321986,137.546,341.702,945.011,-0.0911666,0.0339206,1.64815,1.79,78.0,18.9
0.51,-0.36483,-0.322586,-0.0967757,0.113377,0.0929359,0.0161621,0.00484864,0.0625218,0.153052,0.0748253,0.0224476,0.0602931,0.114297,0.0684442,-0.0874248,-0.209016,-0.00625684,-0.00187705,-0.0597989,-0.271461,2.16224,-0.0485542,-10.9729,-0.0377578,0.0110406,0.00331218,-0.0340884,-0.0957805,0.249911,0.0749732,-0.196752,0.12519,0.0,0.071182,-0.427955,0.151327,0.0453982,0.13969,-0.184403,0.0705836,-3.99527e-05,0.0905166,-0.0174991,-0.0952894,-0.0103461,-0.0219442,0.059968,0.239284,-0.0166009,-0.00766724,0.123682,-0.203581,-0.00805031,0.226579,-0.435946,0.124193,0.0561229,0.31314,-0.172785,0.208953,0.183168,-0.693814,-0.00787256,1.01195,-0.0419522,0.138734,0.225515,0.0685581,0.17853,0.340574,0.53736,0.131676,-0.0617008,-0.437053,-0.182818,0.153433,-0.190219,0.314407,-0.232467,-1.10807,-0.109445,0.0288871,137.556,341.69,944.998,-0.0905588,0.0337099,1.64817,1.79,78.0,18.9
0.52,-0.358603,-0.355737,-0.106721,0.12619,0.0915278,0.0092355,0.00277065,0.0634024,0.0829031,0.0721044,0.0216313,0.0624465,0.114297,0.0725509,-0.0893253,-0.195618,0.00208561,0.000625684,-0.0572239,-0.270415,2.10941,-0.0498665,-10.7791,-0.0328329,0.020504,0.00615119,-0.0357929,-0.0991217,0.251513,0.0754538,-0.195449,0.122377,0.0,0.071182,-0.419439,0.151327,0.0453982,0.139024,-0.182872,0.0715582,-0.00212647,0.0905037,-0.0174941,-0.0947629,-0.0127542,-0.0219752,0.0604086,0.236717,-0.0167382,-0.00732684,0.125875,-0.202808,-0.013761,0.228615,-0.429116,0.122991,0.0572809,0.319541,-0.173946,0.209141,0.183182,-0.695143,0.00124503,1.00957,-0.0464214,0.134287,0.225382,0.0662684,0.189774,0.341596,0.536228,0.13113,-0.0630881,-0.451012,-0.183691,0.153109,-0.190941,0.316225,-0.240786,-1.10658,-0.112712,0.0356114,137.383,341.641,945.002,-0.0885751,0.0333548,1.64797,1.79,78.0,18.9
0.53,-0.359815,-0.350068,-0.105021,0.12619,0.0915278,0.0161621,0.00484864,0.0651636,0.0829031,0.0748253,0.0224476,0.0516798,0.113295,0.0670753,-0.0886918,-0.200977,0.0,0.0,-0.0603712,-0.268909,2.13531,-0.047242,-10.8437,-0.0361162,0.0220812,0.00662436,-0.032384,-0.106918,0.237095,0.0711284,-0.199358,0.122377,0.0,0.0670753,-0.419439,0.151327,0.0453982,0.139024,-0.181302,0.0715583,-0.00212647,0.0890607,-0.0174969,-0.0945177,-0.013614,-0.0218375,0.0608902,0.23552,-0.0170576,-0.00919799,0.126171,-0.203212,-0.0169759,0.226737,-0.429448,0.122598,0.0578941,0.324383,-0.174606,0.209307,0.184165,-0.700281,-0.00447238,1.01222,-0.0474918,0.134953,0.226689,0.0652175,0.196798,0.342582,0.534657,0.131055,-0.0638675,-0.45655,-0.184101,0.15242,-0.191818,0.317205,-0.240785,-1.10806,-0.107849,0.0385355,137.449,341.641,945.002,-0.0875196,0.0331927,1.6477,1.79,78.0,18.9
0.55,-0.362273,-0.318496,-0.0955489,0.123627,0.0929359,0.0103899,0.00311698,0.0664845,0.102035,0.0721044,0.0216313,0.0516798,0.114297,0.0698131,-0.0867913,-0.200977,-0.00208561,-0.000625684,-0.0609434,-0.26941,2.21609,-0.047242,-11.2312,-0.0344745,0.0189267,0.00567802,-0.0357929,-0.102463,0.240299,0.0720896,-0.199358,0.123783,0.0,0.0670753,-0.419439,0.153196,0.0459587,0.140355,-0.180446,0.0729371,0.000630484,0.0880988,-0.0160915,-0.0938161,-0.0175404,-0.0230416,0.062414,0.233284,-0.0206876,-0.0134169,0.127933,-0.194464,-0.0285163,0.226981,-0.424816,0.121909,0.0603206,0.334045,-0.176627,0.210635,0.18483,-0.704795,0.00229944,1.01248,-0.0471615,0.135816,0.227599,0.0636592,0.212923,0.346076,0.530513,0.130821,-0.0654764,-0.473217,-0.188435,0.151158,-0.192514,0.317056,-0.240421,-1.10819,-0.106655,0.043165,137.29,341.75,944.959,-0.0847661,0.0321546,1.64772,1.79,78.0,18.9
0.56,-0.356146,-0.370303,-0.111091,0.128753,0.0999765,0.0115444,0.00346331,0.0656039,0.146675,0.0775463,0.0232639,0.0452199,0.114297,0.0698131,-0.0893253,-0.198297,-0.00208561,-0.000625684,-0.0592267,-0.270833,2.18087,-0.0459297,-11.102,-0.0361162,0.0110406,0.00331218,-0.0349406,-0.0879845,0.249911,0.0749732,-0.195449,0.122377,0.0,0.0684442,-0.415181,0.153196,0.0459587,0.140355,-0.182966,0.0727595,0.00384088,0.0875424,-0.0161017,-0.0936688,-0.0186307,-0.0228725,0.06297,0.232154,-0.0208593,-0.0157006,0.128614,-0.198257,-0.0296407,0.226079,-0.424042,0.120837,0.0610937,0.336514,-0.177116,0.210804,0.18501,-0.707964,0.00233761,1.01278,-0.0477815,0.134472,0.226748,0.0652654,0.220655,0.346494,0.530283,0.130486,-0.0662633,-0.481071,-0.18976,0.150755,-0.192884,0.316634,-0.239163,-1.10783,-0.103789,0.0416553,137.121,341.751,944.926,-0.0834316,0.0317849,1.64762,1.79,78.0,18.9
0.5700000000000001,-0.359782,-0.347629,-0.104289,0.128753,0.0844872,0.0126988,0.00380965,0.0625218,0.13392,0.0748253,0.0224476,0.0516798,0.112292,0.0684442,-0.0867913,-0.190258,-0.00417122,-0.00125137,-0.0577961,-0.268448,2.23891,-0.0433051,-11.102,-0.0361162,0.0126178,0.00378535,-0.0349406,-0.0957805,0.245105,0.0735314,-0.195449,0.122377,0.0,0.0684442,-0.41731,0.156932,0.0470796,0.140355,-0.183254,0.0727595,0.00419672,0.0867058,-0.0155562,-0.0929202,-0.0201227,-0.0232284,0.0628232,0.233688,-0.0232184,-0.0167796,0.1282,-0.198608,-0.0316955,0.226794,-0.421629,0.12049,0.0614366,0.339889,-0.177264,0.210794,0.185712,-0.711139,-0.000704286,1.01409,-0.0471348,0.134306,0.230312,0.0655499,0.223405,0.348921,0.530467,0.13058,-0.0670828,-0.485848,-0.192189,0.15026,-0.193102,0.315176,-0.238688,-1.1062,-0.108048,0.0399254,137.118,341.744,944.91,-0.0821698,0.0315356,1.64779,1.79,78.0,18.9
0.58,-0.354967,-0.327394,-0.0982182,0.12619,0.094344,0.00808107,0.00242432,0.0634024,0.114789,0.0802672,0.0240802,0.0495265,0.114297,0.0684442,-0.0899588,-0.195618,-0.00625684,-0.00187705,-0.0595128,-0.267947,2.10839,-0.047242,-10.7146,-0.0311913,0.0189267,0.00567802,-0.0366451,-0.100235,0.238697,0.071609,-0.198055,0.122377,0.0,0.0657065,-0.415181,0.153196,0.0459587,0.137694,-0.184381,0.0733249,0.00654907,0.0850282,-0.0155562,-0.0921697,-0.0203028,-0.0232207,0.0632627,0.231629,-0.0227589,-0.0182957,0.129412,-0.198341,-0.0346154,0.226449,-0.420213,0.119539,0.0626275,0.34181,-0.180032,0.210387,0.186287,-0.715734,-0.00546069,1.01641,-0.0468808,0.134105,0.229626,0.064559,0.226699,0.34891,0.529237,0.130151,-0.0678714,-0.490528,-0.195039,0.149422,-0.193518,0.314869,-0.23739,-1.10808,-0.108182,0.041066,136.839,341.742,944.875,-0.0802259,0.0313411,1.64754,1.79,78.0,18.9
0.6,-0.35638,-0.336362,-0.100909,0.110814,0.0915278,0.0150077,0.00450231,0.0651636,0.0701488,0.0775463,0.0232639,0.0602931,0.116302,0.0684442,-0.0855242,-0.203657,0.0,0.0,-0.0580822,-0.268114,2.15189,-0.0485542,-10.8437,-0.0377578,0.0157723,0.00473169,-0.0366451,-0.102463,0.241901,0.0725702,-0.192843,0.126596,0.0,0.0643376,-0.421568,0.162537,0.048761,0.14102,-0.18724,0.0729709,0.0118687,0.0843917,-0.015534,-0.0913428,-0.0241199,-0.0230772,0.0643455,0.230851,-0.024371,-0.0233361,0.131038,-0.196029,-0.0428598,0.229183,-0.413327,0.11901,0.0645498,0.351417,-0.182009,0.210695,0.187029,-0.72008,-0.00487663,1.01424,-0.0490633,0.129395,0.230972,0.0622676,0.234868,0.35272,0.527011,0.129193,-0.0687721,-0.496955,-0.197009,0.147747,-0.194705,0.314409,-0.239293,-1.10905,-0.105913,0.0487859,136.689,341.774,944.913,-0.0777993,0.0307605,1.6474,1.79,78.0,18.9
0.61,-0.359915,-0.329044,-0.0987132,0.118502,0.0971603,0.0126988,0.00380965,0.0660442,0.0573944,0.0829881,0.0248964,0.0559865,0.118308,0.071182,-0.0912258,-0.200977,-0.00417122,-0.00125137,-0.0600851,-0.268365,2.13839,-0.0459297,-11.0375,-0.0361162,0.0126178,0.00378535,-0.0374973,-0.108032,0.246707,0.074012,-0.19154,0.122377,0.0,0.0684442,-0.421568,0.156932,0.0470796,0.13969,-0.191475,0.0727636,0.0156724,0.0841777,-0.0154963,-0.0913706,-0.0261776,-0.023114,0.0653784,0.231182,-0.0256109,-0.0252267,0.130802,-0.19614,-0.0446995,0.230265,-0.410561,0.118435,0.0651422,0.353973,-0.183087,0.211248,0.187043,-0.722405,-0.00598402,1.01445,-0.0426807,0.128897,0.232262,0.0622624,0.241256,0.352737,0.527434,0.128729,-0.0696215,-0.502758,-0.198503,0.147553,-0.195185,0.314475,-0.238578,-1.11282,-0.106546,0.0478602,136.589,341.773,944.874,-0.076725,0.0305433,1.64734,1.79,78.0,18.9
0.62,-0.363518,-0.326604,-0.0979813,0.121065,0.0929359,0.0126988,0.00380965,0.0634024,0.114789,0.0734649,0.0220395,0.0602931,0.111289,0.071182,-0.0848907,-0.200977,-0.00208561,-0.000625684,-0.0592267,-0.269327,2.19848,-0.0485542,-11.1666,-0.0344745,0.0126178,0.00378535,-0.0349406,-0.10469,0.243503,0.0730508,-0.195449,0.122377,0.0,0.0670753,-0.419439,0.151327,0.0453982,0.13969,-0.194203,0.0724895,0.0185304,0.0831715,-0.0146621,-0.0911896,-0.0270077,-0.023174,0.0655138,0.229627,-0.0266267,-0.0271812,0.131151,-0.194065,-0.0453204,0.230357,-0.411608,0.118159,0.065912,0.35611,-0.184539,0.21121,0.187257,-0.723178,-0.00600005,1.01561,-0.0434986,0.125683,0.233151,0.0619375,0.244237,0.354512,0.525917,0.129104,-0.070211,-0.506628,-0.201213,0.147383,-0.1951,0.313663,-0.240374,-1.11217,-0.103895,0.0458457,136.499,341.739,944.874,-0.0755633,0.0300836,1.64723,1.79,78.0,18.9
0.63,-0.356179,-0.3444,-0.10332,0.12619,0.0901197,0.0103899,0.00311698,0.061201,0.13392,0.0816276,0.0244883,0.0602931,0.112292,0.071182,-0.0867913,-0.206337,-0.00208561,-0.000625684,-0.0577961,-0.268993,2.14463,-0.047242,-10.9083,-0.0344745,0.020504,0.00615119,-0.0374973,-0.0890982,0.238697,0.071609,-0.194146,0.122377,0.0,0.0670753,-0.423697,0.153196,0.0459587,0.137029,-0.19415,0.0714255,0.0210448,0.0817279,-0.0146403,-0.0910952,-0.0277366,-0.0230396,0.0660337,0.228595,-0.0274719,-0.0281852,0.131916,-0.193284,-0.0497392,0.230669,-0.41117,0.117623,0.0668397,0.358007,-0.18502,0.21121,0.187715,-0.725865,-0.00989424,1.01817,-0.0479954,0.127278,0.234001,0.0594127,0.248465,0.355807,0.527583,0.128805,-0.0708458,-0.510315,-0.202653,0.146875,-0.195894,0.31289,-0.238741,-1.11242,-0.106418,0.0465632,136.471,341.731,944.854,-0.0744513,0.029805,1.64718,1.79,78.0,18.9
0.65,-0.35638,-0.330694,-0.0992081,0.110814,0.0915278,0.0103899,0.00311698,0.0656039,0.0892802,0.0775463,0.0232639,0.0559865,0.116302,0.0657065,-0.0899588,-0.190258,0.00625684,0.00187705,-0.0595128,-0.270122,2.19019,-0.0485542,-11.1666,-0.0295496,0.0157723,0.00473169,-0.0349406,-0.0913256,0.249911,0.0749732,-0.195449,0.122377,0.0,0.0670753,-0.41731,0.155064,0.0465191,0.140355,-0.206299,0.071063,0.0253138,0.0788746,-0.0145549,-0.091058,-0.0280425,-0.02296,0.0671808,0.231848,-0.0285574,-0.0299275,0.13394,-0.192274,-0.0525858,0.230826,-0.408433,0.116177,0.0678815,0.36198,-0.186418,0.210967,0.188378,-0.729611,-0.00509859,1.01941,-0.0479927,0.12261,0.234848,0.065972,0.255176,0.358464,0.527734,0.127979,-0.0720526,-0.515667,-0.204876,0.145826,-0.195809,0.310325,-0.242737,-1.11254,-0.106268,0.0449826,136.263,341.834,944.853,-0.0722008,0.0296271,1.64719,1.79,78.0,18.9
0.66,-0.360116,-0.304,-0.0912001,0.103127,0.0915278,0.0103899,0.00311698,0.0620815,0.191315,0.0829881,0.0248964,0.0538332,0.113295,0.0698131,-0.0899588,-0.198297,0.00208561,0.000625684,-0.0592267,-0.269494,2.24199,-0.0485542,-11.2958,-0.0361162,0.0141951,0.00425852,-0.032384,-0.0913256,0.246707,0.074012,-0.19154,0.122377,0.0,0.0670753,-0.421568,0.155064,0.0465191,0.140355,-0.206302,0.0710434,0.0289542,0.0788375,-0.0145549,-0.091058,-0.0303467,-0.0231782,0.0676867,0.22734,-0.0287979,-0.0298132,0.134736,-0.191828,-0.057337,0.232788,-0.406912,0.116081,0.0686604,0.365995,-0.187826,0.211025,0.189004,-0.729915,-0.00288413,1.01764,-0.0468177,0.12248,0.234476,0.0680811,0.258135,0.360157,0.527243,0.127468,-0.0726357,-0.518766,-0.204798,0.145813,-0.196293,0.310128,-0.241789,-1.11297,-0.103912,0.0399731,136.267,341.828,944.84,-0.0711111,0.0296271,1.64707,1.79,78.0,18.9
0.67,-0.356179,-0.327394,-0.0982182,0.12619,0.0901197,0.0115444,0.00346331,0.064283,0.0637716,0.0761858,0.0228557,0.0645998,0.111289,0.0698131,-0.0886918,-0.198297,0.00208561,0.000625684,-0.0569377,-0.267319,2.1436,-0.0446174,-10.8437,-0.0344745,0.0189267,0.00567802,-0.0357929,-0.0890982,0.245105,0.0735314,-0.196752,0.12097,0.0,0.0657065,-0.410922,0.162537,0.048761,0.136364,-0.206126,0.0710514,0.0345805,0.0786301,-0.0145549,-0.090853,-0.0328931,-0.0231686,0.067726,0.223683,-0.0311798,-0.0328137,0.1346,-0.190546,-0.0582287,0.234789,-0.405347,0.115858,0.0694081,0.366541,-0.189404,0.211203,0.189385,-0.729958,-0.0048896,1.01943,-0.0462861,0.122641,0.234051,0.0675472,0.262626,0.362373,0.529252,0.127192,-0.0731359,-0.523236,-0.207128,0.145679,-0.196263,0.307768,-0.244369,-1.11253,-0.101982,0.0382789,136.125,341.958,944.868,-0.0698465,0.0294246,1.64746,1.79,78.0,18.9
0.68,-0.35877,-0.311248,-0.0933745,0.113377,0.0915278,0.00692663,0.00207799,0.0664845,0.121166,0.0802672,0.0240802,0.0516798,0.112292,0.0684442,-0.0855242,-0.195618,0.00417122,0.00125137,-0.0583683,-0.265435,2.24925,-0.0524911,-11.2312,-0.0344745,0.0126178,0.00378535,-0.0366451,-0.0968943,0.251513,0.0754538,-0.195449,0.12519,0.0,0.0684442,-0.410922,0.160668,0.0482005,0.141685,-0.20736,0.0698421,0.0405624,0.0782259,-0.0145806,-0.0908258,-0.0352602,-0.0232624,0.0679315,0.21824,-0.0310386,-0.0356138,0.133158,-0.193715,-0.0592593,0.236387,-0.404425,0.115442,0.0700333,0.367475,-0.190527,0.211252,0.189977,-0.730202,-0.00549697,1.01897,-0.0403435,0.122813,0.234335,0.0679628,0.26389,0.365162,0.529202,0.126548,-0.0737087,-0.524636,-0.207586,0.145537,-0.196393,0.3072,-0.24913,-1.1135,-0.102063,0.0381494,136.113,342.008,944.867,-0.0686681,0.0294246,1.64745,1.79,78.0,18.9
0.7000000000000001,-0.351665,-0.283765,-0.0851296,0.100564,0.0915278,0.0103899,0.00311698,0.0625218,0.0573944,0.070744,0.0212232,0.0624465,0.118308,0.0739198,-0.0867913,-0.200977,0.00417122,0.00125137,-0.0592267,-0.268532,2.25651,-0.0446174,-11.1666,-0.0295496,0.0141951,0.00425852,-0.0357929,-0.109145,0.248309,0.0744926,-0.195449,0.12519,0.0,0.0657065,-0.419439,0.162537,0.048761,0.139024,-0.209611,0.0691889,0.0504832,0.0757807,-0.0146629,-0.0904131,-0.0376425,-0.0233161,0.0681342,0.211402,-0.0324546,-0.039015,0.13382,-0.193309,-0.0625143,0.239303,-0.403563,0.114663,0.0713971,0.368903,-0.192357,0.211472,0.190985,-0.731982,-0.00536604,1.02064,-0.0406476,0.12155,0.235462,0.0701428,0.268367,0.368341,0.527689,0.126009,-0.0745265,-0.528488,-0.211342,0.144066,-0.197109,0.306006,-0.242625,-1.11613,-0.101766,0.0361907,135.976,342.275,944.895,-0.0665,0.0290951,1.64879,1.79,78.0,18.9
0.71,-0.359982,-0.322586,-0.0967757,0.113377,0.094344,0.0150077,0.00450231,0.0647233,0.0637716,0.0761858,0.0228557,0.0581398,0.112292,0.0657065,-0.0848907,-0.190258,-0.00625684,-0.00187705,-0.0583683,-0.267653,2.19745,-0.047242,-11.102,-0.0361162,0.0126178,0.00378535,-0.0349406,-0.103577,0.241901,0.0725702,-0.19154,0.122377,0.0,0.0657065,-0.413052,0.160668,0.0482005,0.13969,-0.212782,0.0681046,0.0585328,0.0752973,-0.0146411,-0.0903198,-0.0391111,-0.023327,0.068215,0.207558,-0.0332654,-0.0426123,0.133432,-0.191928,-0.061917,0.241096,-0.402505,0.115115,0.0720898,0.368029,-0.194401,0.21123,0.191674,-0.731749,-0.0044569,1.02068,-0.0389977,0.123509,0.235848,0.0704805,0.26979,0.370668,0.526539,0.126133,-0.0749733,-0.529763,-0.213572,0.143449,-0.197088,0.305142,-0.244888,-1.1181,-0.105534,0.035829,135.885,342.472,944.916,-0.0655348,0.0288671,1.64933,1.79,78.0,18.9
0.72,-0.356413,-0.316127,-0.0948382,0.108252,0.0915278,0.0196254,0.00588763,0.0629621,0.121166,0.0748253,0.0224476,0.0581398,0.112292,0.0629687,-0.0861577,-0.192938,0.00834245,0.00250273,-0.0595128,-0.267025,2.24925,-0.0446174,-11.2312,-0.0344745,0.020504,0.00615119,-0.0366451,-0.105804,0.240299,0.0720896,-0.19154,0.123783,0.0,0.0657065,-0.415181,0.1588,0.0476401,0.139024,-0.214818,0.0682632,0.0642182,0.0742305,-0.0137341,-0.0895032,-0.0413903,-0.0244416,0.0682793,0.20649,-0.0342646,-0.043547,0.134446,-0.193985,-0.0613037,0.242611,-0.403764,0.116206,0.0734683,0.366079,-0.198555,0.211724,0.192464,-0.732189,-0.00378555,1.02231,-0.0375008,0.123363,0.23511,0.0735514,0.271455,0.37255,0.527472,0.126213,-0.0753845,-0.52997,-0.216182,0.143235,-0.196803,0.303223,-0.246801,-1.12043,-0.100209,0.0335234,135.876,342.676,944.947,-0.0643674,0.0285776,1.64977,1.79,78.0,18.9
0.73,-0.354022,-0.324235,-0.0972706,0.105689,0.0957522,0.0126988,0.00380965,0.0629621,0.0765259,0.0775463,0.0232639,0.0538332,0.107279,0.0615998,-0.0867913,-0.200977,0.0,0.0,-0.0569377,-0.268532,2.21506,-0.0459297,-11.1666,-0.0328329,0.0157723,0.00473169,-0.0357929,-0.0890982,0.238697,0.071609,-0.194146,0.12519,0.0,0.0670753,-0.410922,0.162537,0.048761,0.137029,-0.220731,0.0672425,0.0759136,0.0742305,-0.0139674,-0.0889974,-0.0437671,-0.0244437,0.0686858,0.202595,-0.0344542,-0.0513178,0.134288,-0.193052,-0.0595821,0.244804,-0.404883,0.116267,0.0740551,0.365051,-0.199942,0.211711,0.193369,-0.732414,-0.0041691,1.02074,-0.0373701,0.123353,0.236051,0.0731807,0.275091,0.374683,0.525931,0.125831,-0.0757759,-0.53229,-0.21741,0.142841,-0.197071,0.302513,-0.244826,-1.12083,-0.0957736,0.0333591,135.861,342.876,944.947,-0.0632678,0.0284251,1.64987,1.79,78.0,18.9
0.75,-0.355335,-0.280536,-0.0841609,0.0980015,0.094344,0.0138533,0.00415598,0.0673651,0.0701488,0.0816276,0.0244883,0.0602931,0.1153,0.0615998,-0.0855242,-0.203657,0.00208561,0.000625684,-0.0600851,-0.273929,2.17156,-0.0485542,-11.0375,-0.0311913,0.0220812,0.00662436,-0.0357929,-0.0868707,0.251513,0.0754538,-0.194146,0.12097,0.0,0.0657065,-0.421568,0.162537,0.048761,0.137029,-0.245901,0.0681984,0.0826026,0.071176,-0.0139707,-0.0888132,-0.0457956,-0.0254386,0.0702053,0.221334,-0.0376773,-0.0475558,0.134511,-0.195932,-0.0547645,0.246183,-0.405814,0.117103,0.0750528,0.356391,-0.206434,0.213444,0.193939,-0.733901,-0.00711523,1.02374,-0.0338422,0.126215,0.235586,0.0785638,0.278039,0.374767,0.524659,0.124939,-0.0767521,-0.536335,-0.21957,0.142151,-0.197385,0.30231,-0.246737,-1.12391,-0.0985527,0.031115,135.895,343.301,945.032,-0.0608307,0.0283222,1.6512,1.79,78.0,18.9
0.76,-0.357525,-0.314478,-0.0943433,0.11594,0.0929359,0.0161621,0.00484864,0.0660442,0.204069,0.0843486,0.0253046,0.0581398,0.116302,0.0670753,-0.0874248,-0.198297,0.0,0.0,-0.0595128,-0.271083,2.27515,-0.0459297,-11.2958,-0.0344745,0.0189267,0.00567802,-0.0357929,-0.0902119,0.248309,0.0744926,-0.196752,0.123783,0.0,0.0629687,-0.410922,0.164405,0.0493215,0.135033,-0.246298,0.0680455,0.0912009,0.0704342,-0.0139718,-0.0888715,-0.0479297,-0.0255368,0.0704031,0.213584,-0.0378292,-0.052103,0.136132,-0.196046,-0.0506187,0.248102,-0.405607,0.117596,0.0752544,0.351239,-0.209975,0.213585,0.194743,-0.735112,-0.00610935,1.02383,-0.0377579,0.127407,0.235477,0.0779813,0.280962,0.378092,0.521914,0.124118,-0.0772313,-0.538026,-0.221459,0.141431,-0.197408,0.300653,-0.247663,-1.12589,-0.0967051,0.0287733,135.779,343.471,945.004,-0.0594612,0.0283221,1.65249,1.79,78.0,18.9
0.77,-0.356446,-0.329904,-0.0989712,0.105689,0.0858953,0.0196254,0.00588763,0.064283,0.0701488,0.0775463,0.0232639,0.0710598,0.118308,0.0615998,-0.0842572,-0.200977,0.0,0.0,-0.0577961,-0.27284,2.23575,-0.0511788,-11.4249,-0.0361162,0.020504,0.00615119,-0.0357929,-0.10469,0.245105,0.0735314,-0.190237,0.12097,0.0,0.0657065,-0.421568,0.156932,0.0470796,0.137694,-0.246824,0.0652756,0.0985624,0.0703813,-0.0133515,-0.0885276,-0.0527225,-0.0269645,0.0712367,0.216299,-0.0328688,-0.0535922,0.139153,-0.19623,-0.0377143,0.253421,-0.403971,0.123814,0.0767714,0.336998,-0.224285,0.213666,0.1971,-0.73691,-0.00651267,1.02165,-0.0305376,0.125939,0.236297,0.0895836,0.281095,0.382037,0.523032,0.123807,-0.0773617,-0.537663,-0.222677,0.1409,-0.19791,0.298673,-0.247667,-1.12565,-0.106528,0.0244236,136.027,343.797,945.062,-0.0584099,0.027991,1.65361,1.79,78.0,18.9
0.78,-0.351632,-0.298332,-0.0894995,0.103127,0.0915278,0.0103899,0.00311698,0.0634024,0.172183,0.0775463,0.0232639,0.0667531,0.111289,0.0670753,-0.0880583,-0.198297,0.0,0.0,-0.0577961,-0.273635,2.31037,-0.0433051,-11.4249,-0.0311913,0.0157723,0.00473169,-0.0332362,-0.0902119,0.243503,0.0730508,-0.198055,0.122377,0.0,0.0698131,-0.419439,0.162537,0.048761,0.137694,-0.254671,0.0652719,0.0983635,0.0694073,-0.0133627,-0.0885093,-0.0556462,-0.0270216,0.0709873,0.214394,-0.0362818,-0.0511881,0.141003,-0.196335,-0.0253058,0.254507,-0.403124,0.125742,0.0769884,0.322537,-0.23179,0.21436,0.1982,-0.738743,-0.00591207,1.02316,-0.0357559,0.127936,0.237321,0.0890657,0.282878,0.386279,0.520529,0.123475,-0.0777433,-0.540566,-0.225351,0.140611,-0.19807,0.299014,-0.253453,-1.12566,-0.10523,0.0218269,136.169,344.087,944.99,-0.05652,0.0276083,1.65464,1.79,78.0,18.9
0.8,-0.355168,-0.308019,-0.0924058,0.110814,0.0971603,0.0115444,0.00346331,0.0634024,0.114789,0.0843486,0.0253046,0.0602931,0.112292,0.0629687,-0.0899588,-0.187579,0.00834245,0.00250273,-0.0563655,-0.272673,2.20054,-0.0446174,-11.2958,-0.0344745,0.0236584,0.00709753,-0.0332362,-0.0913256,0.251513,0.0754538,-0.198055,0.122377,0.0,0.0657065,-0.41731,0.160668,0.0482005,0.138359,-0.259265,0.0662757,0.107151,0.0670977,-0.0128533,-0.0874415,-0.0633689,-0.0284943,0.0718814,0.214292,-0.0379549,-0.0503529,0.143747,-0.196586,-0.0127847,0.262327,-0.403452,0.131392,0.0783833,0.309239,-0.248006,0.21608,0.20097,-0.742829,-0.0140809,1.02142,-0.0369756,0.123624,0.238331,0.0886196,0.288021,0.391863,0.520635,0.121931,-0.0787772,-0.543744,-0.228446,0.140636,-0.198683,0.29376,-0.24857,-1.12953,-0.108391,0.0207659,136.533,344.432,945.075,-0.0530959,0.0274444,1.65689,1.79,78.0,18.9
0.81,-0.355234,-0.273218,-0.0819654,0.105689,0.0957522,0.0126988,0.00380965,0.0647233,0.153052,0.0734649,0.0220395,0.0581398,0.118308,0.0643376,-0.0874248,-0.198297,-0.00208561,-0.000625684,-0.0586545,-0.26464,2.24096,-0.0419929,-11.2312,-0.0393995,0.020504,0.00615119,-0.0366451,-0.102463,0.245105,0.0735314,-0.200661,0.126596,0.0,0.0643376,-0.423697,0.166273,0.049882,0.137029,-0.264874,0.0662788,0.111475,0.0644076,-0.0128413,-0.0871838,-0.0641196,-0.028572,0.0723677,0.212647,-0.0376234,-0.0511313,0.144499,-0.200384,-0.00267873,0.262582,-0.405103,0.13544,0.0783165,0.29776,-0.258318,0.216478,0.202008,-0.746145,-0.0159464,1.02452,-0.0381413,0.128918,0.237538,0.0974057,0.288821,0.395549,0.519129,0.121156,-0.0792476,-0.543755,-0.228926,0.139977,-0.198716,0.291251,-0.250431,-1.13136,-0.110881,0.0213136,136.696,344.553,945.085,-0.0518778,0.0273229,1.65774,1.79,78.0,18.9
0.8200000000000001,-0.355234,-0.301561,-0.0904683,0.105689,0.0957522,0.0173166,0.00519497,0.0607607,0.165806,0.0802672,0.0240802,0.0624465,0.113295,0.0615998,-0.0874248,-0.200977,0.0,0.0,-0.0586545,-0.265268,2.18916,-0.0446174,-11.102,-0.0410411,0.0220812,0.00662436,-0.0357929,-0.0991217,0.245105,0.0735314,-0.203267,0.12519,0.0,0.0657065,-0.432214,0.168141,0.0504424,0.137694,-0.266102,0.0662788,0.117796,0.0644076,-0.0129013,-0.0867248,-0.0677194,-0.0286396,0.0730462,0.212122,-0.0400618,-0.0535435,0.143818,-0.202345,0.00167511,0.267324,-0.401579,0.145049,0.0807293,0.290078,-0.277891,0.21763,0.202312,-0.746126,-0.00748309,1.02042,-0.027315,0.12971,0.238151,0.0968683,0.291411,0.400424,0.517545,0.120734,-0.079452,-0.544178,-0.229018,0.139056,-0.199508,0.28759,-0.245176,-1.13249,-0.110974,0.0133298,136.81,344.588,945.089,-0.0513106,0.0273229,1.6589,1.79,78.0,18.9
0.8300000000000001,-0.35271,-0.30558,-0.0916739,0.113377,0.094344,0.0138533,0.00415598,0.0629621,0.0701488,0.0843486,0.0253046,0.0602931,0.118308,0.0615998,-0.0848907,-0.198297,0.00208561,0.000625684,-0.0592267,-0.262339,2.15909,-0.0446174,-11.2958,-0.0410411,0.0173495,0.00520485,-0.0357929,-0.123624,0.251513,0.0754538,-0.207176,0.128003,0.0,0.0643376,-0.427955,0.171878,0.0515634,0.14102,-0.276753,0.0662867,0.12161,0.0632882,-0.0130758,-0.086778,-0.07112,-0.0287683,0.0734448,0.217312,-0.0420478,-0.0531329,0.14657,-0.198631,0.00836158,0.269198,-0.405466,0.148077,0.0807098,0.27907,-0.287333,0.219298,0.202725,-0.745191,-0.0161346,1.0204,-0.0231325,0.131537,0.238833,0.100273,0.292853,0.403261,0.519498,0.119261,-0.0797565,-0.545135,-0.22969,0.139032,-0.200296,0.287563,-0.248755,-1.13277,-0.118393,0.0107992,137.001,344.702,945.065,-0.0492153,0.0271569,1.65954,1.79,78.0,18.9
0.85,-0.35887,-0.295892,-0.0887677,0.105689,0.0929359,0.0150077,0.00450231,0.0669248,0.13392,0.0802672,0.0240802,0.0645998,0.116302,0.0643376,-0.0874248,-0.198297,0.00834245,0.00250273,-0.0589406,-0.248364,2.23781,-0.0459297,-11.5541,-0.0410411,0.0299673,0.0089902,-0.0383495,-0.110259,0.257921,0.0773762,-0.224115,0.12941,0.0,0.0629687,-0.447118,0.181219,0.0543657,0.14102,-0.279198,0.0659317,0.128771,0.0603779,-0.0133039,-0.0859673,-0.0781304,-0.0293644,0.0745535,0.211697,-0.0401997,-0.0512385,0.147495,-0.201484,0.0332859,0.277834,-0.408022,0.157056,0.0794934,0.247152,-0.313593,0.220888,0.205721,-0.74778,-0.0222805,1.01788,-0.00337593,0.143643,0.237776,0.108694,0.295467,0.413957,0.521986,0.117314,-0.0808104,-0.546242,-0.231404,0.138491,-0.200767,0.277224,-0.259017,-1.13146,-0.116444,0.00684694,137.368,344.721,945.122,-0.0460807,0.0269877,1.66181,1.79,78.0,18.9
0.86,-0.355134,-0.299911,-0.0899734,0.113377,0.0915278,0.0173166,0.00519497,0.0638427,0.17856,0.0734649,0.0220395,0.0559865,0.112292,0.0629687,-0.0886918,-0.203657,0.0,0.0,-0.0580822,-0.238531,2.27713,-0.0459297,-11.9415,-0.0459661,0.0299673,0.0089902,-0.0349406,-0.110259,0.246707,0.074012,-0.228024,0.137849,0.0,0.071182,-0.451376,0.183087,0.0549262,0.143681,-0.28642,0.0659361,0.131404,0.0573397,-0.0131676,-0.0859673,-0.079368,-0.0294048,0.0741866,0.212771,-0.0401538,-0.0506427,0.1491,-0.202252,0.0372902,0.280879,-0.415084,0.160325,0.0792672,0.236823,-0.32283,0.221194,0.206476,-0.746896,-0.0166776,1.01406,-0.00345469,0.136615,0.237201,0.108995,0.296404,0.416852,0.519828,0.116168,-0.0815213,-0.549716,-0.232546,0.136979,-0.202005,0.276123,-0.254973,-1.1319,-0.119133,0.00531605,137.421,344.522,945.276,-0.0441813,0.0269877,1.66402,1.79,78.0,18.9
0.87,-0.352877,-0.278097,-0.0834291,0.100564,0.0915278,0.0196254,0.00588763,0.0664845,0.0956574,0.0748253,0.0224476,0.0645998,0.116302,0.0657065,-0.0880583,-0.203657,0.00208561,0.000625684,-0.0606573,-0.220164,2.1932,-0.0459297,-11.877,-0.0525326,0.0410079,0.0123024,-0.0392017,-0.13142,0.261125,0.0783374,-0.250175,0.150509,0.0,0.0752886,-0.470538,0.192429,0.0577286,0.13969,-0.289385,0.0647411,0.135688,0.0556287,-0.0128075,-0.0850467,-0.0836737,-0.0298782,0.0746349,0.214612,-0.0400414,-0.0507521,0.151308,-0.209243,0.0418892,0.287899,-0.421985,0.167187,0.0802201,0.225506,-0.342211,0.221375,0.208271,-0.746485,-0.0275269,1.01449,0.00512052,0.144719,0.239473,0.109117,0.299708,0.421906,0.519243,0.115167,-0.0830477,-0.55258,-0.233403,0.136466,-0.203121,0.272424,-0.260683,-1.13787,-0.120317,0.00637833,137.516,344.233,945.272,-0.0421186,0.0269877,1.66481,1.79,78.0,18.9
0.88,-0.351498,-0.311248,-0.0933745,0.113377,0.0957522,0.0138533,0.00415598,0.0638427,0.114789,0.0870695,0.0261208,0.0645998,0.113295,0.0629687,-0.0874248,-0.200977,0.00417122,0.00125137,-0.0577961,-0.192214,2.33407,-0.047242,-12.3936,-0.0607409,0.0583575,0.0175072,-0.0417583,-0.151467,0.280349,0.0841046,-0.274932,0.170202,0.0,0.0766575,-0.487571,0.216716,0.0650147,0.147672,-0.29395,0.0661852,0.137847,0.0513704,-0.0128729,-0.0838609,-0.0845056,-0.0298826,0.0743668,0.212694,-0.0412725,-0.0497425,0.14954,-0.216212,0.0469705,0.29584,-0.417276,0.169006,0.0796682,0.211269,-0.351591,0.221396,0.208982,-0.744644,-0.0250713,1.01283,0.0182465,0.150657,0.23971,0.106672,0.303919,0.423358,0.521267,0.113445,-0.0842043,-0.558575,-0.234032,0.135438,-0.204462,0.270971,-0.253379,-1.13638,-0.121105,0.00755463,137.563,343.918,945.435,-0.0396098,0.0269651,1.66557,1.79,78.0,18.9
0.9,-0.333418,-0.284555,-0.0853666,0.105689,0.0901197,0.0161621,0.00484864,0.0647233,0.0765259,0.0775463,0.0232639,0.0581398,0.117305,0.058862,-0.0918594,-0.209016,-0.00208561,-0.000625684,-0.0580822,-0.155644,2.53598,-0.047242,-13.6205,-0.0755157,0.0867476,0.0260243,-0.0460194,-0.155922,0.296368,0.0889105,-0.310113,0.203961,0.0,0.0739198,-0.517379,0.231662,0.0694985,0.150333,-0.310593,0.0659891,0.141745,0.0454321,-0.0122882,-0.0814303,-0.0885775,-0.0299718,0.0752709,0.221319,-0.0398074,-0.0478441,0.153405,-0.216905,0.0474239,0.316739,-0.409931,0.185278,0.0797646,0.192423,-0.389326,0.221231,0.210853,-0.743665,-0.0362252,1.01074,0.0519386,0.16165,0.236924,0.108855,0.31483,0.436698,0.528656,0.111356,-0.0879239,-0.569002,-0.231457,0.132941,-0.207663,0.255133,-0.25574,-1.13225,-0.121652,0.0128808,138.004,342.431,945.687,-0.0361354,0.0272709,1.66715,1.79,78.0,18.9
0.91,-0.333351,-0.308019,-0.0924058,0.110814,0.0971603,0.0196254,0.00588763,0.0634024,0.114789,0.0816276,0.0244883,0.0559865,0.114297,0.0629687,-0.0880583,-0.222415,-0.0104281,-0.00312842,-0.0566516,-0.105894,2.9161,-0.047242,-15.1058,-0.0886488,0.124601,0.0373803,-0.0570981,-0.157036,0.35404,0.106212,-0.3479,0.24616,0.0,0.0670753,-0.557833,0.252212,0.0756637,0.148337,-0.311478,0.0670677,0.143938,0.0440502,-0.0122553,-0.0821794,-0.0910461,-0.0301466,0.075701,0.218935,-0.0426338,-0.0477845,0.158829,-0.217877,0.0401196,0.320025,-0.417061,0.191585,0.0817551,0.187838,-0.399367,0.220358,0.215114,-0.743095,-0.037877,1.02155,0.0503081,0.16266,0.233594,0.105472,0.320395,0.441259,0.530706,0.110806,-0.0886338,-0.575042,-0.229885,0.131665,-0.209395,0.253913,-0.253246,-1.13308,-0.113736,0.0129146,138.207,342.152,945.876,-0.0357297,0.0271494,1.66781,1.79,78.0,18.9
0.92,-0.315371,-0.282976,-0.0848927,0.095439,0.0929359,0.0207799,0.00623396,0.0656039,0.153052,0.0870695,0.0261208,0.0581398,0.114297,0.0615998,-0.0874248,-0.225094,0.0,0.0,-0.0583683,-0.0550945,3.61111,-0.0524911,-17.6243,-0.0886488,0.170341,0.0511022,-0.060507,-0.177083,0.37006,0.111018,-0.40002,0.302425,0.0,0.0602309,-0.594028,0.269026,0.0807079,0.147007,-0.313317,0.0670694,0.148936,0.0376728,-0.0112293,-0.0829254,-0.0913092,-0.0307316,0.0754695,0.214078,-0.0427731,-0.0468269,0.160228,-0.219553,0.0314478,0.343727,-0.402526,0.196921,0.0827144,0.183869,-0.413215,0.216286,0.217953,-0.736736,-0.0459591,1.02204,0.0616842,0.165345,0.235599,0.110493,0.3251,0.448548,0.534335,0.109368,-0.0915051,-0.582361,-0.229278,0.130909,-0.21098,0.247045,-0.253694,-1.12976,-0.123298,0.0161515,138.381,341.098,946.051,-0.0329158,0.0275991,1.66927,1.79,78.0,18.9
0.93,-0.305675,-0.260301,-0.0780904,0.095439,0.0915278,0.0253976,0.00761929,0.0664845,0.0892802,0.0816276,0.0244883,0.0473732,0.113295,0.0547554,-0.0899588,-0.219735,0.0,0.0,-0.0595128,-0.000654654,4.31023,-0.0643016,-20.4011,-0.073874,0.203462,0.0610387,-0.0630636,-0.164832,0.41011,0.123033,-0.445624,0.34181,0.0,0.0451732,-0.625965,0.293313,0.087994,0.139024,-0.317265,0.0680205,0.151663,0.0352212,-0.011214,-0.0815881,-0.0943506,-0.0315195,0.0754779,0.214829,-0.0470614,-0.0471382,0.161868,-0.223582,0.0266324,0.367451,-0.419417,0.199317,0.0824063,0.175152,-0.419261,0.212595,0.220822,-0.722696,-0.060825,1.02359,0.078089,0.170401,0.234475,0.111475,0.331052,0.461689,0.545008,0.108048,-0.0939907,-0.586889,-0.227804,0.128435,-0.212489,0.233877,-0.260481,-1.11849,-0.122518,0.0154813,138.144,340.056,946.173,-0.031148,0.0284354,1.66891,1.79,78.0,18.9
0.9500000000000001,-0.27315,-0.195578,-0.0586734,0.0800634,0.101385,0.0288609,0.00865828,0.0691262,0.114789,0.0884299,0.026529,0.0409132,0.1153,0.0602309,-0.0886918,-0.225094,-0.00834245,-0.00250273,-0.0595128,0.119942,6.1519,-0.0747998,-26.7297,-0.0755157,0.23343,0.0700289,-0.064768,-0.162604,0.469384,0.140815,-0.471684,0.416362,0.0,-0.0109511,-0.63661,0.349361,0.104808,0.112417,-0.315229,0.0653221,0.159487,0.0326933,-0.0113567,-0.0798517,-0.103988,-0.0308545,0.0757816,0.206271,-0.0446848,-0.049032,0.170367,-0.225214,0.0152158,0.406245,-0.419749,0.200866,0.0817332,0.158995,-0.422364,0.205675,0.230226,-0.713869,-0.0685468,1.03172,0.081821,0.178507,0.231223,0.121155,0.342817,0.483498,0.556302,0.105651,-0.098572,-0.594498,-0.224961,0.12526,-0.217305,0.216459,-0.251726,-1.10897,-0.124728,0.00699498,137.845,337.717,946.566,-0.0277366,0.0287291,1.66695,1.79,78.0,18.9
0.96,-0.244363,-0.143841,-0.0431524,0.0570002,0.0971603,0.036942,0.0110826,0.0691262,0.0637716,0.0870695,0.0261208,0.0172266,0.114297,0.0629687,-0.0848907,-0.246532,-0.00625684,-0.00187705,-0.0563655,0.162414,6.70912,-0.0734875,-28.9253,-0.0804406,0.230275,0.0690826,-0.0673247,-0.151467,0.487005,0.146102,-0.483411,0.445901,0.0,-0.0191644,-0.649385,0.373648,0.112094,0.10643,-0.310381,0.067395,0.162665,0.0317154,-0.0121313,-0.0789982,-0.106899,-0.030599,0.0747882,0.187715,-0.0434801,-0.0476021,0.175158,-0.224941,0.00785178,0.423298,-0.422676,0.204343,0.0833912,0.155053,-0.424637,0.202705,0.234933,-0.707916,-0.0743961,1.03896,0.0704536,0.176217,0.230866,0.124578,0.345675,0.491602,0.547872,0.104757,-0.100106,-0.598652,-0.22314,0.123507,-0.219175,0.216241,-0.247451,-1.10318,-0.127991,0.00405797,137.629,336.749,946.774,-0.0266249,0.0288672,1.66561,1.79,78.0,18.9
0.97,-0.21086,-0.0848568,-0.025457,0.0236866,0.0971603,0.0496408,0.0148922,0.0713277,0.114789,0.0884299,0.026529,0.00645998,0.111289,0.0643376,-0.0848907,-0.254571,-0.0104281,-0.00312842,-0.0560794,0.194342,7.06019,-0.0839857,-30.6689,-0.078799,0.24447,0.0733411,-0.0681769,-0.160377,0.498219,0.149466,-0.51338,0.46278,0.0,-0.0177955,-0.664289,0.397935,0.11938,0.107095,-0.31066,0.056351,0.162592,0.0261154,-0.0126108,-0.0789861,-0.107632,-0.0296314,0.0729504,0.190897,-0.0268623,-0.0414992,0.176229,-0.224664,-0.000484179,0.448106,-0.436486,0.207337,0.0848083,0.152339,-0.423587,0.196469,0.24312,-0.701181,-0.0940898,1.05696,0.0654496,0.182894,0.22575,0.123393,0.353931,0.503699,0.55279,0.103484,-0.101155,-0.603712,-0.219977,0.122515,-0.221911,0.210257,-0.236574,-1.09716,-0.114713,0.00202181,137.888,335.58,946.87,-0.0255674,0.0284987,1.66425,1.79,78.0,18.9
0.98,-0.17241,-0.029891,-0.00896731,-0.00193925,0.101385,0.0611852,0.0183556,0.0766113,0.0,0.0952322,0.0285697,0.00215333,0.109284,0.0574932,-0.0791891,-0.249212,-0.0125137,-0.0037541,-0.0537904,0.227609,7.46408,-0.0879225,-32.6062,-0.0755157,0.250779,0.0752338,-0.0707335,-0.158149,0.531861,0.159558,-0.540743,0.485286,0.0,-0.0177955,-0.677064,0.42409,0.127227,0.111752,-0.333873,0.0524519,0.162391,0.0231283,-0.0138233,-0.078324,-0.108411,-0.0288569,0.074324,0.211824,-0.0297792,-0.03587,0.173306,-0.22337,-0.00616964,0.470491,-0.443377,0.204534,0.0838359,0.147878,-0.412559,0.191675,0.249657,-0.697928,-0.0985824,1.06172,0.0700108,0.183544,0.226627,0.123229,0.357545,0.518988,0.55729,0.103773,-0.104165,-0.605012,-0.218936,0.119045,-0.224744,0.203459,-0.243129,-1.08933,-0.123487,0.00467667,137.69,334.086,947.092,-0.0245787,0.0296183,1.66063,1.79,78.0,18.9
1.0,-0.12463,0.105944,0.0317832,-0.0557535,0.105609,0.0865828,0.0259749,0.0858574,-0.0255086,0.0965927,0.0289778,-0.00861331,0.105274,0.0574932,-0.075388,-0.238493,-0.0229417,-0.00688252,-0.0474958,0.270582,7.9654,-0.0866103,-34.4144,-0.073874,0.257088,0.0771265,-0.0715857,-0.160377,0.549483,0.164845,-0.568106,0.510606,0.0,-0.0150577,-0.689839,0.461455,0.138436,0.113082,-0.333116,0.0568472,0.161478,0.0145198,-0.0129692,-0.076621,-0.10916,-0.0283119,0.0699877,0.200105,-0.0374467,-0.024208,0.171445,-0.215506,-0.0115001,0.520124,-0.476779,0.203661,0.0851166,0.139205,-0.396202,0.18275,0.26444,-0.680176,-0.131391,1.0778,0.0356215,0.163572,0.22386,0.129326,0.36267,0.547682,0.572659,0.101927,-0.106673,-0.607072,-0.215354,0.11473,-0.228685,0.187954,-0.249849,-1.0693,-0.127298,0.00714083,137.28,331.13,947.426,-0.0228389,0.0285779,1.65559,1.79,78.0,18.9
1.01,-0.121162,0.116421,0.0349263,-0.0685664,0.102793,0.102745,0.0308235,0.091141,0.038263,0.0925113,0.0277534,-0.00861331,0.105274,0.0547554,-0.0665188,-0.214376,-0.0437978,-0.0131394,-0.0483542,0.30414,8.24816,-0.0813611,-35.5122,-0.0705907,0.279169,0.0837508,-0.0784034,-0.155922,0.575115,0.172535,-0.57853,0.530298,0.0,-0.00136888,-0.694097,0.491347,0.147404,0.113082,-0.345534,0.0446686,0.161569,0.013714,-0.0127788,-0.0726538,-0.112062,-0.0282965,0.0690773,0.212067,-0.0245356,-0.0162902,0.164497,-0.216923,-0.0164009,0.541166,-0.491123,0.198565,0.0855673,0.143093,-0.378028,0.183953,0.267919,-0.668963,-0.148368,1.08729,0.0268379,0.160599,0.221271,0.123848,0.365944,0.558964,0.580861,0.102403,-0.108154,-0.601375,-0.214271,0.112764,-0.231595,0.185019,-0.264638,-1.069,-0.123119,0.00699961,136.94,329.385,947.601,-0.0227382,0.0285087,1.64839,1.79,78.0,18.9
1.02,-0.120284,0.165718,0.0497155,-0.0941923,0.0971603,0.101591,0.0304772,0.094223,0.0127543,0.0965927,0.0289778,0.00215333,0.106276,0.0602309,-0.0582832,-0.192938,-0.0354554,-0.0106366,-0.0463513,0.333012,8.48844,-0.0695507,-36.5454,-0.0574576,0.305982,0.0917947,-0.0826645,-0.164832,0.592737,0.177821,-0.590257,0.542958,0.0,-0.00273777,-0.694097,0.513766,0.15413,0.113747,-0.347383,0.0497108,0.161779,0.0118501,-0.0135121,-0.0707606,-0.11276,-0.0276417,0.0664534,0.203236,-0.0346864,-0.0123805,0.158661,-0.212081,-0.0174963,0.562772,-0.498984,0.199168,0.0864046,0.138723,-0.371775,0.180755,0.277587,-0.668029,-0.153058,1.08808,-0.00481108,0.149777,0.219118,0.129001,0.367493,0.569404,0.577881,0.102156,-0.109168,-0.601628,-0.213078,0.111879,-0.232102,0.180861,-0.266774,-1.06331,-0.12338,0.0109474,136.615,327.991,947.704,-0.0224423,0.027948,1.64517,1.79,78.0,18.9
1.03,-0.12392,0.188393,0.0565178,-0.0941923,0.0999765,0.105054,0.0315162,0.101708,-0.0318858,0.0993136,0.0297941,-0.00430665,0.104271,0.0533865,-0.051948,-0.17418,-0.0396266,-0.011888,-0.0443485,0.3618,8.80436,-0.0629893,-37.6432,-0.0377578,0.323332,0.0969996,-0.0920388,-0.147012,0.608757,0.182627,-0.588954,0.559837,0.0,0.00410665,-0.679193,0.536184,0.160855,0.114412,-0.348486,0.026738,0.161736,0.00426155,-0.0145831,-0.0700729,-0.109186,-0.0256001,0.0615431,0.197676,0.00217508,-0.00600829,0.145766,-0.218896,-0.0252538,0.586845,-0.521298,0.199099,0.0870829,0.14291,-0.362901,0.181043,0.282303,-0.652866,-0.174355,1.08771,-0.0167677,0.148824,0.22132,0.114292,0.368979,0.58592,0.570983,0.101469,-0.110819,-0.603843,-0.210781,0.108267,-0.235349,0.178499,-0.260813,-1.05459,-0.125479,0.0242216,136.487,326.073,947.797,-0.0217632,0.0280982,1.64303,1.79,78.0,18.9
1.05,-0.127556,0.188393,0.0565178,-0.0941923,0.094344,0.116598,0.0349795,0.111835,0.0446401,0.103395,0.0310185,0.0,0.106276,0.0615998,-0.051948,-0.136664,-0.037541,-0.0112623,-0.0406289,0.427115,9.1803,-0.0551156,-39.3868,0.0131332,0.362763,0.108829,-0.102265,-0.120283,0.650409,0.195123,-0.545955,0.572497,0.0,0.00684442,-0.651514,0.556735,0.16702,0.117073,-0.360865,0.0381613,0.161536,0.00170323,-0.0127715,-0.0729391,-0.115345,-0.0282845,0.0617785,0.203651,-0.032022,0.00453822,0.122309,-0.209556,-0.035304,0.633873,-0.529399,0.191881,0.0870879,0.153158,-0.338868,0.179752,0.301821,-0.647782,-0.17386,1.07569,-0.022642,0.135171,0.215788,0.121608,0.370363,0.620112,0.554173,0.100426,-0.114105,-0.595773,-0.207797,0.0987448,-0.241984,0.178822,-0.263286,-1.04663,-0.116986,0.0187969,135.532,322.155,947.891,-0.0207103,0.0276027,1.63556,1.79,78.0,18.9
1.06,-0.133549,0.176266,0.0528797,-0.0890671,0.0929359,0.115444,0.0346331,0.112275,0.0446401,0.104755,0.0314266,-0.01292,0.108282,0.0684442,-0.0538486,-0.115227,-0.027113,-0.00813389,-0.0394845,0.465148,9.34912,-0.0590524,-40.0972,0.0426828,0.372226,0.111668,-0.107379,-0.0913256,0.666429,0.199929,-0.51338,0.578124,0.0,0.00684442,-0.621706,0.564208,0.169262,0.113747,-0.369035,0.0405792,0.161641,-0.00148292,-0.0129308,-0.0683039,-0.115718,-0.0303299,0.0584287,0.208048,-0.0341029,0.0107517,0.1099,-0.207462,-0.0304744,0.65762,-0.537389,0.178325,0.0846038,0.156803,-0.314342,0.177233,0.314993,-0.648213,-0.198722,1.07381,-0.0296594,0.126788,0.215045,0.1258,0.372033,0.634951,0.551139,0.099874,-0.115763,-0.589698,-0.207521,0.0941745,-0.242698,0.178164,-0.263537,-1.03899,-0.11712,0.0154135,134.755,320.526,947.953,-0.0197148,0.0277811,1.62848,1.79,78.0,18.9
1.07,-0.138598,0.223983,0.067195,-0.104443,0.0915278,0.115444,0.0346331,0.114036,0.0573944,0.0993136,0.0297941,-0.00645998,0.108282,0.0725509,-0.0557491,-0.0991487,-0.0291986,-0.00875957,-0.0391983,0.507824,9.37707,-0.0590524,-40.2909,0.0689491,0.386421,0.115926,-0.109083,-0.061255,0.679244,0.203773,-0.479502,0.572497,0.0,0.00684442,-0.58764,0.56234,0.168702,0.109091,-0.382523,0.0352617,0.162295,-0.00398907,-0.0136752,-0.0694451,-0.116291,-0.0301824,0.0562655,0.218532,-0.0288719,0.0179191,0.108168,-0.20328,-0.0333117,0.674875,-0.535359,0.177197,0.0840236,0.164421,-0.311735,0.17953,0.3241,-0.649132,-0.196091,1.07181,-0.0485878,0.11539,0.213304,0.128901,0.370958,0.649848,0.554093,0.099695,-0.117986,-0.5866,-0.206807,0.0899537,-0.245405,0.176259,-0.277838,-1.03621,-0.112354,0.00684172,134.224,318.355,947.906,-0.0191493,0.0279396,1.62607,1.79,78.0,18.9
1.08,-0.141156,0.214226,0.0642677,-0.114693,0.0971603,0.117753,0.0353258,0.116678,-0.0191315,0.104755,0.0314266,0.00215333,0.103269,0.0739198,-0.0544821,-0.096469,-0.0312842,-0.00938525,-0.0400567,0.54707,9.44956,-0.0643016,-40.6784,0.10014,0.389575,0.116873,-0.110787,-0.0356393,0.685652,0.205696,-0.444321,0.569684,0.0,0.00273777,-0.551445,0.567944,0.170383,0.105765,-0.385843,0.0333509,0.162236,-0.00422954,-0.0146769,-0.0682623,-0.120991,-0.0299102,0.0510224,0.222265,-0.0299261,0.0243538,0.106185,-0.203698,-0.0371734,0.696391,-0.535018,0.173084,0.08263,0.172587,-0.30651,0.181019,0.335299,-0.648981,-0.207642,1.06701,-0.0608608,0.109888,0.214525,0.130148,0.373857,0.669406,0.534221,0.0995584,-0.12092,-0.584978,-0.205534,0.0867685,-0.246695,0.174847,-0.275661,-1.03735,-0.118241,0.00781487,133.588,316.177,947.793,-0.0184519,0.0281392,1.62314,1.79,78.0,18.9
1.1,-0.138832,0.257925,0.0773774,-0.122381,0.0985684,0.128143,0.0384428,0.117118,0.0829031,0.106116,0.0318348,0.00215333,0.109284,0.0739198,-0.0576497,-0.0803909,-0.027113,-0.00813389,-0.0371955,0.582719,9.55205,-0.0708629,-41.3887,0.126407,0.380112,0.114034,-0.107379,-0.0278432,0.67604,0.202812,-0.407838,0.566871,0.0,-0.00136888,-0.521637,0.558603,0.167581,0.1051,-0.383151,0.0363936,0.161475,-0.0121336,-0.014946,-0.0646164,-0.12007,-0.0310082,0.0459579,0.205521,-0.0261727,0.0289924,0.100927,-0.208458,-0.0452195,0.710067,-0.569431,0.159047,0.0788532,0.192517,-0.283222,0.203899,0.342252,-0.646324,-0.200721,1.04766,-0.0774251,0.10913,0.212255,0.118766,0.375058,0.69583,0.518562,0.100715,-0.125742,-0.58472,-0.203866,0.0748644,-0.252755,0.175958,-0.266072,-1.04662,-0.110747,0.0195686,132.8,311.466,948.049,-0.0178356,0.0278879,1.61663,1.79,78.0,18.9
1.11,-0.137654,0.278159,0.0834478,-0.124943,0.0985684,0.129297,0.0387891,0.118439,0.153052,0.100674,0.0302022,0.0,0.112292,0.0739198,-0.0532151,-0.0750315,-0.0208561,-0.00625684,-0.0346204,0.610585,9.71053,-0.0813611,-41.9699,0.152673,0.381689,0.114507,-0.109935,0.00334118,0.682448,0.204735,-0.377869,0.566871,0.0,-0.00136888,-0.4897,0.564208,0.169262,0.101109,-0.387586,0.0267926,0.161799,-0.0131756,-0.0162685,-0.0659619,-0.12288,-0.0294732,0.0401726,0.202493,-0.019647,0.0381543,0.103642,-0.208623,-0.0519289,0.727216,-0.563563,0.158193,0.078279,0.202942,-0.283664,0.206582,0.353085,-0.647333,-0.208402,1.03602,-0.0808178,0.109761,0.208585,0.130937,0.379285,0.710803,0.513095,0.100429,-0.12785,-0.583554,-0.201331,0.0729253,-0.254922,0.177843,-0.271985,-1.04443,-0.106476,0.0113202,132.405,309.122,948.037,-0.017633,0.0272433,1.61432,1.79,78.0,18.9
1.12,-0.132839,0.241709,0.0725126,-0.127506,0.104201,0.129297,0.0387891,0.1202,0.0510173,0.111558,0.0334673,-0.00215333,0.113295,0.0766575,-0.0538486,-0.0669924,-0.0250273,-0.0075082,-0.0349066,0.64435,9.70737,-0.099733,-42.2928,0.170731,0.384844,0.115453,-0.109935,0.012251,0.682448,0.204735,-0.349203,0.564057,0.0,0.00410665,-0.468409,0.554867,0.16646,0.0977827,-0.390849,0.0291087,0.165624,-0.018341,-0.0181456,-0.0659433,-0.121766,-0.0289696,0.0387629,0.203919,-0.024801,0.0399147,0.104042,-0.205557,-0.0670094,0.73086,-0.575688,0.155574,0.0783648,0.223477,-0.281032,0.214159,0.362698,-0.654917,-0.227378,1.03584,-0.0795313,0.104441,0.210308,0.12976,0.378089,0.720192,0.525347,0.100674,-0.130135,-0.582211,-0.19994,0.0702365,-0.255782,0.175085,-0.293225,-1.05415,-0.122338,0.0254775,132.11,306.919,948.159,-0.0171771,0.0273511,1.60973,1.79,78.0,18.9
1.1300000000000001,-0.128158,0.252186,0.0756557,-0.140319,0.105609,0.138533,0.0415598,0.121962,0.0829031,0.11836,0.035508,0.00645998,0.113295,0.0793953,-0.0475135,-0.0723518,-0.0208561,-0.00625684,-0.0351927,0.675563,9.78089,-0.114168,-42.7448,0.188789,0.383267,0.11498,-0.109935,0.036753,0.682448,0.204735,-0.312719,0.564057,0.0,-0.00136888,-0.425826,0.552998,0.1659,0.091796,-0.400344,0.0285234,0.165806,-0.0193782,-0.0181674,-0.0692092,-0.124714,-0.0277757,0.0342383,0.209574,-0.0304736,0.0531809,0.102917,-0.21338,-0.0737229,0.736755,-0.572667,0.15194,0.0779901,0.232911,-0.276003,0.221372,0.37145,-0.655924,-0.214584,1.02193,-0.076088,0.122422,0.208657,0.125554,0.378177,0.741848,0.509583,0.100561,-0.131334,-0.58226,-0.19927,0.0669792,-0.256411,0.175488,-0.29686,-1.0471,-0.118212,0.0299554,131.7,304.598,948.215,-0.0167833,0.025837,1.60808,1.79,78.0,18.9
1.1500000000000001,-0.120685,0.244148,0.0732444,-0.124943,0.11265,0.137378,0.0412134,0.124603,0.0892802,0.115639,0.0346917,0.0107666,0.114297,0.0766575,-0.0500475,-0.0643127,-0.0208561,-0.00625684,-0.0346204,0.754682,9.96108,-0.137789,-43.6489,0.216697,0.387998,0.116399,-0.108231,0.0556864,0.680846,0.204254,-0.241054,0.562651,0.0,0.00547554,-0.338532,0.545526,0.163658,0.0864745,-0.4072,0.0134981,0.16212,-0.0262319,-0.0178105,-0.0696106,-0.12851,-0.027767,0.0274541,0.217531,-0.013752,0.0615223,0.104733,-0.214119,-0.100387,0.730696,-0.583398,0.143349,0.076222,0.263076,-0.2619,0.253452,0.37558,-0.663232,-0.207491,0.999024,-0.0852617,0.121265,0.20203,0.127449,0.380411,0.772486,0.524064,0.0998924,-0.13515,-0.582629,-0.195844,0.0599267,-0.255931,0.157136,-0.316553,-1.04804,-0.113141,0.0252899,131.118,299.55,948.647,-0.0157207,0.0245515,1.60629,1.79,78.0,18.9
1.16,-0.116071,0.249746,0.0749239,-0.142881,0.109833,0.14315,0.0429451,0.122842,0.210446,0.11836,0.035508,0.00645998,0.111289,0.0725509,-0.0513145,-0.0589533,-0.0187705,-0.00563115,-0.0329037,0.795351,10.0522,-0.152224,-44.1655,0.231472,0.386421,0.115926,-0.112492,0.0757335,0.68405,0.205215,-0.214994,0.559837,0.0,0.00410665,-0.304466,0.538053,0.161416,0.0838137,-0.420179,0.0201158,0.162977,-0.0271803,-0.014921,-0.0714243,-0.131582,-0.0303486,0.0224366,0.225351,-0.018803,0.0662497,0.105532,-0.201812,-0.110474,0.732243,-0.585786,0.141317,0.0755679,0.275123,-0.260256,0.260371,0.384829,-0.667218,-0.21003,0.983096,-0.0754745,0.117644,0.196518,0.137364,0.379438,0.785683,0.511483,0.0998358,-0.136894,-0.576819,-0.194816,0.0580418,-0.256187,0.155698,-0.29426,-1.03935,-0.107076,0.0138538,130.576,296.711,948.879,-0.0156136,0.0234388,1.60369,1.79,78.0,18.9
1.17,-0.111223,0.266752,0.0800256,-0.142881,0.11265,0.137378,0.0412134,0.122842,0.127543,0.119721,0.0359162,0.00861331,0.116302,0.0766575,-0.049414,-0.061633,-0.0229417,-0.00688252,-0.0317592,0.835308,10.1755,-0.154849,-44.6176,0.241322,0.380112,0.114034,-0.109935,0.0801884,0.671234,0.20137,-0.203267,0.551398,0.0,0.00547554,-0.278916,0.532448,0.159734,0.0824834,-0.414598,0.00716061,0.163367,-0.0294084,-0.015081,-0.0666773,-0.134475,-0.0323451,0.0145648,0.217228,-0.00576385,0.0723098,0.107154,-0.202836,-0.115577,0.727903,-0.561024,0.139327,0.0752452,0.282151,-0.25872,0.270618,0.395325,-0.679853,-0.200566,0.967199,-0.0750745,0.114426,0.196395,0.141631,0.380138,0.797229,0.514625,0.0996311,-0.138176,-0.575718,-0.193432,0.0560065,-0.253326,0.151149,-0.293446,-1.04325,-0.112882,0.0153242,130.409,294.942,948.948,-0.0152478,0.0230391,1.60062,1.79,78.0,18.9
1.18,-0.104051,0.265102,0.0795307,-0.150569,0.114058,0.138533,0.0415598,0.122402,0.223201,0.123802,0.0371406,0.00215333,0.113295,0.0793953,-0.0500475,-0.0562736,-0.0145993,-0.00437978,-0.0323315,0.864136,10.2738,-0.174533,-45.0696,0.244605,0.373803,0.112141,-0.112492,0.101349,0.67604,0.202812,-0.185025,0.541551,0.0,0.00684442,-0.266141,0.523107,0.156932,0.0824834,-0.418961,0.0177938,0.164302,-0.0346962,-0.0163303,-0.0626414,-0.133541,-0.0322198,0.00814495,0.223253,-0.018755,0.0796143,0.109469,-0.196378,-0.130713,0.719933,-0.582662,0.135146,0.0743293,0.30879,-0.250918,0.28068,0.403343,-0.683335,-0.225884,0.957752,-0.0921198,0.105874,0.192187,0.143603,0.377111,0.812566,0.506295,0.100289,-0.139742,-0.571151,-0.189465,0.0530819,-0.25479,0.155777,-0.30594,-1.04033,-0.116886,0.0162317,130.445,292.308,949.134,-0.0156103,0.0231178,1.59283,1.79,78.0,18.9
1.2,-0.100315,0.244078,0.0732233,-0.142881,0.118282,0.14315,0.0429451,0.123723,0.13392,0.125162,0.0375487,0.00430665,0.118308,0.0793953,-0.0551156,-0.0455548,-0.0145993,-0.00437978,-0.0331898,0.904261,10.3204,-0.19028,-45.3925,0.23968,0.372226,0.111668,-0.112492,0.105804,0.664827,0.199448,-0.177207,0.533112,0.0,0.00821331,-0.249108,0.511897,0.153569,0.0804878,-0.426186,0.0126311,0.165693,-0.0471882,-0.0160468,-0.0644696,-0.128244,-0.0332677,-0.00513507,0.222777,-0.0274422,0.0977208,0.107616,-0.196059,-0.148593,0.698777,-0.576597,0.133103,0.0717124,0.328509,-0.248097,0.301925,0.417005,-0.692916,-0.229592,0.931892,-0.0767304,0.110291,0.185435,0.143814,0.37354,0.837965,0.505507,0.10137,-0.143407,-0.558561,-0.186998,0.0494236,-0.250823,0.149411,-0.293215,-1.03352,-0.106707,0.0148999,130.349,287.4,949.345,-0.0160401,0.0227107,1.5888,1.79,78.0,18.9
1.21,-0.106375,0.266752,0.0800256,-0.142881,0.11265,0.144305,0.0432914,0.124163,0.204069,0.11836,0.035508,0.0172266,0.121315,0.0780264,-0.050681,-0.0562736,-0.00625684,-0.00187705,-0.031187,0.941205,10.4334,-0.204715,-45.7154,0.234755,0.373803,0.112141,-0.113344,0.0757335,0.647205,0.194161,-0.177207,0.519045,0.0,0.00958219,-0.24485,0.508161,0.152448,0.0764967,-0.431823,0.00725329,0.165923,-0.0535775,-0.0150495,-0.0655648,-0.125154,-0.0363226,-0.00874573,0.225503,-0.0198916,0.106049,0.109906,-0.192668,-0.158421,0.685117,-0.575222,0.132766,0.0713814,0.343229,-0.248827,0.315247,0.420733,-0.696255,-0.241254,0.921228,-0.078446,0.111217,0.183069,0.146818,0.369862,0.847603,0.497857,0.101501,-0.144954,-0.551834,-0.184871,0.0454608,-0.251347,0.156546,-0.290896,-1.03526,-0.111757,0.0128525,130.267,284.895,949.442,-0.0159957,0.0223794,1.5837,1.79,78.0,18.9
1.22,-0.0929086,0.225492,0.0676477,-0.132631,0.116874,0.14315,0.0429451,0.125484,0.216823,0.125162,0.0375487,0.00861331,0.124323,0.0821331,-0.051948,-0.0455548,-0.0145993,-0.00437978,-0.0326176,0.968276,10.4923,-0.221775,-46.2966,0.22983,0.369071,0.110721,-0.110787,0.0868707,0.639195,0.191758,-0.182419,0.507792,0.0,0.0136888,-0.240592,0.48761,0.146283,0.0764967,-0.429086,-0.00014121,0.167044,-0.0606977,-0.0158764,-0.066428,-0.122245,-0.0362327,-0.0123971,0.217099,-0.00904624,0.109455,0.111084,-0.201411,-0.166098,0.676862,-0.569714,0.132489,0.0708731,0.353036,-0.248912,0.326214,0.426876,-0.700006,-0.24072,0.898805,-0.0832461,0.115027,0.18072,0.146332,0.367558,0.861501,0.507235,0.101574,-0.145831,-0.547933,-0.182069,0.0432687,-0.249207,0.151721,-0.302504,-1.0301,-0.11349,0.018966,130.383,282.569,949.44,-0.0162523,0.0219276,1.58018,1.79,78.0,18.9
1.23,-0.0895734,0.282898,0.0848693,-0.155694,0.111241,0.150077,0.0450231,0.125044,0.17856,0.126523,0.0379569,0.00861331,0.121315,0.0766575,-0.0487805,-0.0455548,-0.00208561,-0.000625684,-0.0340482,1.00221,10.4788,-0.230961,-46.4903,0.224905,0.378535,0.11356,-0.110787,0.0590275,0.616767,0.18503,-0.185025,0.500759,0.0,0.0164266,-0.236334,0.476401,0.14292,0.0718404,-0.433125,0.000774567,0.168037,-0.0686711,-0.016,-0.0670827,-0.118351,-0.037952,-0.0153064,0.223647,-0.0163643,0.117394,0.11081,-0.203087,-0.172377,0.657354,-0.551366,0.131055,0.069446,0.358144,-0.247898,0.336881,0.433807,-0.711985,-0.232952,0.895614,-0.0814454,0.124493,0.17761,0.152946,0.367042,0.875064,0.506002,0.103009,-0.148254,-0.54476,-0.180662,0.0396566,-0.245949,0.14682,-0.290401,-1.02314,-0.112133,0.0117151,130.368,280.331,949.58,-0.0165487,0.0219746,1.57615,1.79,78.0,18.9
1.25,-0.0859039,0.251326,0.0753977,-0.153132,0.118282,0.152386,0.0457157,0.129447,0.184938,0.129244,0.0387731,0.0172266,0.121315,0.0739198,-0.051948,-0.0401954,-0.00625684,-0.00187705,-0.0314731,1.06417,10.5389,-0.241459,-47.1361,0.203564,0.380112,0.114034,-0.109935,0.0556864,0.597543,0.179263,-0.192843,0.472627,0.0,0.0150577,-0.208655,0.440904,0.132271,0.0731707,-0.442835,-0.00331529,0.16323,-0.0838585,-0.01678,-0.0588533,-0.110696,-0.0405539,-0.01755,0.234726,-0.00231161,0.126898,0.113042,-0.201938,-0.172184,0.617027,-0.550938,0.125828,0.0664259,0.375843,-0.244346,0.37507,0.429591,-0.715539,-0.226622,0.861818,-0.0758671,0.132988,0.173722,0.149932,0.365407,0.897305,0.51432,0.104058,-0.149324,-0.524029,-0.177423,0.0308866,-0.244411,0.14515,-0.302343,-1.02683,-0.1197,0.014983,130.418,275.465,949.568,-0.016738,0.0203206,1.55714,1.79,78.0,18.9
1.26,-0.0824015,0.275579,0.0826738,-0.163382,0.122506,0.154695,0.0464084,0.128126,0.210446,0.134686,0.0404057,0.00861331,0.128334,0.0752887,-0.0500475,-0.026797,-0.00208561,-0.000625684,-0.0329037,1.09434,10.6403,-0.250645,-47.7818,0.192072,0.378535,0.11356,-0.106526,0.0478903,0.584727,0.175418,-0.205873,0.457154,0.0,0.0246399,-0.210784,0.412881,0.123864,0.0751663,-0.444377,-0.00689219,0.161868,-0.0928565,-0.0156845,-0.0379793,-0.107265,-0.0401082,-0.0388506,0.234669,0.000993951,0.130108,0.115719,-0.202337,-0.172525,0.596646,-0.566003,0.12411,0.0647094,0.381492,-0.24231,0.400241,0.421125,-0.709874,-0.224497,0.841599,-0.084494,0.128634,0.171189,0.155969,0.360375,0.908536,0.529815,0.104728,-0.150398,-0.514218,-0.176989,0.0260303,-0.243079,0.140803,-0.315652,-1.03206,-0.123081,0.0145975,130.591,272.968,949.6,-0.0168538,0.0195104,1.55265,1.79,78.0,18.9
1.27,-0.0773862,0.236759,0.0710278,-0.150569,0.121098,0.157004,0.0471011,0.129006,0.248709,0.130604,0.0391813,0.0172266,0.125326,0.0739198,-0.050681,-0.026797,0.00834245,0.00250273,-0.0320454,1.12175,10.6786,-0.26508,-48.1047,0.175656,0.381689,0.114507,-0.105674,0.0200471,0.560697,0.168209,-0.218903,0.436054,0.0,0.0314843,-0.217171,0.39233,0.117699,0.0771619,-0.445041,0.000365187,0.162125,-0.100656,-0.0147071,-0.0365468,-0.103487,-0.0436913,-0.039019,0.239468,-0.00935718,0.131944,0.117824,-0.209889,-0.174816,0.56785,-0.584351,0.123136,0.0639119,0.390127,-0.241889,0.421872,0.41773,-0.718135,-0.231161,0.821996,-0.0910446,0.127896,0.168013,0.161434,0.357148,0.920833,0.522414,0.10376,-0.15075,-0.509403,-0.173388,0.0194136,-0.240794,0.135998,-0.294851,-1.03006,-0.122148,0.0152046,130.591,270.776,949.619,-0.016823,0.0188711,1.54834,1.79,78.0,18.9
1.28,-0.0774865,0.235109,0.0705329,-0.158257,0.130955,0.147768,0.0443304,0.129006,0.216823,0.134686,0.0404057,0.0215333,0.124323,0.0752887,-0.048147,-0.0294766,0.00834245,0.00250273,-0.033476,1.14208,10.7408,-0.27689,-48.363,0.155956,0.372226,0.111668,-0.108231,0.0167059,0.543075,0.162923,-0.239751,0.417768,0.0,0.0424354,-0.227817,0.371779,0.111534,0.0784922,-0.442484,0.00141741,0.161123,-0.10845,-0.0152388,-0.0330617,-0.0998402,-0.0448037,-0.0415048,0.235045,-0.00933711,0.13711,0.118576,-0.202615,-0.17672,0.551063,-0.580912,0.121626,0.0626545,0.395747,-0.241556,0.4398,0.414935,-0.713649,-0.209444,0.795229,-0.0830466,0.131296,0.163382,0.159933,0.359048,0.933869,0.528724,0.103649,-0.151516,-0.50469,-0.169694,0.0137619,-0.240528,0.135472,-0.308534,-1.02728,-0.114719,0.0197016,130.503,268.477,949.537,-0.0170405,0.0181103,1.54079,1.79,78.0,18.9
1.3,-0.0570491,0.262592,0.0787777,-0.17107,0.136588,0.155849,0.0467547,0.130327,0.274218,0.138767,0.0416301,0.0193799,0.130339,0.0725509,-0.0563826,-0.0160782,0.0166849,0.00500547,-0.0331898,1.17045,10.6858,-0.284764,-48.5568,0.136257,0.37538,0.112614,-0.109935,-0.0200471,0.530259,0.159078,-0.251478,0.402295,0.0,0.0506487,-0.238463,0.343756,0.103127,0.0771619,-0.435848,0.0069491,0.154051,-0.11802,-0.0237436,-0.0365215,-0.100522,-0.0397432,-0.0402075,0.219733,-0.00726824,0.156811,0.121724,-0.194701,-0.177627,0.518675,-0.58723,0.117644,0.0593548,0.407958,-0.240036,0.464491,0.418783,-0.727243,-0.231152,0.755986,-0.080346,0.125769,0.159159,0.163818,0.357028,0.962292,0.533781,0.104184,-0.153689,-0.493927,-0.167401,0.0042916,-0.237732,0.129941,-0.299019,-1.01115,-0.114188,0.0134133,130.243,264.234,949.374,-0.0166221,0.0171798,1.5305,1.79,78.0,18.9
1.31,-0.0570157,0.282038,0.0846113,-0.168507,0.14222,0.157004,0.0471011,0.131648,0.274218,0.144209,0.0432627,0.01292,0.139362,0.0684442,-0.0582832,-0.00803909,0.027113,0.00813389,-0.033476,1.19513,10.8111,-0.287389,-49.138,0.116557,0.378535,0.11356,-0.106526,-0.036753,0.523851,0.157155,-0.263205,0.389636,0.0,0.0561243,-0.253367,0.321337,0.0964011,0.0778271,-0.438347,0.0136468,0.148857,-0.118074,-0.0254886,-0.0374899,-0.106648,-0.0426604,-0.0385776,0.218318,-0.0166725,0.166138,0.125347,-0.186573,-0.184671,0.500039,-0.580468,0.116349,0.0591845,0.423306,-0.240813,0.471088,0.429342,-0.744482,-0.226706,0.731479,-0.0889456,0.112154,0.159115,0.161171,0.354275,0.96898,0.547802,0.104332,-0.155056,-0.486305,-0.166957,0.00166543,-0.234516,0.128862,-0.302041,-1.01406,-0.116239,0.0217144,130.107,262.514,949.353,-0.0160438,0.0175002,1.52417,1.79,78.0,18.9
1.32,-0.0476538,0.285986,0.0857958,-0.194133,0.143628,0.155849,0.0467547,0.13429,0.369875,0.157813,0.047344,0.00861331,0.150391,0.0629687,-0.0576497,0.0026797,0.0437978,0.0131394,-0.0354788,1.21396,10.864,-0.288701,-49.3317,0.103424,0.37538,0.112614,-0.11164,-0.036753,0.519045,0.155714,-0.278841,0.382603,0.0,0.0643376,-0.264012,0.308259,0.0924778,0.0751663,-0.444517,0.0157819,0.143538,-0.117752,-0.0263115,-0.0398582,-0.112276,-0.045086,-0.0395433,0.227068,-0.0185818,0.171466,0.124839,-0.186353,-0.187628,0.488256,-0.565724,0.115087,0.0573468,0.428863,-0.240806,0.476969,0.436372,-0.752821,-0.23731,0.720687,-0.0823835,0.120626,0.15649,0.162185,0.348448,0.977653,0.538697,0.10505,-0.156561,-0.47853,-0.166683,0.000604058,-0.232011,0.131891,-0.288972,-1.01136,-0.114503,0.023535,129.953,260.381,949.342,-0.0160409,0.0171945,1.51872,1.79,78.0,18.9
1.33,-0.0403816,0.30866,0.0925981,-0.194133,0.152077,0.158158,0.0474474,0.136051,0.376252,0.161895,0.0485684,0.00645998,0.159415,0.058862,-0.0627178,0.00803909,0.0771676,0.0231503,-0.0391983,1.24961,11.0411,-0.291325,-50.042,0.0902905,0.378535,0.11356,-0.108231,-0.0590275,0.519045,0.155714,-0.285356,0.379789,0.0,0.0684442,-0.253367,0.291445,0.0874336,0.0771619,-0.450746,0.0126028,0.14679,-0.11835,-0.0258745,-0.0443763,-0.116724,-0.0481991,-0.0381798,0.236031,-0.0177904,0.176377,0.126196,-0.186482,-0.193414,0.473134,-0.56051,0.113619,0.056089,0.440317,-0.240454,0.48304,0.443337,-0.759903,-0.227758,0.702157,-0.0799926,0.120887,0.155363,0.166756,0.347343,0.988978,0.535376,0.105171,-0.158203,-0.472567,-0.165034,-0.00344398,-0.230033,0.134109,-0.285421,-1.01265,-0.116858,0.0246212,129.608,258.282,949.29,-0.0160729,0.017178,1.51401,1.79,78.0,18.9
1.35,-0.0369461,0.322367,0.09671,-0.209509,0.153485,0.160467,0.0481401,0.140454,0.408138,0.17822,0.0534661,0.0,0.177461,0.047911,-0.0677859,0.0321563,0.108452,0.0325355,-0.0429179,1.30522,11.1508,-0.291325,-50.6878,0.0705907,0.395884,0.118765,-0.107379,-0.0779609,0.523851,0.157155,-0.300992,0.378383,0.0,0.0725509,-0.238463,0.257817,0.0773451,0.0758315,-0.446695,0.00287657,0.13989,-0.118364,-0.028238,-0.0464723,-0.125674,-0.0538915,-0.0291247,0.237891,-0.00715812,0.183427,0.132116,-0.198747,-0.189585,0.441936,-0.552072,0.110422,0.0536768,0.448852,-0.241178,0.494981,0.456872,-0.786443,-0.229333,0.664654,-0.0997478,0.1375,0.151859,0.165319,0.355924,1.00742,0.540146,0.108138,-0.161308,-0.466895,-0.161909,-0.0114041,-0.226212,0.135038,-0.293158,-1.01339,-0.113536,0.0290958,129.12,254.595,949.026,-0.0164616,0.0166169,1.49672,1.79,78.0,18.9
1.36,-0.0273502,0.315048,0.0945145,-0.217196,0.166158,0.170857,0.051257,0.141775,0.395384,0.187744,0.0563231,-0.0107666,0.192501,0.0424354,-0.0734875,0.0375157,0.133479,0.0400437,-0.0472097,1.32936,11.1736,-0.292638,-51.0753,0.0607409,0.395884,0.118765,-0.106526,-0.0813021,0.538269,0.161481,-0.304901,0.372756,0.0,0.0793953,-0.238463,0.235398,0.0706194,0.0778271,-0.451212,0.00363928,0.139146,-0.118452,-0.0261887,-0.0472969,-0.129841,-0.0591565,-0.0293997,0.240969,-0.00116102,0.188899,0.131872,-0.192094,-0.193474,0.429504,-0.551662,0.109374,0.0520529,0.458425,-0.240293,0.496967,0.466327,-0.802224,-0.236647,0.646027,-0.086313,0.13531,0.151271,0.165914,0.358987,1.01765,0.547418,0.109475,-0.163173,-0.465981,-0.160715,-0.0153617,-0.222049,0.132396,-0.303736,-1.00783,-0.113454,0.0325864,128.901,252.686,948.928,-0.0168872,0.0162857,1.49295,1.79,78.0,18.9
1.37,-0.0106492,0.312538,0.0937615,-0.237697,0.167566,0.16393,0.0491791,0.140014,0.484664,0.202709,0.0608126,-0.01292,0.214558,0.0273777,-0.0766551,0.0321563,0.162678,0.0488033,-0.0509292,1.35722,11.3155,-0.291325,-51.6565,0.0443244,0.405348,0.121604,-0.102265,-0.085757,0.541473,0.162442,-0.306204,0.375569,0.0,0.0807642,-0.227817,0.216716,0.0650147,0.0784922,-0.448494,0.00334253,0.135037,-0.118178,-0.0265212,-0.0510243,-0.133907,-0.0603398,-0.0286772,0.235974,-0.00247047,0.191776,0.134162,-0.184789,-0.194019,0.422011,-0.563145,0.10755,0.0511355,0.463083,-0.239215,0.500847,0.471884,-0.802391,-0.245483,0.613415,-0.0876209,0.125993,0.149623,0.172917,0.360161,1.02517,0.5495,0.109863,-0.164095,-0.465305,-0.158858,-0.017856,-0.219361,0.132889,-0.290062,-1.00312,-0.119686,0.0339567,128.419,250.96,948.931,-0.0171952,0.0153107,1.48808,1.79,78.0,18.9
1.3800000000000001,-0.00764835,0.368224,0.110467,-0.286386,0.177423,0.172011,0.0516034,0.141775,0.459155,0.209511,0.0628533,-0.0215333,0.23862,0.0177955,-0.0829902,0.0401954,0.206476,0.0619427,-0.0549349,1.38488,11.3838,-0.288701,-51.7856,0.0410411,0.430583,0.129175,-0.103118,-0.102463,0.546279,0.163884,-0.306204,0.374163,0.0,0.0889775,-0.227817,0.205506,0.0616519,0.0778271,-0.449228,0.00407483,0.133883,-0.118184,-0.0265066,-0.0518195,-0.138806,-0.0625491,-0.0271503,0.240535,-0.0034238,0.197921,0.137187,-0.184978,-0.193006,0.416149,-0.554651,0.106551,0.0506615,0.467728,-0.238569,0.50071,0.481811,-0.812618,-0.24479,0.59113,-0.0942633,0.127939,0.147732,0.172538,0.36331,1.03031,0.567849,0.11097,-0.164485,-0.463344,-0.1586,-0.0201935,-0.216486,0.130389,-0.297785,-1.00791,-0.118207,0.0338206,128.162,249.362,948.821,-0.0173422,0.0143009,1.48235,1.79,78.0,18.9
1.4000000000000001,0.0415184,0.439773,0.131932,-0.419641,0.202769,0.183556,0.0550667,0.153223,0.567567,0.269371,0.0808114,-0.0430665,0.29978,-0.0136888,-0.102629,0.0669924,0.312842,0.0938525,-0.0649491,1.40672,11.5133,-0.279515,-52.1085,0.0344745,0.451087,0.135326,-0.101413,-0.102463,0.557493,0.167248,-0.306204,0.375569,0.0,0.0889775,-0.219301,0.196165,0.0588495,0.0791574,-0.446766,0.00490699,0.125746,-0.118134,-0.0266242,-0.0533956,-0.147042,-0.0669089,-0.0254699,0.238264,-0.00509806,0.205571,0.140043,-0.180706,-0.194461,0.404151,-0.551234,0.107428,0.0503102,0.480874,-0.2426,0.501791,0.498683,-0.82678,-0.251365,0.544749,-0.0846832,0.127393,0.143002,0.173663,0.364972,1.05049,0.554905,0.111366,-0.165549,-0.455219,-0.153729,-0.0273691,-0.213016,0.135496,-0.303695,-1.00779,-0.112968,0.0399139,127.668,246.089,948.523,-0.0182362,0.0129779,1.47116,1.79,78.0,18.9
1.41,0.0760321,0.410429,0.123129,-0.46833,0.212626,0.182401,0.0547204,0.155864,0.535681,0.29522,0.088566,-0.0516798,0.331863,-0.0328532,-0.10643,0.0777112,0.362896,0.108869,-0.0689548,1.42484,11.6315,-0.270329,-52.2377,0.0377578,0.481055,0.144316,-0.105674,-0.106918,0.575115,0.172535,-0.306204,0.379789,0.0,0.0889775,-0.217171,0.20177,0.0605309,0.0731707,-0.445541,0.00691682,0.124003,-0.117402,-0.0283762,-0.049086,-0.151073,-0.0679085,-0.0171025,0.235686,-0.00741901,0.209651,0.143034,-0.171197,-0.195064,0.397724,-0.548219,0.104796,0.0502707,0.49952,-0.240582,0.50352,0.502999,-0.834427,-0.264367,0.532401,-0.0837161,0.128039,0.142845,0.170042,0.368306,1.05788,0.554167,0.11319,-0.164869,-0.443496,-0.153084,-0.0312563,-0.212802,0.136488,-0.299624,-1.00573,-0.122029,0.0403383,127.125,244.337,948.358,-0.0188236,0.0115601,1.45455,1.79,78.0,18.9
1.42,0.102095,0.457216,0.137165,-0.514456,0.226707,0.191637,0.057491,0.159827,0.688733,0.32515,0.097545,-0.0473732,0.366954,-0.0465421,-0.109598,0.0884299,0.423379,0.127014,-0.0729604,1.44341,11.7868,-0.261143,-52.6251,0.0410411,0.503136,0.150941,-0.101413,-0.125851,0.591135,0.17734,-0.304901,0.389636,0.0,0.0862397,-0.210784,0.194297,0.058289,0.0758315,-0.438918,0.00166849,0.116969,-0.117398,-0.0303959,-0.0504278,-0.153901,-0.0668843,-0.0170886,0.227529,-0.0027632,0.212303,0.145204,-0.169256,-0.198212,0.387311,-0.536577,0.105867,0.0507053,0.503092,-0.240531,0.513303,0.501206,-0.836549,-0.257027,0.514308,-0.0783334,0.122276,0.142507,0.171445,0.365818,1.06298,0.557006,0.114418,-0.164881,-0.442075,-0.152763,-0.03359,-0.209776,0.135467,-0.303127,-1.01159,-0.120183,0.054475,126.952,243.173,948.226,-0.0199932,0.0104465,1.45301,1.79,78.0,18.9
1.43,0.116104,0.423854,0.127156,-0.555457,0.235156,0.1951,0.05853,0.167752,0.65047,0.359162,0.107748,-0.0581398,0.398035,-0.0547554,-0.1191,0.101828,0.473434,0.14203,-0.0758216,1.45254,11.8998,-0.244083,-52.948,0.0476077,0.526794,0.158038,-0.103118,-0.120283,0.613563,0.184069,-0.298386,0.407922,0.0,0.0862397,-0.19588,0.199901,0.0599704,0.0731707,-0.44,0.00551753,0.113533,-0.11716,-0.0315927,-0.0481521,-0.157,-0.0671384,-0.0203225,0.229701,-0.00952146,0.217772,0.145417,-0.179023,-0.197243,0.378939,-0.560979,0.105458,0.0498294,0.503105,-0.241441,0.513657,0.507919,-0.840299,-0.260419,0.49786,-0.0763877,0.131164,0.141289,0.173896,0.364662,1.07009,0.563193,0.115061,-0.165615,-0.4374,-0.152318,-0.0373403,-0.209241,0.139232,-0.313969,-1.00553,-0.118031,0.0452259,126.481,241.812,948.064,-0.0205957,0.0102844,1.44918,1.79,78.0,18.9
1.45,0.143379,0.453635,0.136091,-0.601584,0.245013,0.214725,0.0644176,0.171275,0.714242,0.387731,0.116319,-0.0602931,0.426108,-0.0643376,-0.126069,0.096469,0.519317,0.155795,-0.0749633,1.49379,12.05,-0.227024,-53.0126,0.0607409,0.583575,0.175072,-0.105674,-0.103577,0.671234,0.20137,-0.285356,0.436054,0.0,0.0903464,-0.180976,0.198033,0.05941,0.0758315,-0.441811,0.00567471,0.106095,-0.117724,-0.0329197,-0.0461031,-0.163136,-0.0651928,-0.0203219,0.230312,-0.0102349,0.215963,0.151828,-0.174798,-0.197327,0.369862,-0.551339,0.104276,0.0487933,0.511717,-0.241153,0.522281,0.509303,-0.846739,-0.268463,0.4723,-0.0826207,0.130741,0.137583,0.183091,0.369233,1.08385,0.56153,0.115496,-0.16649,-0.43303,-0.149055,-0.0424369,-0.209088,0.140784,-0.31906,-1.00214,-0.121589,0.0398678,125.575,238.542,947.731,-0.021476,0.00781015,1.44146,1.79,78.0,18.9
1.46,0.167052,0.440508,0.132152,-0.645148,0.260502,0.221652,0.0664956,0.173036,0.816276,0.420382,0.126115,-0.0667531,0.462202,-0.0739198,-0.128603,0.120586,0.569372,0.170812,-0.0769661,1.4981,11.9464,-0.295262,-52.7543,0.0623825,0.613542,0.184063,-0.103118,-0.121396,0.69206,0.207618,-0.278841,0.461374,0.0,0.0848708,-0.212913,0.168141,0.0504424,0.0864745,-0.438621,0.00437258,0.101276,-0.120317,-0.0329958,-0.0445553,-0.162175,-0.0653674,-0.0210157,0.227997,-0.00549973,0.216562,0.154019,-0.168476,-0.197248,0.369288,-0.538893,0.104611,0.0485346,0.513017,-0.241348,0.525649,0.510452,-0.847076,-0.264554,0.455531,-0.0795433,0.131115,0.13626,0.181972,0.370549,1.08914,0.559437,0.115746,-0.166185,-0.430466,-0.147368,-0.0442897,-0.206564,0.141868,-0.328049,-1.00375,-0.120569,0.0462684,125.22,237.386,947.525,-0.0224245,0.00669318,1.43826,1.79,78.0,18.9
1.47,0.19278,0.462901,0.13887,-0.7169,0.267543,0.241278,0.0723833,0.176558,0.962951,0.453033,0.13591,-0.0581398,0.499298,-0.0807642,-0.136205,0.142024,0.604827,0.181448,-0.0761077,1.49462,11.9154,-0.309697,-52.3668,0.0673074,0.649818,0.194945,-0.10397,-0.10469,0.736916,0.221075,-0.280144,0.489506,0.0,0.0793953,-0.238463,0.136381,0.0409144,0.0944568,-0.439603,0.00926077,0.09568,-0.120982,-0.0348549,-0.0445308,-0.163643,-0.0631212,-0.0201463,0.218962,-0.00967131,0.218126,0.15981,-0.15343,-0.19164,0.365135,-0.551287,0.105845,0.0487935,0.513312,-0.244179,0.531992,0.508296,-0.84575,-0.273162,0.449566,-0.0810463,0.119111,0.134658,0.184102,0.368705,1.09213,0.558537,0.116216,-0.165273,-0.427477,-0.147338,-0.0441517,-0.206692,0.142526,-0.327241,-0.998384,-0.114602,0.0441891,124.872,236.027,947.35,-0.0229245,0.00485014,1.43463,1.79,78.0,18.9
1.48,0.232919,0.515216,0.154565,-0.798903,0.281624,0.250513,0.0751539,0.182722,0.962951,0.480243,0.144073,-0.0624465,0.529377,-0.083502,-0.143174,0.155422,0.650711,0.195213,-0.0786828,1.50161,12.0998,-0.282139,-52.496,0.0902905,0.689249,0.206775,-0.108231,-0.0813021,0.759344,0.227803,-0.271023,0.512012,0.0,0.0848708,-0.238463,0.130777,0.039233,0.0931264,-0.438839,0.0112793,0.0906291,-0.123706,-0.0355427,-0.0456727,-0.163567,-0.0636808,-0.0175575,0.222625,-0.014267,0.218203,0.161941,-0.153811,-0.190948,0.363472,-0.552459,0.106181,0.0486592,0.517525,-0.245114,0.533729,0.511524,-0.847696,-0.266928,0.446761,-0.0809237,0.115414,0.134435,0.186956,0.370899,1.0962,0.565372,0.117316,-0.165778,-0.42483,-0.147109,-0.0446349,-0.205475,0.144536,-0.342896,-1.00061,-0.11715,0.0423928,124.65,234.871,947.166,-0.0234199,0.00415498,1.43103,1.79,78.0,18.9
1.5,0.340439,0.686868,0.206061,-1.0116,0.309786,0.286301,0.0858902,0.187125,0.924688,0.529219,0.158766,-0.0602931,0.592541,-0.0725509,-0.157745,0.198297,0.713279,0.213984,-0.0809718,1.50437,12.2044,-0.261143,-52.8189,0.096857,0.733411,0.220023,-0.112492,-0.0746197,0.805802,0.241741,-0.268417,0.554211,0.0,0.0971908,-0.208655,0.141986,0.0425958,0.0964523,-0.440454,0.0117619,0.0762918,-0.130389,-0.0374489,-0.04398,-0.160725,-0.0641036,-0.015408,0.222207,-0.0105238,0.217082,0.167265,-0.152048,-0.191064,0.35595,-0.563755,0.105913,0.0477157,0.525639,-0.246869,0.539708,0.513909,-0.852991,-0.257606,0.445048,-0.0833813,0.11848,0.133876,0.18558,0.368448,1.09766,0.56943,0.118148,-0.166699,-0.416288,-0.146319,-0.0429578,-0.203597,0.148515,-0.34578,-1.00625,-0.119673,0.0442452,124.144,232.529,946.806,-0.0239789,0.00325347,1.42377,1.79,78.0,18.9
1.51,0.376775,0.760998,0.228299,-1.10641,0.319643,0.289764,0.0869292,0.188006,1.02035,0.538742,0.161623,-0.0689064,0.623622,-0.0684442,-0.159012,0.219735,0.746649,0.223995,-0.0818301,1.50446,12.2034,-0.233585,-52.7543,0.103424,0.772842,0.231853,-0.113344,-0.073506,0.837842,0.251352,-0.271023,0.58797,0.0,0.106773,-0.19588,0.156932,0.0470796,0.0977827,-0.440886,0.0108471,0.0695391,-0.132696,-0.0395369,-0.0421327,-0.160368,-0.0641505,-0.0137811,0.218201,-0.00378447,0.213448,0.169734,-0.156087,-0.192304,0.356584,-0.564843,0.105809,0.0474258,0.530792,-0.246939,0.544852,0.513682,-0.856146,-0.256273,0.432316,-0.0914578,0.115318,0.132532,0.186279,0.367357,1.09773,0.575194,0.118985,-0.167162,-0.411022,-0.146212,-0.0417826,-0.203279,0.150012,-0.35194,-1.00504,-0.115939,0.0440523,124.049,231.519,946.635,-0.024386,0.00301732,1.42051,1.79,78.0,18.9
1.52,0.425633,0.74536,0.223608,-1.17048,0.335133,0.297845,0.0893535,0.193289,0.975705,0.567312,0.170194,-0.0710598,0.6537,-0.0602309,-0.166614,0.249212,0.775848,0.232754,-0.081544,1.50772,12.3102,-0.20734,-52.6897,0.10999,0.7965,0.23895,-0.115901,-0.0690511,0.887503,0.266251,-0.271023,0.625949,0.0,0.108142,-0.180976,0.183087,0.0549262,0.0991131,-0.438897,0.0114522,0.0575094,-0.132688,-0.040801,-0.0431998,-0.162286,-0.0642269,-0.0120982,0.218125,-0.00520417,0.214563,0.169492,-0.153907,-0.194362,0.355714,-0.572806,0.105772,0.0472371,0.535958,-0.247187,0.548098,0.514578,-0.85267,-0.244746,0.427731,-0.0860749,0.117377,0.132155,0.188558,0.367293,1.09844,0.574662,0.119496,-0.167255,-0.407716,-0.145534,-0.037951,-0.201791,0.152604,-0.351896,-1.00359,-0.118307,0.0435391,123.737,230.627,946.6,-0.0249335,0.00261212,1.41708,1.79,78.0,18.9
1.53,0.453819,0.764524,0.229357,-1.23967,0.350622,0.305926,0.0917778,0.193289,1.116,0.586359,0.175908,-0.0689064,0.68077,-0.047911,-0.167247,0.26529,0.811303,0.243391,-0.0846913,1.50923,12.3195,-0.195529,-52.7543,0.126407,0.821736,0.246521,-0.11931,-0.049004,0.919543,0.275863,-0.255387,0.662521,0.0,0.104035,-0.176718,0.198033,0.05941,0.102439,-0.439703,0.010409,0.0477169,-0.134294,-0.0415344,-0.0423059,-0.162472,-0.0643525,-0.011182,0.217181,-0.00296809,0.214672,0.16997,-0.154583,-0.19987,0.360125,-0.579898,0.105499,0.0472864,0.544882,-0.246868,0.551372,0.515535,-0.852022,-0.249667,0.412506,-0.0817297,0.121074,0.132511,0.18842,0.367287,1.10051,0.589521,0.120352,-0.16812,-0.40642,-0.145059,-0.0354026,-0.200131,0.151772,-0.363986,-1.00216,-0.119465,0.0491223,123.451,229.713,946.406,-0.0254333,0.00230277,1.41436,1.79,78.0,18.9
1.55,0.487388,0.743359,0.223008,-1.26786,0.371744,0.323243,0.0969728,0.200334,1.09049,0.606765,0.18203,-0.0667531,0.708843,-0.0314843,-0.176117,0.278688,0.846758,0.254028,-0.0849774,1.52153,12.3744,-0.137789,-53.0772,0.147748,0.881671,0.264501,-0.140615,-0.0723923,0.974011,0.292203,-0.247569,0.710347,0.0,0.150577,-0.19588,0.226057,0.067817,0.118404,-0.444096,0.0136634,0.0183471,-0.139921,-0.0430084,-0.0411888,-0.159558,-0.0645219,-0.0023618,0.215358,-0.00194432,0.212773,0.175451,-0.150844,-0.203726,0.362449,-0.600783,0.105605,0.0484874,0.556514,-0.246414,0.557908,0.516954,-0.854555,-0.239869,0.384486,-0.0867405,0.117987,0.129887,0.198226,0.36795,1.10635,0.584178,0.122126,-0.167144,-0.397424,-0.144924,-0.0285562,-0.196465,0.149383,-0.36652,-1.00196,-0.122451,0.0446773,123.22,228.1,946.154,-0.0262914,0.000348691,1.40507,1.79,78.0,18.9
1.56,0.503821,0.727002,0.218101,-1.30886,0.390049,0.345177,0.103553,0.201215,1.19253,0.633975,0.190192,-0.0667531,0.739924,-0.0219022,-0.183719,0.310845,0.867615,0.260284,-0.086408,1.52249,12.2811,-0.102358,-52.948,0.134615,0.936874,0.281062,-0.152546,-0.0824158,1.0429,0.312869,-0.259296,0.751139,0.0,0.172479,-0.180976,0.246607,0.0739822,0.119734,-0.445909,0.0118863,0.00692438,-0.142223,-0.0431829,-0.0394041,-0.159977,-0.0644838,-0.00193434,0.217662,0.00371838,0.211626,0.176064,-0.147369,-0.204361,0.363624,-0.608801,0.105553,0.0482221,0.561428,-0.246274,0.560019,0.518977,-0.858714,-0.242131,0.370135,-0.0873609,0.117434,0.129855,0.193624,0.36967,1.10704,0.588973,0.122982,-0.167557,-0.39627,-0.145066,-0.023358,-0.195409,0.148222,-0.366999,-1.00473,-0.122518,0.0439702,123.215,227.162,946.137,-0.0264534,-0.000214788,1.40307,1.79,78.0,18.9
1.57,0.536922,0.790725,0.237217,-1.37292,0.411171,0.365957,0.109787,0.205618,1.21804,0.64894,0.194682,-0.0473732,0.771005,-0.00547554,-0.188153,0.321563,0.888471,0.266541,-0.0881247,1.5227,12.2469,-0.0839857,-53.4,0.123123,0.993654,0.298096,-0.155955,-0.0913256,1.10057,0.330171,-0.280144,0.793338,0.0,0.186168,-0.170331,0.267158,0.0801474,0.129047,-0.448959,0.0121737,-0.0171233,-0.143876,-0.0441717,-0.0377479,-0.160461,-0.0649007,0.00238794,0.219617,0.0115987,0.215082,0.176191,-0.141739,-0.210576,0.363165,-0.601145,0.105978,0.0487358,0.569491,-0.246665,0.565167,0.518152,-0.869572,-0.24522,0.354497,-0.0786732,0.114662,0.127251,0.195169,0.372668,1.10862,0.586548,0.123505,-0.168039,-0.397273,-0.143868,-0.0216302,-0.196262,0.148377,-0.36698,-1.01601,-0.116186,0.0441044,123.05,226.414,945.965,-0.0267371,-0.000671903,1.40119,1.79,78.0,18.9
1.58,0.564331,0.790584,0.237175,-1.4088,0.429477,0.387891,0.116367,0.208259,1.28181,0.676149,0.202845,-0.0473732,0.791057,0.00273777,-0.193221,0.337642,0.909327,0.272798,-0.0889831,1.5304,12.1919,-0.0708629,-53.5938,0.108349,1.05043,0.31513,-0.160216,-0.118055,1.14542,0.343627,-0.294477,0.845383,0.0,0.188906,-0.161814,0.300786,0.0902359,0.135698,-0.453197,0.0147994,-0.0309351,-0.145941,-0.0450945,-0.0352895,-0.159521,-0.0640999,0.00205837,0.219957,0.0081298,0.213434,0.177158,-0.134531,-0.209791,0.360612,-0.62012,0.105839,0.0482959,0.572396,-0.246629,0.568652,0.519048,-0.869605,-0.233318,0.338148,-0.0753784,0.110174,0.12642,0.194251,0.372724,1.10486,0.600716,0.12448,-0.168181,-0.39606,-0.143982,-0.0141738,-0.194456,0.14771,-0.369335,-1.02159,-0.118302,0.0458978,123.023,225.729,945.965,-0.0269788,-0.00114341,1.3984,1.79,78.0,18.9
1.6,0.628042,0.924488,0.277346,-1.54205,0.456231,0.42137,0.126411,0.212662,1.19891,0.7088,0.21264,-0.0473732,0.829156,0.0260088,-0.201457,0.367118,0.93644,0.280932,-0.0889831,1.52253,12.1163,-0.0669261,-53.5292,0.0853655,1.1151,0.33453,-0.159363,-0.121396,1.2063,0.36189,-0.306204,0.915714,0.0,0.176586,-0.157556,0.356833,0.10705,0.143016,-0.457322,0.0156932,-0.0613722,-0.148839,-0.0457561,-0.0308582,-0.159321,-0.0638863,0.00118298,0.217637,0.00740655,0.211793,0.179522,-0.135275,-0.211607,0.357968,-0.639025,0.105518,0.0479624,0.578055,-0.246499,0.576353,0.519012,-0.869528,-0.217881,0.30849,-0.0816322,0.1083,0.125298,0.197098,0.372068,1.10657,0.603772,0.125025,-0.168407,-0.391718,-0.142676,-0.00107242,-0.191484,0.148226,-0.377311,-1.02772,-0.124441,0.0447333,122.863,224.415,945.944,-0.0275085,-0.00174118,1.39412,1.79,78.0,18.9
1.61,0.656462,0.972065,0.291619,-1.5933,0.467496,0.428296,0.128489,0.214423,1.31369,0.716963,0.215089,-0.0473732,0.840185,0.0383288,-0.200824,0.377837,0.963553,0.289066,-0.0869803,1.51032,11.994,-0.0629893,-53.1417,0.0623825,1.16557,0.349672,-0.156807,-0.112486,1.288,0.3864,-0.337476,0.995892,0.0,0.156053,-0.174589,0.433431,0.130029,0.148337,-0.460568,0.0155974,-0.0748097,-0.150063,-0.0456111,-0.0294096,-0.159321,-0.0640149,0.00165081,0.219023,0.00730357,0.209156,0.182154,-0.136815,-0.211585,0.356496,-0.651714,0.105677,0.0479563,0.580987,-0.245994,0.579515,0.519416,-0.870853,-0.20773,0.296561,-0.0919854,0.106932,0.124281,0.202245,0.373135,1.10716,0.613087,0.125546,-0.168197,-0.38881,-0.142475,0.0047413,-0.19061,0.149336,-0.389434,-1.02941,-0.124253,0.037969,122.838,223.865,945.964,-0.0280488,-0.00236741,1.39265,1.79,78.0,18.9
1.62,0.677878,0.999477,0.299843,-1.62406,0.463271,0.439841,0.131952,0.216625,1.20528,0.73737,0.221211,-0.0516798,0.853219,0.0396977,-0.203991,0.388556,0.967724,0.290317,-0.0861219,1.50538,11.9629,-0.0629893,-53.2709,0.0410411,1.20027,0.360081,-0.153398,-0.108032,1.35368,0.406105,-0.367445,1.08873,0.0,0.134151,-0.183105,0.511897,0.153569,0.154324,-0.482272,0.018395,-0.0929588,-0.151281,-0.0462069,-0.0225182,-0.158901,-0.0640626,0.00072024,0.23974,0.00966003,0.206616,0.180031,-0.133841,-0.213548,0.349542,-0.641197,0.10585,0.0476329,0.583446,-0.245513,0.582501,0.519397,-0.885086,-0.206876,0.281628,-0.0812795,0.107532,0.120364,0.200561,0.373036,1.10874,0.606823,0.126375,-0.168326,-0.38719,-0.141704,0.00869423,-0.190596,0.147758,-0.390412,-1.02935,-0.120059,0.0400524,122.796,223.211,946.012,-0.0286962,-0.00265987,1.39046,1.79,78.0,18.9
1.6300000000000001,0.69778,1.05595,0.316786,-1.67787,0.463271,0.45254,0.135762,0.218386,1.1734,0.750974,0.225292,-0.0559865,0.864247,0.0410665,-0.205892,0.391236,0.980238,0.294071,-0.0875525,1.50149,11.9039,-0.0656138,-53.2063,0.0164164,1.22866,0.368598,-0.153398,-0.114714,1.43538,0.430615,-0.359627,1.15765,0.0,0.113617,-0.19588,0.58289,0.174867,0.156984,-0.479403,0.0188477,-0.104289,-0.152614,-0.0466841,-0.0212434,-0.158732,-0.0637872,0.00284044,0.235703,0.0130295,0.203957,0.180892,-0.131261,-0.214855,0.347559,-0.654764,0.105647,0.0475392,0.587108,-0.246104,0.583561,0.521527,-0.888115,-0.189969,0.267933,-0.0831156,0.105158,0.122313,0.202775,0.372223,1.11416,0.612309,0.126205,-0.168447,-0.384237,-0.14115,0.0121714,-0.191109,0.149045,-0.404383,-1.02355,-0.125194,0.0412352,122.57,222.677,945.896,-0.0286937,-0.00272951,1.38827,1.79,78.0,18.9
1.6500000000000001,0.710477,1.14565,0.343695,-1.72656,0.467496,0.459466,0.13784,0.221028,1.17977,0.764579,0.229374,-0.0667531,0.879286,0.058862,-0.208426,0.399275,0.990666,0.2972,-0.0846913,1.46768,11.9836,-0.0971085,-53.5292,-0.0377578,1.28544,0.385632,-0.162772,-0.120283,1.48825,0.446475,-0.364839,1.21392,0.0,0.149208,-0.187364,0.687512,0.206253,0.161641,-0.487817,0.0227267,-0.134753,-0.153692,-0.0512757,-0.0180067,-0.15841,-0.0607439,0.0074595,0.236923,0.0192431,0.199804,0.180751,-0.126667,-0.218972,0.331576,-0.657196,0.105171,0.0469546,0.598778,-0.243924,0.590128,0.521182,-0.907325,-0.174965,0.25684,-0.0763638,0.101468,0.120374,0.202529,0.373796,1.12032,0.607976,0.127169,-0.168531,-0.384896,-0.138994,0.019081,-0.192056,0.149718,-0.406737,-1.01649,-0.125284,0.0397226,122.395,221.931,945.867,-0.0298781,-0.00295677,1.38559,1.79,78.0,18.9
1.6600000000000001,0.732127,1.16179,0.348538,-1.73937,0.467496,0.469856,0.140957,0.223229,1.14789,0.774102,0.232231,-0.0753664,0.889312,0.0684442,-0.207159,0.415353,1.00318,0.300954,-0.0829746,1.45409,12.0012,-0.120729,-53.5938,-0.0492493,1.30437,0.39131,-0.167033,-0.124737,1.51068,0.453203,-0.359627,1.22517,0.0,0.164266,-0.180976,0.732349,0.219705,0.166962,-0.488067,0.023423,-0.146155,-0.154877,-0.0512614,-0.0167937,-0.158293,-0.0610967,0.00843742,0.231064,0.0191893,0.19861,0.1826,-0.124862,-0.222042,0.32227,-0.671861,0.105515,0.0474651,0.600589,-0.243797,0.592963,0.521506,-0.912553,-0.158612,0.264031,-0.0828018,0.100123,0.119299,0.20101,0.3754,1.11881,0.625678,0.127831,-0.168609,-0.384051,-0.138616,0.025286,-0.191661,0.150424,-0.416242,-1.01536,-0.12678,0.0420956,122.521,221.553,945.957,-0.0300867,-0.00340848,1.38419,1.79,78.0,18.9
1.67,0.748493,1.21992,0.365976,-1.7855,0.473128,0.489482,0.146845,0.222349,1.116,0.789067,0.23672,-0.0732131,0.903349,0.0807642,-0.210326,0.418032,1.00526,0.301579,-0.0832607,1.44384,12.0417,-0.141726,-53.5292,-0.0689491,1.31699,0.395096,-0.168738,-0.10469,1.5283,0.45849,-0.357021,1.23783,0.0,0.183431,-0.185234,0.769714,0.230914,0.174945,-0.488339,0.0254749,-0.156222,-0.155781,-0.0516677,-0.014788,-0.157725,-0.0606031,0.00767039,0.227756,0.015406,0.197625,0.182615,-0.126847,-0.222915,0.319274,-0.67945,0.105552,0.0472959,0.606086,-0.242532,0.59301,0.523938,-0.914015,-0.145757,0.26234,-0.0844698,0.100604,0.118232,0.203925,0.374041,1.12016,0.635955,0.128376,-0.168386,-0.381089,-0.138581,0.0304771,-0.191564,0.152413,-0.425704,-1.01579,-0.124195,0.0404505,122.53,221.232,945.967,-0.0307209,-0.00359208,1.38261,1.79,78.0,18.9
1.68,0.764016,1.21985,0.365955,-1.80344,0.478761,0.506798,0.152039,0.227632,1.17977,0.808114,0.242434,-0.0796731,0.914378,0.083502,-0.217928,0.418032,1.02404,0.307211,-0.0824024,1.43865,12.1794,-0.160098,-53.8521,-0.0771573,1.31856,0.395569,-0.167886,-0.100235,1.5299,0.458971,-0.357021,1.2519,0.0,0.201226,-0.180976,0.803342,0.241003,0.185588,-0.491174,0.0283982,-0.168564,-0.156523,-0.0516601,-0.0122459,-0.157771,-0.0609168,0.00627744,0.226656,0.0152744,0.19596,0.181999,-0.123291,-0.227388,0.316715,-0.68224,0.105957,0.047524,0.609322,-0.242583,0.594739,0.524796,-0.916883,-0.135683,0.257443,-0.0812583,0.100555,0.116859,0.205062,0.371857,1.12019,0.639493,0.128352,-0.168285,-0.380279,-0.137769,0.0359245,-0.190968,0.152633,-0.430767,-1.0142,-0.126614,0.0401174,122.539,220.882,946.06,-0.0310472,-0.00377126,1.38218,1.79,78.0,18.9
1.7,0.794759,1.26578,0.379733,-1.86238,0.480169,0.548358,0.164507,0.236878,1.12238,0.851648,0.255495,-0.0882864,0.940445,0.109511,-0.224897,0.43679,1.03655,0.310965,-0.0818301,1.44246,12.2312,-0.185031,-53.9812,-0.0853655,1.3296,0.398881,-0.172147,-0.105804,1.53631,0.460893,-0.355718,1.26034,0.0,0.217653,-0.178847,0.82763,0.248289,0.197561,-0.495637,0.0318016,-0.188841,-0.157063,-0.0517787,-0.00915797,-0.158475,-0.0603741,0.00604209,0.225053,0.00974239,0.191321,0.181319,-0.123959,-0.230191,0.309567,-0.698265,0.106443,0.047569,0.614001,-0.242516,0.598393,0.526241,-0.921837,-0.112858,0.246439,-0.0823328,0.100045,0.115602,0.204104,0.371704,1.12351,0.65416,0.129314,-0.168542,-0.379307,-0.137208,0.0440055,-0.191684,0.154277,-0.44149,-1.00471,-0.127732,0.0414536,122.508,220.228,946.176,-0.0316469,-0.00392689,1.38059,1.79,78.0,18.9
1.71,0.812472,1.29965,0.389894,-1.89825,0.481577,0.566829,0.170049,0.243483,1.06499,0.863892,0.259168,-0.10336,0.954482,0.113617,-0.224897,0.434111,1.04906,0.314719,-0.0826885,1.44388,12.283,-0.198154,-54.1104,-0.078799,1.3296,0.398881,-0.170442,-0.105804,1.53471,0.460412,-0.358324,1.26596,0.0,0.224497,-0.176718,0.840707,0.252212,0.206874,-0.498348,0.0326888,-0.196221,-0.157572,-0.0520105,-0.00949802,-0.157974,-0.0601094,0.007131,0.223214,0.00916912,0.186564,0.18034,-0.123113,-0.231412,0.306054,-0.699601,0.106671,0.0474349,0.615558,-0.242217,0.599361,0.526055,-0.924551,-0.109504,0.248843,-0.0741954,0.0989061,0.114711,0.205295,0.37156,1.12606,0.655509,0.129908,-0.168707,-0.379123,-0.137572,0.0475563,-0.191439,0.155674,-0.44949,-0.995566,-0.130396,0.0406293,122.492,220.038,946.276,-0.03206,-0.00407112,1.38038,1.79,78.0,18.9
1.72,0.831664,1.29068,0.387204,-1.91363,0.482985,0.580682,0.174205,0.243923,1.09687,0.88702,0.266106,-0.10982,0.969521,0.125937,-0.231232,0.434111,1.05741,0.317222,-0.081544,1.44827,12.2779,-0.202091,-53.7875,-0.0804406,1.33749,0.401247,-0.171294,-0.0801884,1.53791,0.461374,-0.359627,1.27159,0.0,0.23271,-0.178847,0.868731,0.260619,0.218182,-0.501582,0.0345085,-0.203423,-0.15753,-0.0522396,-0.00900715,-0.158567,-0.0602839,0.0092501,0.22456,0.00905088,0.184011,0.180567,-0.123121,-0.231944,0.301429,-0.720145,0.10692,0.0476443,0.618014,-0.24229,0.600827,0.527305,-0.928717,-0.0973228,0.246893,-0.0789429,0.0984527,0.113396,0.20647,0.370698,1.12872,0.670424,0.130236,-0.168668,-0.377671,-0.137199,0.0483257,-0.194322,0.160215,-0.464174,-0.990246,-0.131475,0.0397308,122.48,219.914,946.227,-0.0322262,-0.00415216,1.37928,1.79,78.0,18.9
1.73,0.852068,1.28738,0.386214,-1.929,0.481577,0.586454,0.175936,0.248766,1.00759,0.900625,0.270187,-0.10982,0.987568,0.139626,-0.231866,0.434111,1.06366,0.319099,-0.0844052,1.46208,12.3835,-0.211277,-54.175,-0.0705907,1.33749,0.401247,-0.16959,-0.0768472,1.53471,0.460412,-0.362233,1.28144,0.0,0.23271,-0.168201,0.889281,0.266784,0.22949,-0.506198,0.0355207,-0.212385,-0.157529,-0.0522178,-0.00658966,-0.158068,-0.060152,0.00955759,0.225084,0.00850388,0.181275,0.179976,-0.123026,-0.233668,0.290136,-0.720166,0.107465,0.0478864,0.61973,-0.242023,0.600953,0.527586,-0.939303,-0.0845914,0.263581,-0.0750859,0.0963711,0.112962,0.207512,0.371898,1.13311,0.654544,0.13107,-0.168705,-0.378502,-0.136893,0.0491202,-0.196351,0.164241,-0.464237,-0.979448,-0.127768,0.0395845,122.526,219.708,946.203,-0.0327896,-0.00434259,1.37881,1.79,78.0,18.9
1.75,0.863753,1.33503,0.400508,-1.96232,0.485801,0.597999,0.1794,0.255811,1.00121,0.91423,0.274269,-0.131353,0.998597,0.146471,-0.235033,0.44215,1.07618,0.322853,-0.0832607,1.47973,12.4561,-0.198154,-54.0458,-0.0574576,1.33591,0.400774,-0.168738,-0.0445491,1.54112,0.462335,-0.362233,1.29128,0.0,0.228604,-0.170331,0.947197,0.284159,0.248115,-0.515071,0.0391386,-0.228336,-0.157919,-0.0523377,-0.00386624,-0.157339,-0.0595312,0.0100768,0.22674,0.00972584,0.177033,0.180314,-0.122381,-0.235789,0.285083,-0.739057,0.108,0.0481522,0.621603,-0.242178,0.602478,0.527685,-0.943964,-0.0590741,0.262333,-0.0776182,0.0987256,0.11167,0.207408,0.370365,1.13582,0.644603,0.131212,-0.168456,-0.375746,-0.137261,0.0532727,-0.198827,0.17309,-0.496277,-0.970027,-0.125879,0.0367769,122.585,219.518,946.263,-0.0331753,-0.00455849,1.37856,1.79,78.0,18.9
1.76,0.887793,1.29205,0.387614,-1.97769,0.485801,0.609543,0.182863,0.25449,0.94382,0.931916,0.279575,-0.146426,1.01063,0.161528,-0.242635,0.44215,1.0866,0.325981,-0.0844052,1.49229,12.4913,-0.175845,-54.175,-0.0525326,1.33749,0.401247,-0.164477,-0.0579138,1.5299,0.458971,-0.3479,1.29691,0.0,0.223128,-0.153297,0.969616,0.290885,0.256763,-0.519224,0.039148,-0.230643,-0.157486,-0.0520716,-0.00217888,-0.157428,-0.0594344,0.00981177,0.226599,0.00826758,0.169859,0.180645,-0.12216,-0.236918,0.281983,-0.750247,0.108347,0.0483461,0.622276,-0.242354,0.602478,0.527685,-0.945397,-0.0477772,0.268177,-0.0801775,0.098736,0.11105,0.208973,0.369303,1.13496,0.649241,0.131275,-0.16834,-0.374258,-0.137273,0.0554381,-0.199144,0.173848,-0.498759,-0.95859,-0.124528,0.0367842,122.61,219.51,946.326,-0.0331753,-0.00455849,1.37832,1.79,78.0,18.9
1.77,0.90207,1.33489,0.400466,-1.99819,0.475945,0.622242,0.186673,0.259334,0.899179,0.941439,0.282432,-0.167959,1.02166,0.171111,-0.245803,0.455548,1.09495,0.328484,-0.0861219,1.49731,12.5463,-0.140414,-53.9812,-0.0558159,1.3438,0.40314,-0.164477,-0.0467765,1.5299,0.458971,-0.350506,1.30535,0.0,0.216284,-0.142652,0.997639,0.299292,0.258093,-0.52305,0.0411852,-0.232957,-0.156945,-0.0520716,-0.00138667,-0.157428,-0.0596024,0.0114788,0.22536,0.00670397,0.161282,0.179652,-0.122006,-0.236433,0.283792,-0.757832,0.108857,0.0484127,0.622643,-0.24257,0.602478,0.526777,-0.946957,-0.042139,0.27369,-0.076966,0.0988652,0.110327,0.207415,0.368703,1.13519,0.644563,0.131577,-0.168227,-0.373567,-0.137261,0.0564605,-0.199912,0.174915,-0.500712,-0.947205,-0.123279,0.0365227,122.646,219.51,946.38,-0.033459,-0.00455849,1.37834,1.79,78.0,18.9
1.78,0.920084,1.33969,0.401908,-2.01101,0.473128,0.63725,0.191175,0.261535,0.809899,0.953683,0.286105,-0.180879,1.03068,0.180693,-0.254039,0.450189,1.09912,0.329735,-0.0861219,1.50149,12.6695,-0.118105,-54.4333,-0.0541743,1.34222,0.402666,-0.159363,-0.0445491,1.5299,0.458971,-0.354415,1.31238,0.0,0.217653,-0.140523,1.01445,0.304336,0.264745,-0.527721,0.0446525,-0.233608,-0.156723,-0.0520716,0.000921958,-0.15706,-0.0591618,0.0116383,0.225517,0.00569726,0.15514,0.179136,-0.122184,-0.23692,0.286023,-0.768767,0.109034,0.0485928,0.622578,-0.242874,0.60245,0.526011,-0.947009,-0.0276729,0.273812,-0.0767418,0.0991977,0.109578,0.208716,0.368229,1.13682,0.642677,0.131641,-0.168192,-0.372598,-0.137796,0.0564605,-0.201612,0.17759,-0.514274,-0.937305,-0.122625,0.0351298,122.646,219.559,946.393,-0.033459,-0.00455848,1.3785,1.79,78.0,18.9
1.8,0.952541,1.35419,0.406257,-2.03151,0.459047,0.664956,0.199487,0.267259,0.542059,0.978171,0.293451,-0.208873,1.0397,0.191644,-0.272411,0.447509,1.11789,0.335366,-0.0878386,1.5004,12.7048,-0.106294,-54.0458,-0.0525326,1.35642,0.406925,-0.160216,-0.0256157,1.54432,0.463296,-0.355718,1.32504,0.0,0.210808,-0.140523,1.04248,0.312743,0.262749,-0.535098,0.0496202,-0.237335,-0.155877,-0.0509595,0.00637792,-0.157246,-0.0591897,0.0129574,0.222217,-0.00162826,0.140184,0.178601,-0.123794,-0.238124,0.298799,-0.787246,0.110016,0.0490888,0.621983,-0.24373,0.601872,0.520905,-0.943657,-0.0133138,0.300518,-0.0769333,0.101095,0.108388,0.208367,0.365698,1.13423,0.641018,0.131997,-0.167935,-0.37155,-0.138535,0.0564316,-0.203037,0.176971,-0.523589,-0.921571,-0.121704,0.0341402,122.634,219.745,946.651,-0.0337484,-0.0044363,1.37916,1.79,78.0,18.9
1.81,0.972878,1.30066,0.390199,-2.05201,0.439333,0.685736,0.205721,0.26902,0.478287,0.987694,0.296308,-0.219639,1.04472,0.198488,-0.277479,0.452868,1.11997,0.335992,-0.0875525,1.49986,12.6851,-0.102358,-53.8521,-0.0541743,1.36115,0.408344,-0.165329,-0.0389805,1.53951,0.461854,-0.358324,1.33067,0.0,0.209439,-0.138394,1.06676,0.320029,0.267406,-0.541514,0.0502833,-0.239265,-0.155159,-0.0502777,0.00771424,-0.157246,-0.0590105,0.0150643,0.226054,-0.000605653,0.130987,0.177439,-0.121847,-0.238598,0.315051,-0.807409,0.110384,0.0492748,0.621709,-0.244405,0.601674,0.517279,-0.934389,-0.00132036,0.304055,-0.0743678,0.101045,0.108041,0.205141,0.36484,1.13229,0.638557,0.132021,-0.167875,-0.370674,-0.139219,0.0559647,-0.203928,0.175816,-0.52359,-0.910631,-0.122563,0.032422,122.498,219.77,946.77,-0.0337484,-0.00438564,1.37959,1.79,78.0,18.9
1.82,1.00187,1.27067,0.381201,-2.05969,0.429477,0.700744,0.210223,0.270781,0.376252,1.0081,0.30243,-0.230406,1.05274,0.210808,-0.28318,0.444829,1.12414,0.337243,-0.0875525,1.49555,12.7473,-0.0971085,-54.1104,-0.0525326,1.35484,0.406452,-0.162772,-0.0389805,1.54913,0.464738,-0.359627,1.34474,0.0,0.205333,-0.149039,1.08358,0.325073,0.272727,-0.548327,0.0520325,-0.241276,-0.154968,-0.0492615,0.00961594,-0.156141,-0.0591855,0.0172694,0.227762,0.000717769,0.124953,0.173787,-0.121612,-0.239076,0.325625,-0.828988,0.110903,0.049724,0.621769,-0.244705,0.59863,0.515829,-0.931736,0.0101537,0.317653,-0.0748516,0.0980752,0.108445,0.206746,0.363706,1.13042,0.628757,0.132419,-0.168009,-0.37139,-0.13999,0.0549415,-0.204133,0.173933,-0.52359,-0.904859,-0.122846,0.0345257,122.391,219.901,946.926,-0.0337808,-0.00438564,1.3801,1.79,78.0,18.9
1.83,1.02237,1.29169,0.387508,-2.06738,0.415395,0.713443,0.214033,0.270341,0.38263,1.02443,0.307328,-0.236866,1.06677,0.219022,-0.288248,0.44215,1.13457,0.340372,-0.0892692,1.48618,12.8779,-0.0892348,-53.9812,-0.0574576,1.36273,0.408818,-0.165329,-0.0345255,1.55073,0.465218,-0.371354,1.34896,0.0,0.205333,-0.161814,1.1116,0.333481,0.275388,-0.553529,0.0538629,-0.242888,-0.154646,-0.0423352,0.00926489,-0.156114,-0.0668373,0.0232346,0.229227,0.00139958,0.116585,0.172319,-0.12118,-0.238496,0.34607,-0.846312,0.110845,0.0497708,0.621615,-0.244901,0.598808,0.511467,-0.926976,0.0108666,0.318974,-0.0685142,0.0991092,0.108603,0.206537,0.365754,1.13244,0.614894,0.132769,-0.168209,-0.373245,-0.141366,0.050554,-0.20512,0.172827,-0.52359,-0.899314,-0.124344,0.0323802,122.236,219.992,946.936,-0.0336998,-0.00438564,1.38112,1.79,78.0,18.9
1.85,1.03941,1.24556,0.373667,-2.06226,0.421028,0.720369,0.216111,0.278706,0.363498,1.04075,0.312226,-0.241173,1.07379,0.229973,-0.298385,0.455548,1.145,0.3435,-0.0878386,1.48024,12.8644,-0.0892348,-53.6584,-0.0623825,1.36115,0.408344,-0.168738,-0.0311844,1.56354,0.469063,-0.372657,1.36161,0.0,0.198488,-0.168201,1.14336,0.343009,0.285366,-0.566164,0.0617554,-0.24304,-0.152084,-0.0406977,0.00947932,-0.155098,-0.0670417,0.0335775,0.229782,-0.00187112,0.0965853,0.173922,-0.118857,-0.24158,0.393386,-0.89256,0.111861,0.0500932,0.62039,-0.244453,0.594701,0.505176,-0.911909,0.0298785,0.301341,-0.0687423,0.0998119,0.107958,0.206396,0.364329,1.1264,0.602513,0.133327,-0.167964,-0.374407,-0.142491,0.0462365,-0.206293,0.164398,-0.523592,-0.894074,-0.118786,0.0306061,122.0,220.497,947.166,-0.0348239,-0.00435089,1.38408,1.79,78.0,18.9
1.86,1.04769,1.23659,0.370977,-2.07763,0.408355,0.741149,0.222345,0.280908,0.223201,1.05708,0.317123,-0.232559,1.08181,0.240924,-0.30662,0.460908,1.15334,0.346003,-0.0869803,1.47747,12.8013,-0.0918594,-53.3355,-0.0623825,1.36588,0.409764,-0.170442,-0.0311844,1.56675,0.470024,-0.37396,1.36443,0.0,0.205333,-0.166072,1.14523,0.343569,0.287361,-0.569666,0.0631557,-0.242899,-0.151595,-0.0406693,0.00858846,-0.155115,-0.0644237,0.0360276,0.232913,-0.00873468,0.0861975,0.173921,-0.118827,-0.241162,0.445355,-0.920836,0.11192,0.0503095,0.618968,-0.244671,0.591923,0.497764,-0.875008,0.021305,0.275451,-0.0738321,0.097977,0.103264,0.204884,0.364213,1.12469,0.598889,0.13321,-0.167869,-0.37588,-0.141909,0.046369,-0.20695,0.162424,-0.523592,-0.889052,-0.110338,0.0314708,121.697,220.63,947.393,-0.0349944,-0.00439141,1.38449,1.79,78.0,18.9
