saadzia10/Physics-Encoded-ResNet/robot/humanoid/humanoid_test.csv
timestep,RightFingerJoint11z_joint,RightFingerJoint12y_joint,RightFingerJoint13y_joint,RightFingerJoint11y_joint,RightFingerJoint21y_joint,RightFingerJoint22y_joint,RightFingerJoint23y_joint,RightFingerJoint21x_joint,RightFingerJoint31y_joint,RightFingerJoint32y_joint,RightFingerJoint33y_joint,RightFingerJoint41y_joint,RightFingerJoint42y_joint,RightFingerJoint43y_joint,RightFingerJoint41x_joint,RightFingerJoint51y_joint,RightFingerJoint52y_joint,RightFingerJoint53y_joint,RightFingerJoint51x_joint,LeftFingerJoint11z_joint,LeftFingerJoint12y_joint,LeftFingerJoint13y_joint,LeftFingerJoint11y_joint,LeftFingerJoint21y_joint,LeftFingerJoint22y_joint,LeftFingerJoint23y_joint,LeftFingerJoint21x_joint,LeftFingerJoint31y_joint,LeftFingerJoint32y_joint,LeftFingerJoint33y_joint,LeftFingerJoint41y_joint,LeftFingerJoint42y_joint,LeftFingerJoint43y_joint,LeftFingerJoint41x_joint,LeftFingerJoint51y_joint,LeftFingerJoint52y_joint,LeftFingerJoint53y_joint,LeftFingerJoint51x_joint,BLNx_joint,BLNy_joint,BLNz_joint,BPx_joint,BPy_joint,BPz_joint,BTx_joint,BTy_joint,BTz_joint,BUNx_joint,BUNy_joint,BUNz_joint,LAx_joint,LAy_joint,LAz_joint,LEx_joint,LEz_joint,LHx_joint,LHy_joint,LHz_joint,LKx_joint,LSx_joint,LSy_joint,LSz_joint,LWx_joint,LWy_joint,LFx_joint,LMrot_joint,RAx_joint,RAy_joint,RAz_joint,REx_joint,REz_joint,RHx_joint,RHy_joint,RHz_joint,RKx_joint,RSx_joint,RSy_joint,RSz_joint,RWx_joint,RWy_joint,RFx_joint,RMrot_joint,RootPositionX,RootPositionY,RootPositionZ,RootRotationX,RootRotationY,RootRotationZ,Height,Mass,HandLength
0.47000000000000003,-0.287143,-0.460297,-0.138089,0.308133,0.176015,0.00461775,0.00138533,0.011888,0.682356,0.0802672,0.0240802,0.139966,0.116302,0.0862397,-0.0392778,-0.0723518,-0.027113,-0.00813389,-0.0426318,-0.193033,0.970436,-0.014435,-3.80481,-0.0443244,0.0772842,0.0231853,-0.0153398,-0.0768472,0.286757,0.086027,-0.173298,0.174422,0.0,0.0287466,-0.34279,0.220452,0.0661356,0.12306,-0.190317,0.0492482,-0.0490266,0.152912,-0.0378755,0.0868782,-0.079815,-0.0629475,-0.064115,0.259801,0.0157926,-0.0580532,0.115202,-0.169945,0.00337285,0.254613,-0.421496,0.088785,-0.0202954,0.324442,-0.147402,0.182342,0.234066,-0.773779,0.0518989,1.05785,-0.0286909,0.102242,0.298266,0.0355612,0.316227,0.334529,0.626602,0.261481,-0.222468,-0.63781,-0.255194,0.159537,-0.214881,0.166874,-0.134114,-1.13511,-0.0911454,0.114052,130.352,302.963,943.496,-0.122016,0.0899372,1.64927,1.79,78.0,18.9
0.49,-0.284519,-0.462666,-0.1388,0.323509,0.181647,-0.00115444,-0.000346331,0.0136491,0.644093,0.0816276,0.0244883,0.131353,0.11931,0.0862397,-0.0424454,-0.0723518,-0.0250273,-0.0075082,-0.0420595,-0.19525,0.976671,-0.0118105,-3.67566,-0.0459661,0.0772842,0.0231853,-0.0178964,-0.0801884,0.278747,0.083624,-0.170692,0.168795,0.0,0.0273777,-0.334274,0.22232,0.0666961,0.121729,-0.191369,0.0929441,-0.0515407,0.150987,-0.0374117,0.0807212,-0.0810553,-0.0582663,-0.0668997,0.266593,-0.0350514,-0.0498097,0.119298,-0.17881,0.0231675,0.254988,-0.421894,0.0919145,-0.0138826,0.291671,-0.150543,0.184287,0.233241,-0.775311,0.0421326,1.06118,-0.0332721,0.123176,0.296612,0.0383111,0.325529,0.335579,0.622374,0.257581,-0.219351,-0.660711,-0.253645,0.158018,-0.217157,0.172984,-0.148494,-1.14143,-0.0904021,0.113093,130.43,303.503,943.331,-0.119306,0.084316,1.65907,1.79,78.0,18.9
0.5,-0.283306,-0.479672,-0.143902,0.323509,0.177423,-0.00115444,-0.000346331,0.0132088,0.573944,0.0748253,0.0224476,0.137813,0.1153,0.0917153,-0.0418118,-0.0750315,-0.0250273,-0.0075082,-0.0414873,-0.193744,0.977699,-0.0131228,-3.74024,-0.0492493,0.0741297,0.0222389,-0.0178964,-0.0757335,0.286757,0.086027,-0.170692,0.168795,0.0,0.0287466,-0.34279,0.22232,0.0666961,0.121064,-0.193098,0.0968834,-0.0478867,0.145311,-0.0377795,0.0792056,-0.0782228,-0.0544912,-0.0678648,0.270944,-0.0428685,-0.051532,0.120712,-0.189204,0.0249046,0.253143,-0.419099,0.0912279,-0.010977,0.286761,-0.151597,0.185711,0.23151,-0.776766,0.0403864,1.06096,-0.0385224,0.132142,0.295528,0.046592,0.332983,0.33598,0.618882,0.255739,-0.218552,-0.668476,-0.254956,0.159065,-0.216846,0.171964,-0.146801,-1.14122,-0.0933148,0.113193,130.624,303.71,943.391,-0.116627,0.0817951,1.66084,1.79,78.0,18.9
0.51,-0.283273,-0.465895,-0.139769,0.326072,0.176015,0.00808107,0.00242432,0.0127685,0.580321,0.0802672,0.0240802,0.1292,0.118308,0.0876086,-0.0380108,-0.0803909,-0.0250273,-0.0075082,-0.0400567,-0.192699,0.941455,-0.0118105,-3.54651,-0.0443244,0.075707,0.0227121,-0.0178964,-0.0768472,0.280349,0.0841046,-0.169389,0.173015,0.0,0.0260088,-0.334274,0.224189,0.0672566,0.12306,-0.193786,0.0963708,-0.0441087,0.14333,-0.037648,0.0790284,-0.0778972,-0.0513522,-0.068757,0.273078,-0.0485318,-0.054871,0.11974,-0.189116,0.0302284,0.25335,-0.421851,0.0908056,-0.00852863,0.281205,-0.151943,0.185861,0.230874,-0.775599,0.0373897,1.06036,-0.0354521,0.132042,0.29299,0.0532947,0.340781,0.336624,0.615224,0.254463,-0.218055,-0.676633,-0.254113,0.158999,-0.218407,0.173845,-0.141805,-1.14288,-0.0928136,0.107471,130.615,303.786,943.358,-0.115144,0.0798102,1.66128,1.79,78.0,18.9
0.52,-0.284418,-0.455348,-0.136604,0.331197,0.176015,0.00230888,0.000692663,0.01497,0.688733,0.0802672,0.0240802,0.131353,0.116302,0.0903464,-0.0380108,-0.0803909,-0.0250273,-0.0075082,-0.0434901,-0.191653,0.822308,-0.0157473,-3.35277,-0.0443244,0.0741297,0.0222389,-0.0187486,-0.0824158,0.285155,0.0855464,-0.173298,0.177235,0.0,0.0287466,-0.34279,0.218584,0.0655752,0.118404,-0.194053,0.0892425,-0.0445754,0.141081,-0.0378217,0.0784412,-0.0781701,-0.0482308,-0.0695475,0.273464,-0.037405,-0.0550182,0.121988,-0.200048,0.0410321,0.254311,-0.419423,0.0895765,-0.00620893,0.267689,-0.152661,0.186793,0.229722,-0.77532,0.0364789,1.06066,-0.039838,0.139865,0.291993,0.0503125,0.348186,0.338205,0.613117,0.252166,-0.21706,-0.685136,-0.255011,0.157836,-0.219403,0.176207,-0.14318,-1.13891,-0.0891688,0.110003,130.485,304.02,943.318,-0.112645,0.0771151,1.66285,1.79,78.0,18.9
0.53,-0.285731,-0.474003,-0.142201,0.323509,0.174607,0.00230888,0.000692663,0.0158506,0.612207,0.0802672,0.0240802,0.1292,0.11931,0.0917153,-0.0380108,-0.0777112,-0.0208561,-0.00625684,-0.0406289,-0.189896,0.787091,-0.0157473,-3.22362,-0.0459661,0.0725525,0.0217658,-0.0196008,-0.0946668,0.272339,0.0817016,-0.175904,0.170202,0.0,0.0260088,-0.336403,0.214847,0.0644542,0.118404,-0.195851,0.0931706,-0.0429978,0.140184,-0.0367426,0.077763,-0.0778657,-0.0465106,-0.0704106,0.272356,-0.0417417,-0.0566545,0.123143,-0.199963,0.0404454,0.255136,-0.419089,0.0893594,-0.00464845,0.267136,-0.152665,0.186737,0.228827,-0.773816,0.0346661,1.05802,-0.0402966,0.142432,0.292604,0.0492839,0.352969,0.339802,0.607412,0.25131,-0.216095,-0.689444,-0.255512,0.157266,-0.220062,0.178528,-0.143482,-1.13938,-0.088235,0.103839,130.45,303.963,943.322,-0.111976,0.0753729,1.66364,1.79,78.0,18.9
0.55,-0.278458,-0.474003,-0.142201,0.323509,0.171791,0.0,0.0,0.0132088,0.624962,0.0843486,0.0253046,0.131353,0.114297,0.0917153,-0.0367437,-0.0750315,-0.0229417,-0.00688252,-0.0403428,-0.195795,0.923847,-0.0131228,-3.48193,-0.0476077,0.0741297,0.0222389,-0.0187486,-0.0790746,0.273941,0.0821822,-0.175904,0.171608,0.0,0.0301155,-0.338532,0.218584,0.0655752,0.121064,-0.195658,0.0878964,-0.0394885,0.138834,-0.035637,0.07267,-0.0788027,-0.0435198,-0.0708185,0.273602,-0.0374246,-0.0572436,0.123518,-0.199909,0.0415446,0.254806,-0.419541,0.0886654,-0.00204413,0.262176,-0.152764,0.18673,0.228092,-0.772198,0.0396321,1.05953,-0.0388217,0.142435,0.291842,0.050981,0.35409,0.339611,0.608325,0.250193,-0.215365,-0.697178,-0.257843,0.157791,-0.222529,0.183638,-0.141214,-1.13656,-0.0850535,0.101452,130.494,303.849,943.303,-0.109961,0.072604,1.66694,1.79,78.0,18.9
0.56,-0.28334,-0.476443,-0.142933,0.320946,0.171791,-0.00230888,-0.000692663,0.0123282,0.69511,0.0789067,0.023672,0.137813,0.1153,0.0876086,-0.0392778,-0.0803909,-0.0229417,-0.00688252,-0.0423457,-0.19316,0.81299,-0.0196841,-3.2882,-0.0443244,0.0741297,0.0222389,-0.0178964,-0.0824158,0.275543,0.0826628,-0.179813,0.173015,0.0,0.0314843,-0.344919,0.218584,0.0655752,0.118404,-0.195629,0.0860114,-0.0378451,0.138555,-0.0348025,0.0717602,-0.0790542,-0.0421026,-0.0707993,0.270887,-0.0357609,-0.0581518,0.126142,-0.194892,0.044544,0.255,-0.41655,0.0884046,0.000129236,0.259496,-0.152971,0.186923,0.22726,-0.772309,0.040261,1.05993,-0.0415642,0.142255,0.291063,0.0501685,0.362328,0.340511,0.607442,0.248467,-0.214636,-0.706754,-0.255594,0.157139,-0.223048,0.185705,-0.149122,-1.13813,-0.0887935,0.111993,130.338,303.98,943.248,-0.108969,0.0705706,1.66755,1.79,78.0,18.9
0.5700000000000001,-0.280949,-0.467545,-0.140263,0.318384,0.174607,-0.00230888,-0.000692663,0.0132088,0.637716,0.0829881,0.0248964,0.13566,0.120313,0.083502,-0.0418118,-0.0803909,-0.027113,-0.00813389,-0.0397706,-0.192615,0.865815,-0.0183719,-3.48193,-0.0492493,0.075707,0.0227121,-0.0204531,-0.0913256,0.273941,0.0821822,-0.173298,0.173015,0.0,0.0260088,-0.338532,0.218584,0.0655752,0.121064,-0.196146,0.0848858,-0.0366278,0.135565,-0.0342435,0.0713312,-0.0762729,-0.0417099,-0.07095,0.270051,-0.0342428,-0.0584245,0.127488,-0.195251,0.0487896,0.25428,-0.418812,0.0881503,0.00129611,0.254808,-0.153105,0.187308,0.226575,-0.772006,0.0386452,1.06104,-0.0454887,0.13589,0.29121,0.0555312,0.365213,0.339155,0.604875,0.24748,-0.213925,-0.708309,-0.255504,0.156946,-0.223204,0.186476,-0.146792,-1.13864,-0.0902605,0.108941,130.399,304.057,943.264,-0.10845,0.0696361,1.66827,1.79,78.0,18.9
0.59,-0.279737,-0.456208,-0.136862,0.318384,0.176015,0.0,0.0,0.0127685,0.554813,0.0802672,0.0240802,0.127046,0.11931,0.0876086,-0.0405448,-0.0803909,-0.0208561,-0.00625684,-0.0417734,-0.195628,0.805727,-0.0170596,-3.35277,-0.050891,0.0709753,0.0212926,-0.0187486,-0.0935531,0.285155,0.0855464,-0.17851,0.175828,0.0,0.0287466,-0.340661,0.216716,0.0650147,0.118404,-0.197635,0.0893975,-0.0292384,0.134697,-0.0333872,0.0704107,-0.0775197,-0.0395123,-0.071293,0.267565,-0.0434398,-0.0621154,0.128481,-0.197547,0.0503886,0.254229,-0.419892,0.087896,0.00392678,0.253764,-0.15505,0.187628,0.226358,-0.772078,0.0367203,1.05961,-0.0436565,0.136147,0.289256,0.0566465,0.370585,0.340109,0.603665,0.245333,-0.212938,-0.713798,-0.255655,0.156621,-0.224096,0.189321,-0.148866,-1.13925,-0.0906914,0.103702,130.344,304.135,943.28,-0.106491,0.0672696,1.6689,1.79,78.0,18.9
0.6,-0.282094,-0.462666,-0.1388,0.323509,0.176015,0.00577219,0.00173166,0.011888,0.637716,0.0789067,0.023672,0.13566,0.114297,0.0917153,-0.0380108,-0.0750315,-0.0229417,-0.00688252,-0.0400567,-0.192699,0.883423,-0.014435,-3.54651,-0.0476077,0.0741297,0.0222389,-0.0178964,-0.0902119,0.277145,0.0831434,-0.170692,0.171608,0.0,0.0328532,-0.334274,0.214847,0.0644542,0.120399,-0.195287,0.0877047,-0.0227478,0.132861,-0.032381,0.0698585,-0.0774521,-0.0390127,-0.0710115,0.265763,-0.04294,-0.0667146,0.1305,-0.198895,0.0514254,0.254995,-0.418101,0.0876498,0.0055719,0.253084,-0.156159,0.187534,0.226346,-0.772355,0.0389136,1.06003,-0.0479974,0.136146,0.290364,0.0590664,0.373013,0.340752,0.604819,0.243714,-0.212126,-0.719727,-0.255121,0.156305,-0.225093,0.190037,-0.144184,-1.14051,-0.0951896,0.105169,130.364,304.186,943.21,-0.105089,0.0661294,1.66905,1.79,78.0,18.9
0.61,-0.283206,-0.506365,-0.15191,0.331197,0.176015,0.00461775,0.00138533,0.01497,0.60583,0.0843486,0.0253046,0.127046,0.117305,0.083502,-0.0380108,-0.0723518,-0.0187705,-0.00563115,-0.0403428,-0.192615,0.865815,-0.0170596,-3.48193,-0.050891,0.0788614,0.0236584,-0.0204531,-0.0846433,0.273941,0.0821822,-0.173298,0.170202,0.0,0.0287466,-0.340661,0.22232,0.0666961,0.121729,-0.197107,0.0856136,-0.0199818,0.132453,-0.0318016,0.0693449,-0.0780048,-0.038729,-0.0712373,0.260774,-0.0427773,-0.0672202,0.130143,-0.199172,0.0488907,0.255751,-0.418392,0.0872403,0.00646846,0.253807,-0.15716,0.187535,0.226132,-0.772081,0.0355209,1.05809,-0.0472407,0.13592,0.290159,0.0572304,0.376103,0.342026,0.603041,0.242798,-0.212162,-0.722542,-0.25468,0.156163,-0.225199,0.190691,-0.148933,-1.14122,-0.0922142,0.105012,130.33,304.162,943.214,-0.104145,0.0655925,1.66963,1.79,78.0,18.9
0.62,-0.274789,-0.477232,-0.14317,0.326072,0.174607,0.00230888,0.000692663,0.0132088,0.573944,0.0802672,0.0240802,0.1292,0.116302,0.0889775,-0.0373773,-0.0696721,-0.0250273,-0.0075082,-0.0426318,-0.193243,0.780856,-0.0170596,-3.35277,-0.0476077,0.0709753,0.0212926,-0.016192,-0.102463,0.285155,0.0855464,-0.177207,0.168795,0.0,0.0287466,-0.338532,0.218584,0.0655752,0.119734,-0.199991,0.0838683,-0.0165764,0.13161,-0.0306561,0.0689522,-0.0782652,-0.0385349,-0.0713946,0.262088,-0.0423444,-0.0696523,0.131226,-0.200851,0.0465828,0.256525,-0.416802,0.0870021,0.00803349,0.256075,-0.158328,0.1875,0.22605,-0.770638,0.0392543,1.0572,-0.0487784,0.134167,0.287828,0.0604959,0.378056,0.342128,0.602113,0.241701,-0.211378,-0.723571,-0.255674,0.156004,-0.225312,0.19196,-0.148809,-1.14121,-0.0937139,0.104625,130.283,304.246,943.259,-0.103231,0.0645364,1.6698,1.79,78.0,18.9
0.63,-0.277146,-0.466685,-0.140005,0.331197,0.173199,0.0092355,0.00277065,0.0162909,0.644093,0.0775463,0.0232639,0.1292,0.116302,0.0930842,-0.0411783,-0.0777112,-0.0229417,-0.00688252,-0.043204,-0.196089,0.693843,-0.0183719,-3.09447,-0.0492493,0.0725525,0.0217658,-0.0204531,-0.0968943,0.281951,0.0845852,-0.174601,0.168795,0.0,0.0260088,-0.34279,0.218584,0.0655752,0.118404,-0.201998,0.0841598,-0.0113184,0.131235,-0.0302252,0.0685776,-0.0788485,-0.0377059,-0.071721,0.261334,-0.0429549,-0.0714601,0.131464,-0.200877,0.046617,0.256522,-0.416906,0.0868469,0.00930457,0.256089,-0.158313,0.18781,0.226052,-0.770489,0.04207,1.05586,-0.0463825,0.133133,0.289187,0.0633061,0.381846,0.342872,0.599081,0.2406,-0.210637,-0.726483,-0.25549,0.155739,-0.225708,0.193348,-0.150276,-1.14183,-0.0935333,0.0996052,130.299,304.321,943.232,-0.102571,0.0633953,1.67038,1.79,78.0,18.9
0.65,-0.280949,-0.439202,-0.131761,0.318384,0.171791,0.00230888,0.000692663,0.0136491,0.618584,0.0802672,0.0240802,0.131353,0.118308,0.0889775,-0.0373773,-0.0696721,-0.0187705,-0.00563115,-0.0417734,-0.193661,0.926929,-0.0118105,-3.67566,-0.050891,0.0788614,0.0236584,-0.0178964,-0.098008,0.286757,0.086027,-0.173298,0.170202,0.0,0.0260088,-0.340661,0.224189,0.0672566,0.120399,-0.207576,0.0806683,0.0026431,0.129545,-0.0284198,0.0679847,-0.079367,-0.03726,-0.0721032,0.257273,-0.0439382,-0.076798,0.133127,-0.192597,0.0434227,0.257111,-0.41842,0.0865647,0.0118667,0.260908,-0.159854,0.188046,0.225623,-0.767889,0.0431762,1.0589,-0.0450748,0.131095,0.288479,0.0697097,0.387131,0.343098,0.598285,0.237615,-0.208844,-0.730371,-0.254909,0.155848,-0.225928,0.195453,-0.151799,-1.1404,-0.0970374,0.091838,130.289,304.453,943.268,-0.100749,0.0613511,1.67054,1.79,78.0,18.9
0.66,-0.274822,-0.462666,-0.1388,0.323509,0.177423,-0.00230888,-0.000692663,0.0145297,0.624962,0.0829881,0.0248964,0.1292,0.117305,0.0917153,-0.0392778,-0.0777112,-0.0187705,-0.00563115,-0.0397706,-0.194833,0.772566,-0.0183719,-3.35277,-0.0492493,0.0741297,0.0222389,-0.0196008,-0.0946668,0.283553,0.0850658,-0.179813,0.174422,0.0,0.0287466,-0.340661,0.218584,0.0655752,0.117738,-0.208731,0.0816959,0.0101571,0.129134,-0.028566,0.067891,-0.0804593,-0.0358256,-0.0724338,0.2562,-0.0440867,-0.0791879,0.132682,-0.192567,0.0414898,0.258418,-0.417524,0.086048,0.0125816,0.261695,-0.160581,0.188145,0.225232,-0.768114,0.0391442,1.05801,-0.0410248,0.131039,0.288295,0.0695528,0.389877,0.344918,0.592762,0.236904,-0.208813,-0.734892,-0.2539,0.155233,-0.226851,0.198109,-0.150856,-1.1398,-0.0982182,0.0919213,130.304,304.327,943.257,-0.0997142,0.0603989,1.67072,1.79,78.0,18.9
0.67,-0.273844,-0.434394,-0.130318,0.305571,0.171791,0.00808107,0.00242432,0.0145297,0.644093,0.0802672,0.0240802,0.133506,0.117305,0.0889775,-0.0361102,-0.0723518,-0.0166849,-0.00500547,-0.0406289,-0.195,0.807782,-0.0131228,-3.48193,-0.0541743,0.075707,0.0227121,-0.0153398,-0.0846433,0.291562,0.0874688,-0.175904,0.174422,0.0,0.0273777,-0.344919,0.218584,0.0655752,0.119069,-0.213116,0.0826948,0.0208515,0.12705,-0.0277342,0.0670901,-0.0791225,-0.0356371,-0.0721945,0.254912,-0.048784,-0.0849275,0.134318,-0.191185,0.0390575,0.259138,-0.418458,0.0857919,0.0136077,0.262863,-0.161355,0.188258,0.224501,-0.766058,0.0405784,1.05715,-0.0417142,0.132009,0.2873,0.0642738,0.391229,0.346265,0.593343,0.236152,-0.208646,-0.737284,-0.254574,0.154655,-0.227665,0.198861,-0.150955,-1.14084,-0.0967544,0.0999034,130.331,304.233,943.257,-0.098926,0.0596939,1.67071,1.79,78.0,18.9
0.6900000000000001,-0.277447,-0.437623,-0.131287,0.308133,0.170383,0.00808107,0.00242432,0.0127685,0.612207,0.0802672,0.0240802,0.1292,0.1153,0.0917153,-0.0392778,-0.0723518,-0.0229417,-0.00688252,-0.0403428,-0.192365,0.738377,-0.014435,-3.2882,-0.0574576,0.0788614,0.0236584,-0.0178964,-0.0879845,0.280349,0.0841046,-0.181116,0.171608,0.0,0.0246399,-0.340661,0.22232,0.0666961,0.120399,-0.225284,0.0826521,0.0445062,0.125667,-0.0262234,0.0658766,-0.0795566,-0.0342856,-0.0725386,0.257158,-0.0552889,-0.0937801,0.134647,-0.193249,0.0394241,0.260827,-0.421424,0.085873,0.0156229,0.264046,-0.162483,0.188134,0.223742,-0.762069,0.0411424,1.05729,-0.0448166,0.133764,0.285678,0.0664185,0.396021,0.348591,0.597117,0.234657,-0.207539,-0.740751,-0.254196,0.154494,-0.228581,0.19943,-0.151235,-1.13626,-0.0962153,0.0958913,130.434,304.032,943.356,-0.0977225,0.0576978,1.67037,1.79,78.0,18.9
0.7000000000000001,-0.273844,-0.417388,-0.125216,0.305571,0.166158,0.00692663,0.00207799,0.0132088,0.580321,0.0748253,0.0224476,0.131353,0.11931,0.0889775,-0.0354767,-0.0669924,-0.0250273,-0.0075082,-0.0403428,-0.188767,0.575724,-0.0131228,-2.96531,-0.0607409,0.075707,0.0227121,-0.0196008,-0.0879845,0.291562,0.0874688,-0.185025,0.173015,0.0,0.023271,-0.351307,0.224189,0.0672566,0.117738,-0.224938,0.0820973,0.0537652,0.12397,-0.0256124,0.0655627,-0.0796919,-0.0332036,-0.0728941,0.249964,-0.0554979,-0.0953566,0.136882,-0.187298,0.0391385,0.263701,-0.423186,0.0849972,0.016052,0.265762,-0.16285,0.187762,0.223557,-0.758242,0.0372877,1.05696,-0.043627,0.133136,0.285382,0.0687321,0.398331,0.351515,0.596991,0.233305,-0.20694,-0.74235,-0.253923,0.154517,-0.229591,0.199524,-0.151586,-1.13407,-0.0980102,0.0958145,130.524,303.838,943.318,-0.0967133,0.056773,1.6697,1.79,78.0,18.9
0.71,-0.264349,-0.386676,-0.116003,0.290195,0.166158,0.00808107,0.00242432,0.0136491,0.631339,0.0802672,0.0240802,0.124893,0.1153,0.0889775,-0.0367437,-0.0723518,-0.0166849,-0.00500547,-0.0423457,-0.187972,0.584014,-0.0170596,-2.96531,-0.0640242,0.0788614,0.0236584,-0.0187486,-0.0935531,0.281951,0.0845852,-0.192843,0.174422,0.0,0.023271,-0.366211,0.23353,0.0700589,0.120399,-0.228698,0.0809129,0.066408,0.122925,-0.0252381,0.065305,-0.0804401,-0.031559,-0.0728147,0.243571,-0.0557893,-0.100151,0.136899,-0.188217,0.0356503,0.266869,-0.426301,0.0846019,0.0175797,0.267546,-0.164402,0.187301,0.223394,-0.75592,0.0330994,1.05193,-0.0414075,0.13422,0.283235,0.070676,0.400937,0.35322,0.594778,0.231817,-0.206493,-0.744612,-0.253863,0.154349,-0.231066,0.199893,-0.148411,-1.13125,-0.0981945,0.0935929,130.55,303.586,943.356,-0.0952616,0.0555982,1.66936,1.79,78.0,18.9
0.72,-0.256032,-0.37053,-0.111159,0.277382,0.16475,0.0103899,0.00311698,0.0136491,0.631339,0.085709,0.0257127,0.1292,0.121315,0.0903464,-0.0373773,-0.0669924,-0.027113,-0.00813389,-0.0423457,-0.180023,0.517691,-0.0131228,-2.96531,-0.0689491,0.0820159,0.0246048,-0.0196008,-0.0991217,0.288359,0.0865076,-0.199358,0.175828,0.0,0.0273777,-0.366211,0.235398,0.0706194,0.119069,-0.233516,0.0803491,0.0817684,0.121404,-0.0248334,0.0639836,-0.0804921,-0.0315295,-0.0727663,0.242236,-0.0580593,-0.106671,0.137947,-0.193492,0.0340829,0.269445,-0.426493,0.0844774,0.0184526,0.26902,-0.165362,0.187388,0.223193,-0.75128,0.0380003,1.05059,-0.0416345,0.134095,0.28322,0.0726883,0.402468,0.356876,0.595811,0.230765,-0.206385,-0.744645,-0.25362,0.153507,-0.231871,0.200626,-0.14783,-1.12742,-0.0949222,0.0992516,130.7,303.456,943.36,-0.0944191,0.0551486,1.6695,1.79,78.0,18.9
0.73,-0.247681,-0.334939,-0.100482,0.267132,0.163342,0.0126988,0.00380965,0.0162909,0.593076,0.0884299,0.026529,0.1292,0.1153,0.0971908,-0.0380108,-0.0669924,-0.0104281,-0.00312842,-0.043204,-0.165253,0.447189,-0.0170596,-3.22362,-0.0804406,0.0883248,0.0264974,-0.0178964,-0.112486,0.296368,0.0889105,-0.212388,0.182861,0.0,0.0191644,-0.381115,0.23353,0.0700589,0.12306,-0.2338,0.0834707,0.090043,0.121172,-0.0248334,0.0639832,-0.0820307,-0.0305969,-0.0734505,0.235987,-0.0616321,-0.107309,0.139205,-0.194098,0.0326559,0.272522,-0.424678,0.0846567,0.0188422,0.271736,-0.166273,0.187066,0.223314,-0.748208,0.0455086,1.05012,-0.0485391,0.133911,0.28363,0.0698907,0.402649,0.361791,0.600392,0.230331,-0.206041,-0.74623,-0.252837,0.153487,-0.232444,0.196962,-0.148964,-1.12571,-0.0993185,0.0988861,130.816,303.197,943.417,-0.0940367,0.054749,1.66918,1.79,78.0,18.9
0.75,-0.199668,-0.227377,-0.068213,0.231256,0.159118,0.0311698,0.00935095,0.0162909,0.567567,0.0897904,0.0269371,0.131353,0.1153,0.0971908,-0.0361102,-0.0803909,-0.0250273,-0.0075082,-0.0429179,-0.138937,0.338387,-0.0223087,-3.15904,-0.0919321,0.0977882,0.0293365,-0.0187486,-0.125851,0.302776,0.0908329,-0.233236,0.203961,0.0,0.023271,-0.398148,0.242871,0.0728613,0.121064,-0.250618,0.0839838,0.111428,0.118603,-0.0245176,0.0658682,-0.0839665,-0.0281706,-0.0759191,0.243391,-0.0705732,-0.110526,0.140021,-0.194287,0.0288464,0.286966,-0.43118,0.0834871,0.0201155,0.276231,-0.167346,0.184936,0.224369,-0.733384,0.0387773,1.04266,-0.0476583,0.130853,0.281054,0.0760333,0.405863,0.379918,0.601797,0.228707,-0.205937,-0.747255,-0.252588,0.151282,-0.233909,0.186892,-0.138283,-1.10954,-0.100312,0.0926458,131.039,302.686,943.496,-0.0920978,0.0534931,1.66756,1.79,78.0,18.9
0.76,-0.179398,-0.144068,-0.0432204,0.20563,0.159118,0.036942,0.0110826,0.0184924,0.624962,0.0802672,0.0240802,0.133506,0.113295,0.0971908,-0.0329427,-0.0937893,-0.0250273,-0.0075082,-0.0409151,-0.110022,0.687399,-0.0262455,-4.77347,-0.10014,0.118292,0.0354876,-0.0204531,-0.12251,0.312388,0.0937165,-0.257993,0.22506,0.0,0.0164266,-0.427955,0.250344,0.0751032,0.127716,-0.247952,0.0837176,0.12215,0.116521,-0.0244279,0.065348,-0.0855725,-0.0257641,-0.0769346,0.232784,-0.0662245,-0.1105,0.14022,-0.193843,0.0288773,0.299833,-0.445584,0.0834397,0.0210177,0.277736,-0.168637,0.183726,0.224004,-0.716418,0.0356816,1.03705,-0.0492816,0.136225,0.278537,0.0804815,0.408628,0.388187,0.602632,0.22766,-0.205644,-0.750285,-0.252189,0.151949,-0.234675,0.181337,-0.13176,-1.10032,-0.100194,0.0905062,131.282,302.294,943.659,-0.09095,0.0522275,1.6668,1.79,78.0,18.9
0.77,-0.137445,-0.0648486,-0.0194546,0.169754,0.156301,0.0438686,0.0131606,0.0198133,0.599453,0.0884299,0.026529,0.124893,0.114297,0.0903464,-0.0304086,-0.101828,-0.0208561,-0.00625684,-0.0412012,-0.0787221,1.07786,-0.0341192,-6.3879,-0.105065,0.138796,0.0416388,-0.0230097,-0.121396,0.333214,0.0999643,-0.291871,0.244753,0.0,0.00958219,-0.46628,0.263422,0.0790265,0.129047,-0.247575,0.0837072,0.132617,0.112581,-0.023548,0.066066,-0.0860365,-0.0244675,-0.0782792,0.223401,-0.0702246,-0.115098,0.140185,-0.189048,0.0296123,0.317231,-0.438043,0.0829614,0.0215935,0.280585,-0.170826,0.179965,0.225371,-0.706747,0.0329757,1.03375,-0.0428785,0.126908,0.277997,0.0755676,0.41064,0.402017,0.617499,0.225995,-0.205477,-0.751355,-0.251442,0.152616,-0.234571,0.165394,-0.13334,-1.08986,-0.10076,0.09771,131.556,301.73,943.715,-0.0891822,0.0512926,1.6655,1.79,78.0,18.9
0.79,-0.0967035,-0.0083035,-0.00249105,0.133878,0.160526,0.0646485,0.0193946,0.0242162,0.535681,0.0952322,0.0285697,0.118433,0.1153,0.0958219,-0.0348432,-0.107188,-0.0229417,-0.00688252,-0.0403428,0.00359058,2.41389,-0.0459297,-12.1998,-0.10014,0.168763,0.050629,-0.032384,-0.150353,0.352438,0.105731,-0.3479,0.277105,0.0,-0.0191644,-0.547187,0.270895,0.0812684,0.113082,-0.251385,0.0869728,0.162645,0.112031,-0.0241048,0.0638822,-0.0917091,-0.0204878,-0.0793332,0.216137,-0.0812553,-0.1206,0.141762,-0.193554,0.0251345,0.346207,-0.442887,0.0827634,0.0231772,0.28552,-0.173456,0.176792,0.226385,-0.676641,0.0319052,1.02875,-0.0434394,0.132264,0.274123,0.0757763,0.417103,0.425971,0.616819,0.224115,-0.204354,-0.7514,-0.250225,0.151635,-0.236224,0.160954,-0.142119,-1.08236,-0.0940788,0.0915349,132.095,300.988,943.861,-0.0875317,0.0496592,1.66214,1.79,78.0,18.9
0.8,-0.0478795,0.103997,0.0311991,0.0672505,0.161934,0.0750385,0.0225115,0.0303803,0.580321,0.0897904,0.0269371,0.11628,0.11931,0.101297,-0.0272411,-0.117907,-0.0333698,-0.0100109,-0.0386261,0.0551078,3.68785,-0.047242,-17.2369,-0.0870072,0.17665,0.0529949,-0.0340884,-0.13142,0.360448,0.108134,-0.381778,0.289765,0.0,-0.0314843,-0.581253,0.274631,0.0823893,0.0964523,-0.263755,0.0837831,0.17096,0.110795,-0.0243628,0.0644991,-0.0932955,-0.0180826,-0.0792722,0.218221,-0.0797766,-0.120782,0.143693,-0.195649,0.0243612,0.36662,-0.451194,0.0824982,0.023817,0.288822,-0.174833,0.171671,0.228501,-0.662989,0.0164629,1.02961,-0.0518693,0.130997,0.27311,0.0768129,0.417619,0.442301,0.62664,0.223724,-0.204136,-0.751003,-0.249797,0.150804,-0.235951,0.147058,-0.139892,-1.06637,-0.0969615,0.0949773,132.172,300.466,944.055,-0.0868867,0.0488284,1.65844,1.79,78.0,18.9
0.81,-0.00387015,0.218737,0.0656211,0.00318592,0.152077,0.100436,0.0301308,0.037425,0.535681,0.0993136,0.0297941,0.10336,0.121315,0.0999286,-0.024707,-0.123266,-0.0354554,-0.0106366,-0.0394845,0.130851,5.083,-0.0459297,-22.5968,-0.078799,0.181381,0.0544144,-0.044315,-0.124737,0.350836,0.105251,-0.424776,0.302425,0.0,-0.0328532,-0.602544,0.276499,0.0829498,0.081153,-0.263351,0.0805148,0.182521,0.10986,-0.0269908,0.0637647,-0.0950496,-0.0136791,-0.0801362,0.215808,-0.0795201,-0.124363,0.143057,-0.198231,0.0223339,0.381518,-0.456495,0.0826222,0.0242752,0.294756,-0.175838,0.167908,0.230447,-0.655615,0.0210013,1.03821,-0.0467693,0.13439,0.27169,0.0811038,0.423316,0.458966,0.617367,0.222953,-0.204217,-0.75207,-0.247718,0.147519,-0.23711,0.146411,-0.135216,-1.06287,-0.0992774,0.0941439,132.292,300.035,944.163,-0.0865625,0.0482447,1.65673,1.79,78.0,18.9
0.8200000000000001,0.0354582,0.288988,0.0866965,-0.0480658,0.147853,0.126988,0.0380965,0.0457906,0.548436,0.106116,0.0318348,0.0947464,0.118308,0.094453,-0.0253405,-0.120586,-0.037541,-0.0112623,-0.0386261,0.210314,6.20472,-0.0406806,-26.9234,-0.0722324,0.181381,0.0544144,-0.0502804,-0.119169,0.35404,0.106212,-0.456048,0.316491,0.0,-0.0246399,-0.589769,0.287709,0.0863126,0.0725055,-0.283221,0.0768507,0.193805,0.10598,-0.031222,0.0600663,-0.0966208,-0.00710874,-0.080125,0.229173,-0.0836034,-0.122627,0.143252,-0.198501,0.019031,0.400643,-0.460788,0.0814161,0.0246558,0.301015,-0.175848,0.164516,0.232426,-0.642261,0.016478,1.0442,-0.0526292,0.133498,0.269157,0.0811163,0.42638,0.478433,0.625863,0.221851,-0.20411,-0.753303,-0.246193,0.146902,-0.238181,0.142273,-0.152218,-1.05434,-0.0998191,0.0948596,132.966,299.631,944.373,-0.0847922,0.0477145,1.65434,1.79,78.0,18.9
0.8300000000000001,0.0582194,0.297816,0.0893447,-0.0685664,0.143628,0.13276,0.0398281,0.0598801,0.510173,0.119721,0.0359162,0.0904397,0.126328,0.0821331,-0.02344,-0.104508,-0.0312842,-0.00938525,-0.0389122,0.263665,6.75674,-0.0367437,-29.3128,-0.0558159,0.195576,0.0586729,-0.0570981,-0.121396,0.37006,0.111018,-0.459957,0.326337,0.0,-0.023271,-0.594028,0.302655,0.0907964,0.0758315,-0.287539,0.0728894,0.206418,0.103019,-0.0308442,0.058073,-0.0968553,-0.00684814,-0.0807041,0.22919,-0.0825538,-0.124595,0.142655,-0.19699,0.0183098,0.427596,-0.496378,0.0810351,0.0252522,0.301809,-0.177236,0.157727,0.236565,-0.619315,0.00115929,1.05149,-0.0503348,0.134466,0.268107,0.0802048,0.429626,0.505525,0.62155,0.220857,-0.203787,-0.754671,-0.24541,0.139347,-0.238178,0.142534,-0.17352,-1.04142,-0.0986956,0.0934088,132.884,299.435,944.503,-0.08405,0.0471216,1.65175,1.79,78.0,18.9
0.85,0.0643548,0.339583,0.101875,-0.155694,0.136588,0.147768,0.0443304,0.0774918,0.491041,0.149651,0.0448952,0.0645998,0.146381,0.058862,-0.0215394,-0.061633,-0.00834245,-0.00250273,-0.0380539,0.302246,7.31294,-0.0367437,-31.4438,-0.0328329,0.219235,0.0657704,-0.0588025,-0.111373,0.379672,0.113902,-0.46126,0.34181,0.0,-0.0177955,-0.589769,0.323205,0.0969616,0.0831486,-0.288874,0.057762,0.206396,0.0964914,-0.0301169,0.0531069,-0.100892,-0.00424111,-0.0851642,0.21472,-0.0698079,-0.106106,0.143068,-0.191989,0.0120862,0.479982,-0.51803,0.0812227,0.0262971,0.313919,-0.182443,0.1481,0.242651,-0.591421,0.00797427,1.07582,-0.0439756,0.129398,0.263711,0.0829586,0.434854,0.550369,0.607737,0.219479,-0.204418,-0.754202,-0.244596,0.133997,-0.2368,0.140905,-0.183509,-1.02968,-0.100422,0.0939352,133.7,298.255,944.849,-0.0811471,0.0458611,1.64785,1.79,78.0,18.9
0.86,0.0743938,0.344181,0.103254,-0.222322,0.150669,0.161621,0.0484864,0.0893798,0.408138,0.174139,0.0522417,0.0667531,0.159415,0.0574932,-0.0272411,-0.026797,0.027113,0.00813389,-0.0406289,0.340617,7.68785,-0.0393683,-33.1228,-0.0114915,0.250779,0.0752338,-0.0639158,-0.0890982,0.41812,0.125436,-0.452139,0.35447,0.0,-0.00821331,-0.58764,0.349361,0.104808,0.0844789,-0.292583,0.0608443,0.206398,0.0939887,-0.0302287,0.0512959,-0.101634,-0.00318675,-0.0887187,0.211755,-0.0743359,-0.0957432,0.143614,-0.192478,0.00928004,0.501565,-0.553488,0.0810137,0.0262451,0.31584,-0.182023,0.144904,0.246885,-0.580348,-0.0036653,1.09689,-0.0487909,0.12971,0.260817,0.085312,0.437232,0.572765,0.603899,0.219075,-0.204358,-0.753943,-0.243099,0.129557,-0.23643,0.141238,-0.187973,-1.02709,-0.0976768,0.0876071,134.132,297.636,944.993,-0.0808534,0.0455779,1.64698,1.79,78.0,18.9
0.87,0.0900917,0.438545,0.131564,-0.3197,0.157709,0.169702,0.0509107,0.0964245,0.38263,0.191825,0.0575475,0.0495265,0.186485,0.071182,-0.0342097,-0.0241173,0.0688252,0.0206476,-0.0469236,0.372795,7.92806,-0.038056,-34.6727,0.00164164,0.283901,0.0851703,-0.0690291,-0.0957805,0.459772,0.137931,-0.433897,0.369943,0.0,-0.00410665,-0.568478,0.368043,0.110413,0.0884701,-0.302518,0.054728,0.20649,0.0937019,-0.0303206,0.0384826,-0.10384,-0.00261326,-0.0795042,0.2114,-0.0726775,-0.0894887,0.14303,-0.191549,0.00864702,0.528716,-0.553599,0.0806867,0.02644,0.318475,-0.18282,0.138134,0.253494,-0.579702,0.00668543,1.10406,-0.0451197,0.130788,0.260253,0.0980108,0.439522,0.600983,0.598449,0.21799,-0.20452,-0.753706,-0.241321,0.123113,-0.235577,0.140377,-0.211034,-1.02621,-0.104666,0.0802883,134.158,297.043,945.164,-0.0803037,0.0449885,1.64533,1.79,78.0,18.9
0.89,0.118888,0.538508,0.161552,-0.435016,0.173199,0.188173,0.056452,0.10435,0.433647,0.213592,0.0640777,0.0322999,0.21155,0.0807642,-0.0443459,0.0107188,0.125137,0.037541,-0.0512154,0.411249,8.1693,-0.047242,-36.2871,0.0492493,0.331218,0.0993654,-0.0835167,-0.0601413,0.531861,0.159558,-0.40914,0.395262,0.0,0.00410665,-0.532283,0.399803,0.119941,0.0898004,-0.3042,0.0384948,0.206542,0.0886385,-0.0315972,0.0372937,-0.110315,0.00196684,-0.0895438,0.208351,-0.0632336,-0.0723725,0.141907,-0.195448,0.00640906,0.584854,-0.607396,0.0801139,0.0274556,0.324265,-0.184733,0.132171,0.263839,-0.557831,-0.0342769,1.14878,-0.0415328,0.136545,0.258387,0.0987563,0.442153,0.650164,0.559068,0.215976,-0.203426,-0.754517,-0.239486,0.111316,-0.237061,0.160136,-0.203862,-1.03577,-0.111682,0.0807525,134.896,296.068,945.355,-0.0782936,0.0432905,1.64112,1.79,78.0,18.9
0.9,0.156035,0.606038,0.181811,-0.560583,0.192912,0.203181,0.0609543,0.105671,0.624962,0.229918,0.0689754,0.0172266,0.242631,0.0698131,-0.050681,0.00535939,0.175191,0.0525574,-0.05751,0.431377,8.28522,-0.061677,-37.3203,0.0689491,0.350145,0.105043,-0.0903343,-0.0389805,0.560697,0.168209,-0.38699,0.412142,0.0,0.00547554,-0.51525,0.411012,0.123304,0.0924612,-0.307892,0.0436445,0.206985,0.0872842,-0.0316999,0.0376056,-0.114045,0.00233719,-0.0940171,0.202381,-0.0708078,-0.0633223,0.142276,-0.195545,0.00470599,0.610185,-0.618411,0.0795023,0.0274654,0.325965,-0.186103,0.131317,0.269524,-0.555554,-0.0344081,1.1615,-0.0422029,0.136911,0.256743,0.0959623,0.443768,0.671432,0.566013,0.215451,-0.204013,-0.753884,-0.23886,0.106753,-0.235608,0.163469,-0.234826,-1.04729,-0.106951,0.0864589,135.201,295.447,945.484,-0.0771036,0.0430439,1.63974,1.79,78.0,18.9
0.91,0.201632,0.75049,0.225147,-0.688712,0.202769,0.21588,0.064764,0.113596,0.573944,0.247604,0.0742812,0.00861331,0.267696,0.0629687,-0.0595502,0.0,0.216904,0.0650711,-0.0603712,0.448575,8.34832,-0.0669261,-38.1598,0.101782,0.372226,0.111668,-0.0945954,-0.0178196,0.576717,0.173015,-0.358324,0.423395,0.0,0.00821331,-0.485442,0.427827,0.128348,0.0924612,-0.312372,0.028032,0.207246,0.0857047,-0.0318701,0.0368371,-0.118508,0.00465454,-0.0994386,0.204514,-0.0680886,-0.0566301,0.143404,-0.192707,0.00471529,0.632944,-0.627898,0.0792054,0.0274853,0.325713,-0.185755,0.132038,0.276033,-0.554401,-0.0483397,1.17973,-0.0479305,0.136915,0.252947,0.0970488,0.446508,0.696565,0.571387,0.2154,-0.203888,-0.753881,-0.239043,0.102145,-0.234559,0.168478,-0.262431,-1.04839,-0.102011,0.0814299,135.818,295.03,945.66,-0.0763679,0.0422861,1.63879,1.79,78.0,18.9
0.92,0.251234,0.814071,0.244221,-0.788653,0.223891,0.237814,0.0713443,0.121962,0.758882,0.277534,0.0832602,0.0107666,0.294766,0.0520176,-0.0671524,0.0133985,0.281558,0.0844673,-0.0678103,0.469914,8.43424,-0.0747998,-38.8702,0.12969,0.369071,0.110721,-0.0988565,-0.0133647,0.600747,0.180224,-0.323143,0.438868,0.0,0.00273777,-0.451376,0.439036,0.131711,0.0931264,-0.312713,0.033769,0.207249,0.0849179,-0.0309813,0.0365777,-0.120932,0.00362569,-0.105198,0.200637,-0.0661109,-0.048071,0.142113,-0.195597,0.00577328,0.662519,-0.638258,0.0786158,0.0273661,0.327714,-0.185857,0.129842,0.282703,-0.553618,-0.0762439,1.19136,-0.0443314,0.136325,0.251307,0.101316,0.447895,0.712217,0.571351,0.214739,-0.203933,-0.752452,-0.238347,0.0984678,-0.233357,0.174857,-0.268658,-1.05696,-0.103764,0.0747063,135.912,294.152,945.726,-0.07582,0.041509,1.63765,1.79,78.0,18.9
0.93,0.282922,0.846152,0.253846,-0.868093,0.240789,0.263212,0.0789636,0.128126,0.822654,0.304743,0.091423,0.0,0.331863,0.0396977,-0.0760215,0.0,0.339955,0.101986,-0.0703854,0.496274,8.50049,-0.085298,-39.3868,0.155956,0.381689,0.114507,-0.103118,0.0155922,0.615165,0.184549,-0.290568,0.444494,0.0,0.00684442,-0.408793,0.444641,0.133392,0.0904656,-0.322957,0.0259988,0.207768,0.0798706,-0.030047,0.0348167,-0.120623,0.00414867,-0.109481,0.200378,-0.0621226,-0.0441236,0.14586,-0.19788,0.0053191,0.693736,-0.63192,0.0784401,0.0280876,0.328736,-0.187449,0.127815,0.290449,-0.551739,-0.0584064,1.18393,-0.0533179,0.1387,0.250561,0.104885,0.448814,0.730369,0.581113,0.213712,-0.203482,-0.752465,-0.237707,0.0935475,-0.233083,0.181486,-0.285855,-1.07114,-0.106077,0.0726087,136.321,293.45,945.737,-0.0747086,0.0403356,1.6363,1.79,78.0,18.9
0.9500000000000001,0.338383,0.810068,0.243021,-0.983409,0.267543,0.350949,0.105285,0.141775,1.00121,0.375487,0.112646,-0.00430665,0.416082,0.00821331,-0.097561,0.0187579,0.479691,0.143907,-0.0761077,0.521756,8.57606,-0.0944839,-39.968,0.188789,0.37538,0.112614,-0.10397,0.0456628,0.634389,0.190317,-0.257993,0.450121,0.0,-0.00410665,-0.366211,0.448377,0.134513,0.0864745,-0.351447,0.015054,0.208376,0.0765729,-0.0314662,0.042633,-0.122483,0.00518631,-0.117039,0.216267,-0.0508583,-0.0345601,0.146289,-0.198693,0.000190196,0.732109,-0.636089,0.0758091,0.0281144,0.342713,-0.184993,0.134493,0.305221,-0.564349,-0.0915776,1.18971,-0.0515603,0.143042,0.248911,0.107034,0.455974,0.763981,0.594782,0.214304,-0.203463,-0.752524,-0.236126,0.0835558,-0.229058,0.187296,-0.31102,-1.09052,-0.10894,0.0770546,136.749,292.47,945.757,-0.0743114,0.0391069,1.62744,1.79,78.0,18.9
0.96,0.376299,0.791991,0.237597,-1.05004,0.292889,0.383273,0.114982,0.151021,0.982082,0.428545,0.128564,-0.0258399,0.463204,-0.00958219,-0.102629,0.0321563,0.56103,0.168309,-0.07668,0.550751,8.62265,-0.111544,-40.2909,0.215055,0.381689,0.114507,-0.108231,0.0801884,0.652011,0.195603,-0.2176,0.451527,0.0,-0.00273777,-0.334274,0.452114,0.135634,0.0844789,-0.352141,0.00775737,0.208768,0.0663988,-0.0317787,0.0378969,-0.117535,0.00475656,-0.122925,0.222029,-0.0551081,-0.0275462,0.144537,-0.198031,-0.000854012,0.756283,-0.633405,0.0759632,0.0281821,0.341257,-0.18569,0.135266,0.312544,-0.562177,-0.100639,1.19519,-0.044599,0.140763,0.246442,0.106441,0.456507,0.783728,0.570318,0.213446,-0.203231,-0.751795,-0.235386,0.0797815,-0.227613,0.202044,-0.311378,-1.09808,-0.101626,0.0694026,137.426,291.892,945.867,-0.0732382,0.0387201,1.62764,1.79,78.0,18.9
0.97,0.428391,0.832109,0.249633,-1.14485,0.311195,0.435223,0.130567,0.161588,1.12238,0.478882,0.143665,-0.0322999,0.524363,-0.0205333,-0.112765,0.0428751,0.644454,0.193336,-0.0786828,0.582802,8.83806,-0.120729,-41.3241,0.242963,0.381689,0.114507,-0.107379,0.100235,0.650409,0.195123,-0.181116,0.461374,0.0,-0.00547554,-0.285304,0.450245,0.135074,0.0818182,-0.352123,0.0079439,0.209842,0.0610176,-0.0328278,0.0421896,-0.11656,0.00534517,-0.126494,0.212405,-0.0531936,-0.0181687,0.146179,-0.199291,-0.000447297,0.778101,-0.644035,0.0762835,0.0290423,0.351044,-0.189278,0.138361,0.320706,-0.561291,-0.124679,1.1871,-0.0464609,0.142374,0.243312,0.0974451,0.462593,0.804434,0.567746,0.213685,-0.202513,-0.751559,-0.234334,0.0747219,-0.226807,0.213722,-0.332103,-1.10675,-0.094807,0.0752506,137.808,291.425,945.799,-0.0724744,0.0379355,1.61907,1.79,78.0,18.9
0.99,0.483885,0.917506,0.275252,-1.25761,0.350622,0.47332,0.141996,0.168633,1.20528,0.537382,0.161215,-0.0495265,0.586525,-0.01232,-0.124169,0.0589533,0.727879,0.218364,-0.0758216,0.624055,8.68157,-0.156161,-41.3887,0.28893,0.383267,0.11498,-0.108231,0.139216,0.669632,0.20089,-0.134209,0.461374,0.0,-0.0150577,-0.227817,0.450245,0.135074,0.0758315,-0.361262,0.00198173,0.210507,0.0520912,-0.0331692,0.045352,-0.117492,0.00591262,-0.135338,0.219762,-0.0476573,-0.0131671,0.147503,-0.203212,-0.00522633,0.804462,-0.656493,0.0756783,0.0290732,0.355861,-0.18904,0.162238,0.325967,-0.560843,-0.118937,1.15693,-0.0499244,0.143107,0.243394,0.107819,0.463834,0.840686,0.58532,0.212437,-0.202593,-0.752017,-0.230397,0.0671524,-0.223851,0.216072,-0.356923,-1.12641,-0.10587,0.0772416,138.864,289.687,945.775,-0.0714807,0.0365849,1.61681,1.79,78.0,18.9
1.0,0.55369,1.08786,0.326358,-1.3883,0.392866,0.51257,0.153771,0.1792,1.32645,0.589079,0.176724,-0.0689064,0.6537,0.0,-0.136839,0.0937893,0.815474,0.244642,-0.0752494,0.652339,8.71884,-0.173221,-41.647,0.305346,0.381689,0.114507,-0.105674,0.16149,0.664827,0.199448,-0.118573,0.459967,0.0,-0.0136888,-0.198009,0.457718,0.137316,0.0745011,-0.369463,-0.00151274,0.214043,0.050844,-0.0342343,0.040074,-0.119743,0.00642205,-0.140185,0.223249,-0.0494884,-0.00706933,0.148682,-0.201888,-0.00511408,0.817997,-0.663877,0.0759527,0.0294697,0.357338,-0.189179,0.165851,0.336918,-0.561389,-0.139238,1.15031,-0.047078,0.145581,0.242226,0.116561,0.467153,0.854207,0.577317,0.211741,-0.201983,-0.750347,-0.229719,0.067009,-0.222487,0.232622,-0.372524,-1.14087,-0.106297,0.0694614,139.103,289.211,945.718,-0.0713794,0.035665,1.61563,1.79,78.0,18.9
1.01,0.626588,1.15395,0.346186,-1.46774,0.432293,0.547204,0.164161,0.188006,1.32007,0.655742,0.196723,-0.0882864,0.725887,0.023271,-0.144441,0.107188,0.917669,0.275301,-0.0723882,0.67577,8.65766,-0.195529,-41.9699,0.315196,0.391153,0.117346,-0.11164,0.164832,0.672836,0.201851,-0.100331,0.455747,0.0,-0.00821331,-0.193751,0.452114,0.135634,0.0718404,-0.366003,-0.00618957,0.214919,0.0494873,-0.0327878,0.0436907,-0.120978,0.00646573,-0.144596,0.213312,-0.0452498,-0.0053822,0.149564,-0.20237,-0.012332,0.825532,-0.645172,0.0773039,0.0295907,0.365994,-0.187455,0.181009,0.337616,-0.569887,-0.142571,1.13097,-0.0500507,0.146655,0.239763,0.108996,0.467842,0.869283,0.598852,0.212158,-0.200255,-0.750043,-0.225639,0.0659657,-0.219221,0.228914,-0.392127,-1.15263,-0.10469,0.0709354,139.801,287.947,945.773,-0.0732457,0.0345776,1.61371,1.79,78.0,18.9
1.02,0.685208,1.18854,0.356563,-1.52668,0.466088,0.580682,0.174205,0.196812,1.35833,0.721044,0.216313,-0.0947464,0.794065,0.0533865,-0.154577,0.125946,1.00526,0.301579,-0.069527,0.709785,8.668,-0.216526,-42.0991,0.331612,0.387998,0.116399,-0.11164,0.169287,0.658419,0.197526,-0.0964216,0.45856,0.0,-0.0109511,-0.168201,0.446509,0.133953,0.0698448,-0.39046,-0.00458404,0.214925,0.045071,-0.0322344,0.0496574,-0.120793,0.00398066,-0.150819,0.237939,-0.0500727,-0.00178057,0.148268,-0.198997,-0.0118917,0.829084,-0.638901,0.0782482,0.0290372,0.366131,-0.189269,0.195039,0.343558,-0.578777,-0.143143,1.11117,-0.0399368,0.147188,0.237033,0.110064,0.466849,0.883939,0.598597,0.212257,-0.200229,-0.749729,-0.223675,0.0634316,-0.217016,0.229554,-0.384978,-1.15533,-0.104823,0.0758719,140.487,287.108,945.798,-0.073022,0.0342854,1.61133,1.79,78.0,18.9
1.03,0.719889,1.16006,0.348018,-1.56255,0.498475,0.60608,0.181824,0.203856,1.34558,0.771381,0.231414,-0.107666,0.855224,0.0876086,-0.16598,0.152743,1.0866,0.325981,-0.0666658,0.744011,8.75186,-0.225712,-42.6802,0.339821,0.39273,0.117819,-0.11164,0.181538,0.663225,0.198967,-0.0820887,0.45856,0.0,-0.0177955,-0.161814,0.440904,0.132271,0.0658537,-0.379752,0.000857178,0.217551,0.0406891,-0.0312258,0.0520399,-0.120598,0.00294442,-0.156411,0.223292,-0.0497846,-0.00174585,0.150274,-0.199182,-0.0127263,0.832293,-0.640642,0.0780227,0.0289891,0.369203,-0.18868,0.207469,0.349287,-0.584388,-0.149983,1.09091,-0.0446842,0.146557,0.235994,0.109646,0.467297,0.896654,0.627898,0.212876,-0.200035,-0.749382,-0.223537,0.0624817,-0.214364,0.23073,-0.414371,-1.15827,-0.106717,0.0745399,140.892,286.1,945.787,-0.0730754,0.0331264,1.60935,1.79,78.0,18.9
1.05,0.774606,1.10144,0.330432,-1.64199,0.537902,0.656875,0.197063,0.213103,1.47312,0.862532,0.25876,-0.10982,0.951474,0.142364,-0.179918,0.190258,1.20131,0.360394,-0.0609434,0.788571,8.86889,-0.238834,-43.2614,0.354595,0.399039,0.119712,-0.110787,0.173741,0.668031,0.200409,-0.0677558,0.45434,0.0,-0.0205333,-0.151168,0.440904,0.132271,0.0665188,-0.37913,-0.00435853,0.217957,0.0331564,-0.0319009,0.0537428,-0.124764,0.00190876,-0.166223,0.219719,-0.0497721,0.0124867,0.152823,-0.196692,-0.0178087,0.833367,-0.654951,0.0798577,0.0287777,0.382179,-0.192309,0.240913,0.354988,-0.576601,-0.165678,1.05167,-0.0485131,0.148856,0.232965,0.107994,0.470155,0.926807,0.616289,0.21413,-0.200331,-0.746467,-0.219983,0.0650474,-0.209633,0.252697,-0.428935,-1.16021,-0.107393,0.0816462,142.442,284.232,945.815,-0.0727359,0.0322925,1.60092,1.79,78.0,18.9
1.06,0.820262,1.0665,0.31995,-1.67274,0.557616,0.682273,0.204682,0.216625,1.43486,0.903346,0.271004,-0.105513,0.993584,0.171111,-0.194488,0.214376,1.25554,0.376662,-0.0638046,0.832837,8.86368,-0.254582,-43.4552,0.35952,0.389575,0.116873,-0.109935,0.19713,0.655215,0.196564,-0.0599378,0.45434,0.0,-0.0246399,-0.127748,0.425958,0.127788,0.0638581,-0.376042,-0.0038983,0.217747,0.0325012,-0.0308579,0.0560768,-0.129591,0.00148106,-0.172599,0.213724,-0.0478603,0.0122483,0.154993,-0.194141,-0.0193666,0.829036,-0.653182,0.0810146,0.0295456,0.386591,-0.193683,0.258678,0.358527,-0.57855,-0.168031,1.0239,-0.0509115,0.146511,0.230192,0.109876,0.471161,0.943051,0.622049,0.214679,-0.199674,-0.743839,-0.22034,0.0669748,-0.205192,0.256312,-0.444537,-1.15443,-0.106958,0.0831155,143.001,283.3,945.822,-0.0728856,0.0308316,1.599,1.79,78.0,18.9
1.07,0.854843,1.04203,0.31261,-1.71631,0.573105,0.701898,0.210569,0.221028,1.49863,0.949602,0.28488,-0.111973,1.0387,0.203964,-0.201457,0.243852,1.29516,0.38855,-0.0635185,0.874427,9.16199,-0.262455,-44.4884,0.356237,0.391153,0.117346,-0.106526,0.194902,0.652011,0.195603,-0.0482108,0.448714,0.0,-0.0314843,-0.110715,0.427827,0.128348,0.0625277,-0.380945,-0.0149578,0.21688,0.027391,-0.0313949,0.0563581,-0.126775,0.00242976,-0.1776,0.22659,-0.0403226,0.0177745,0.157199,-0.188705,-0.023212,0.823875,-0.655861,0.0847511,0.0306694,0.391686,-0.194056,0.277184,0.358404,-0.576111,-0.174457,0.998061,-0.0561711,0.143388,0.229015,0.109099,0.472109,0.956084,0.633451,0.217475,-0.198582,-0.743481,-0.219907,0.0690814,-0.200714,0.256635,-0.444727,-1.14394,-0.109028,0.0822444,143.803,282.36,945.908,-0.0754622,0.0291891,1.59724,1.79,78.0,18.9
1.09,0.882218,1.03945,0.311836,-1.75475,0.585778,0.719215,0.215764,0.228953,1.5369,0.990415,0.297125,-0.092593,1.08181,0.235448,-0.216661,0.284048,1.34105,0.402315,-0.064663,0.926392,9.135,-0.282139,-44.8759,0.354595,0.384844,0.115453,-0.106526,0.164832,0.637593,0.191278,-0.0469078,0.433241,0.0,-0.0246399,-0.108586,0.409144,0.122743,0.059867,-0.378173,-0.00648913,0.210195,0.0175626,-0.0280269,0.0503228,-0.127107,-0.00410454,-0.173215,0.215465,-0.0330801,0.0276851,0.157461,-0.189379,-0.0226865,0.798659,-0.650258,0.0880938,0.0321395,0.395806,-0.197758,0.326125,0.35481,-0.581214,-0.193381,0.951903,-0.0506627,0.141657,0.22063,0.122806,0.480945,0.97709,0.612405,0.21832,-0.197773,-0.745253,-0.216549,0.0716868,-0.196315,0.268671,-0.428444,-1.14829,-0.110691,0.0667363,145.561,280.082,946.036,-0.0752011,0.0259885,1.59195,1.79,78.0,18.9
1.1,0.897506,1.07899,0.323698,-1.79062,0.604084,0.733068,0.21992,0.234237,1.50501,1.01899,0.305696,-0.0882864,1.11289,0.264195,-0.226798,0.310845,1.36608,0.409823,-0.0632324,0.95501,9.06867,-0.29395,-44.8759,0.352954,0.387998,0.116399,-0.108231,0.163718,0.626379,0.187914,-0.0521198,0.424801,0.0,-0.0205333,-0.112844,0.397935,0.11938,0.0558758,-0.378631,-0.00797788,0.203559,0.00669141,-0.029527,0.0513788,-0.123434,-0.00449182,-0.169921,0.222417,-0.0319539,0.0277284,0.15986,-0.18831,-0.0251224,0.786276,-0.656914,0.0883051,0.032536,0.40442,-0.199272,0.351274,0.351716,-0.576066,-0.183971,0.922893,-0.0550587,0.14034,0.220664,0.112817,0.477602,0.990781,0.620996,0.22344,-0.199835,-0.739824,-0.223007,0.0716294,-0.194764,0.272307,-0.45422,-1.15026,-0.111788,0.0787356,146.511,279.115,946.044,-0.0746406,0.0252745,1.58496,1.79,78.0,18.9
1.11,0.921279,1.08452,0.325357,-1.8265,0.605492,0.730759,0.219228,0.23908,1.53052,1.04619,0.313858,-0.0839797,1.13295,0.288835,-0.240735,0.345681,1.3911,0.417331,-0.0703854,0.987645,9.19398,-0.304448,-45.4571,0.344745,0.394307,0.118292,-0.107379,0.160377,0.627981,0.188394,-0.0521198,0.416362,0.0,-0.0205333,-0.121361,0.397935,0.11938,0.0558758,-0.376926,-0.0122178,0.203239,-0.00276769,-0.0284704,0.0582178,-0.118969,-0.00879911,-0.16959,0.220487,-0.0189883,0.0341397,0.159339,-0.189095,-0.024398,0.766072,-0.677564,0.0872754,0.031554,0.414384,-0.19969,0.377016,0.347373,-0.574227,-0.195554,0.903314,-0.0508896,0.14236,0.221948,0.114521,0.481743,1.00544,0.602265,0.227907,-0.202187,-0.738183,-0.225191,0.0714943,-0.192099,0.278526,-0.460925,-1.14224,-0.12325,0.0864407,147.205,277.825,946.172,-0.0743709,0.0248601,1.57441,1.79,78.0,18.9
1.12,0.941884,1.02217,0.30665,-1.8265,0.608308,0.729605,0.218881,0.244364,1.55603,1.06388,0.319164,-0.0818264,1.15601,0.305261,-0.252772,0.369798,1.40153,0.420459,-0.0729604,1.02597,9.10903,-0.313634,-45.3279,0.338179,0.384844,0.115453,-0.108231,0.155922,0.616767,0.18503,-0.0638468,0.417768,0.0,-0.0136888,-0.125619,0.390462,0.117139,0.0518847,-0.383248,-0.00799648,0.19599,-0.00864942,-0.0275737,0.0567068,-0.119331,-0.0129592,-0.167191,0.225266,-0.0202849,0.0374674,0.159281,-0.187143,-0.026622,0.753352,-0.645938,0.0879144,0.032034,0.418719,-0.200405,0.392438,0.357463,-0.596946,-0.215418,0.889894,-0.0490232,0.143934,0.217475,0.108772,0.487982,1.01776,0.626752,0.22733,-0.201115,-0.7338,-0.223812,0.074385,-0.186439,0.275467,-0.487516,-1.1257,-0.108284,0.0802446,148.143,277.112,945.96,-0.0738544,0.0239978,1.57149,1.79,78.0,18.9
1.1300000000000001,0.955893,1.07383,0.32215,-1.8675,0.599859,0.730759,0.219228,0.251849,1.50501,1.08021,0.324062,-0.0732131,1.17105,0.321688,-0.267342,0.396595,1.41822,0.425465,-0.0741049,1.06337,9.1846,-0.32282,-45.9091,0.325046,0.383267,0.11498,-0.105674,0.129192,0.608757,0.182627,-0.0755737,0.414955,0.0,-0.0109511,-0.138394,0.377384,0.113215,0.0525499,-0.382151,-0.00740548,0.19432,-0.0137424,-0.0274726,0.0512958,-0.120238,-0.0144386,-0.168543,0.222296,-0.0237877,0.0458312,0.161671,-0.185415,-0.0322251,0.736171,-0.644639,0.0890776,0.0325452,0.42558,-0.202014,0.414746,0.355577,-0.593576,-0.222571,0.868463,-0.0553687,0.142008,0.213916,0.112308,0.488522,1.02262,0.607996,0.227395,-0.201137,-0.734667,-0.222518,0.0799971,-0.1839,0.28322,-0.461604,-1.11188,-0.11182,0.0774748,148.784,275.832,946.143,-0.0734018,0.0229883,1.57106,1.79,78.0,18.9
1.1500000000000001,0.988083,1.02347,0.30704,-1.9085,0.601267,0.734222,0.220267,0.250968,1.53052,1.11014,0.333041,-0.0344532,1.20012,0.349066,-0.29395,0.458228,1.43282,0.429845,-0.0789689,1.10199,9.25503,-0.329381,-46.1674,0.313554,0.383267,0.11498,-0.106526,0.110259,0.592737,0.177821,-0.0886037,0.405109,0.0,-0.00684442,-0.142652,0.366175,0.109852,0.0505543,-0.383551,-0.0152561,0.185883,-0.0345571,-0.0266284,0.0599649,-0.110023,-0.0187255,-0.180534,0.22855,-0.0159126,0.0609687,0.160714,-0.180668,-0.0388957,0.698947,-0.688744,0.0881232,0.0323937,0.442478,-0.201799,0.468751,0.340331,-0.556938,-0.220784,0.807863,-0.0526801,0.1359,0.207112,0.119728,0.497185,1.03625,0.608826,0.226741,-0.200057,-0.730972,-0.216498,0.0878807,-0.180472,0.304983,-0.511474,-1.09518,-0.111276,0.0708814,150.097,273.396,946.38,-0.0725838,0.0213782,1.56011,1.79,78.0,18.9
1.16,1.01,0.957092,0.287128,-1.90081,0.605492,0.742304,0.222691,0.251849,1.46675,1.14007,0.34202,-0.00430665,1.21716,0.364123,-0.303453,0.493064,1.44741,0.434224,-0.0795412,1.13296,9.43111,-0.330694,-46.8132,0.300421,0.383267,0.11498,-0.106526,0.10469,0.586329,0.175899,-0.101634,0.398075,0.0,0.0,-0.14691,0.358702,0.107611,0.0492239,-0.391114,-0.0090066,0.179316,-0.0376107,-0.0286054,0.0436763,-0.112367,-0.0214699,-0.164953,0.234621,-0.0184967,0.0677587,0.160916,-0.179797,-0.041845,0.682819,-0.661732,0.0890966,0.0322972,0.44668,-0.202751,0.48287,0.348917,-0.578353,-0.245108,0.792341,-0.0481508,0.137746,0.204503,0.120679,0.497413,1.04144,0.610547,0.227155,-0.200018,-0.728109,-0.215075,0.0940243,-0.176895,0.307268,-0.518938,-1.08379,-0.109311,0.0650709,150.758,272.414,946.273,-0.0727153,0.020991,1.55729,1.79,78.0,18.9
1.17,1.03014,0.956951,0.287085,-1.93669,0.604084,0.751539,0.225462,0.250528,1.52414,1.15503,0.346509,0.0172266,1.2302,0.370968,-0.314856,0.522541,1.45367,0.436101,-0.0809718,1.17116,9.57301,-0.329381,-47.3944,0.285646,0.381689,0.114507,-0.105674,0.0723923,0.573513,0.172054,-0.109452,0.388229,0.0,0.00684442,-0.161814,0.343756,0.103127,0.0505543,-0.386485,-0.00434572,0.17305,-0.0479265,-0.0313081,0.0462063,-0.109543,-0.0203938,-0.161573,0.230594,-0.0217413,0.0705966,0.160214,-0.178769,-0.0440444,0.665864,-0.641759,0.08932,0.0331768,0.455464,-0.203471,0.508575,0.342646,-0.576204,-0.240618,0.762007,-0.044089,0.138659,0.203549,0.121959,0.498012,1.04723,0.612162,0.227873,-0.198757,-0.724125,-0.214846,0.0991715,-0.172848,0.303948,-0.515137,-1.06995,-0.120374,0.0716166,151.588,271.358,946.402,-0.0723736,0.0195373,1.54963,1.79,78.0,18.9
1.19,1.04445,0.956881,0.287064,-1.95463,0.594227,0.753848,0.226154,0.25361,1.46675,1.16047,0.348142,0.0279932,1.24123,0.379181,-0.321191,0.570775,1.45784,0.437353,-0.0826885,1.24839,9.79677,-0.334631,-47.911,0.262663,0.387998,0.116399,-0.107379,0.0523452,0.554289,0.166287,-0.140723,0.368536,0.0,0.0191644,-0.187364,0.330678,0.0992035,0.0452328,-0.386472,-0.00427038,0.169878,-0.0591788,-0.0317056,0.0429648,-0.111323,-0.0238135,-0.161412,0.23453,-0.0218335,0.0792117,0.164346,-0.179739,-0.0467829,0.619417,-0.648833,0.0901242,0.0332665,0.462707,-0.205299,0.552007,0.340885,-0.58516,-0.260723,0.717491,-0.0603524,0.137628,0.196078,0.124164,0.498514,1.04893,0.61261,0.227491,-0.197946,-0.716909,-0.21289,0.113142,-0.166243,0.308019,-0.523566,-1.04572,-0.114062,0.0672043,152.727,268.951,946.528,-0.0715766,0.0177279,1.54554,1.79,78.0,18.9
1.2,1.05539,0.925309,0.277593,-1.95207,0.588594,0.77001,0.231003,0.25361,1.43486,1.16183,0.34855,0.0387599,1.23922,0.388763,-0.33006,0.581494,1.45159,0.435476,-0.0832607,1.28588,9.96251,-0.330694,-48.4276,0.25938,0.389575,0.116873,-0.10397,0.0289569,0.554289,0.166287,-0.148541,0.365723,0.0,0.0205333,-0.202268,0.321337,0.0964011,0.045898,-0.384638,-0.00317277,0.163634,-0.0626278,-0.0325661,0.0428903,-0.115091,-0.0258998,-0.161272,0.227136,-0.0218149,0.0820054,0.165999,-0.177355,-0.0444678,0.606179,-0.624233,0.0907681,0.0336883,0.466026,-0.207662,0.563609,0.350268,-0.597154,-0.261992,0.691141,-0.0614287,0.136968,0.193911,0.123603,0.49889,1.04703,0.626956,0.228036,-0.197277,-0.713144,-0.213643,0.123391,-0.160527,0.305915,-0.523568,-1.02816,-0.111064,0.062994,153.285,268.157,946.444,-0.0709862,0.016903,1.54041,1.79,78.0,18.9
1.21,1.06744,0.846738,0.254021,-1.95719,0.587186,0.772319,0.231696,0.25449,1.38384,1.17952,0.353856,0.0430665,1.24724,0.388763,-0.336395,0.597572,1.46201,0.438604,-0.0818301,1.31747,10.1406,-0.329381,-49.2025,0.247888,0.395884,0.118765,-0.102265,0.0200471,0.546279,0.163884,-0.156359,0.355877,0.0,0.0164266,-0.206526,0.313864,0.0941592,0.0465632,-0.385547,-0.00249988,0.162235,-0.063071,-0.0317958,0.0407062,-0.11838,-0.0285896,-0.165153,0.232615,-0.0255462,0.0911574,0.165676,-0.180944,-0.0429399,0.590878,-0.617999,0.0924518,0.0330561,0.467466,-0.205624,0.576826,0.354726,-0.595984,-0.271083,0.675435,-0.06511,0.136615,0.191046,0.123449,0.49959,1.04361,0.61098,0.230694,-0.196466,-0.709099,-0.212611,0.134799,-0.156343,0.317058,-0.52357,-1.01521,-0.113508,0.063727,153.879,267.04,946.657,-0.0735716,0.015825,1.53721,1.79,78.0,18.9
1.22,1.07094,0.808637,0.242591,-1.96744,0.58437,0.775782,0.232735,0.256251,1.28181,1.18632,0.355897,0.0538332,1.24825,0.391501,-0.345264,0.600252,1.45576,0.436727,-0.0835468,1.34781,10.4224,-0.321508,-49.7192,0.236397,0.395884,0.118765,-0.0997087,0.0167059,0.541473,0.162442,-0.16548,0.357283,0.0,0.023271,-0.208655,0.300786,0.0902359,0.0445676,-0.375553,0.00501833,0.157651,-0.0736779,-0.0326029,0.0430072,-0.113235,-0.0311875,-0.16543,0.216862,-0.0241962,0.0918588,0.164718,-0.180947,-0.0459997,0.570742,-0.63626,0.0917838,0.0329749,0.472556,-0.204275,0.598485,0.350497,-0.595659,-0.281852,0.645285,-0.0598375,0.142861,0.189901,0.12389,0.499973,1.042,0.603135,0.230396,-0.195418,-0.708811,-0.210571,0.14093,-0.152779,0.317909,-0.523572,-1.00976,-0.117885,0.0681781,154.494,266.066,946.655,-0.0733343,0.0149092,1.53339,1.79,78.0,18.9
1.23,1.08169,0.807777,0.242333,-1.98025,0.580145,0.785018,0.235505,0.258893,1.23717,1.18632,0.355897,0.0581398,1.25627,0.401083,-0.350333,0.61901,1.45993,0.437979,-0.0832607,1.37513,10.5281,-0.308385,-50.1066,0.21998,0.395884,0.118765,-0.0997087,-0.00222745,0.555891,0.166767,-0.179813,0.35869,0.0,0.0260088,-0.215042,0.291445,0.0874336,0.0412417,-0.38282,0.00678082,0.158423,-0.0749134,-0.0336048,0.0386734,-0.118011,-0.0315783,-0.166481,0.215944,-0.0330868,0.0969943,0.164386,-0.179275,-0.0539479,0.555789,-0.645677,0.0927109,0.0338272,0.48332,-0.205788,0.606093,0.360605,-0.599431,-0.273523,0.612709,-0.056308,0.143904,0.18599,0.126379,0.500311,1.03411,0.609532,0.230842,-0.195306,-0.703443,-0.210558,0.152426,-0.150996,0.327365,-0.523575,-0.996059,-0.11876,0.0664914,154.85,264.934,946.758,-0.0731632,0.0140447,1.53068,1.79,78.0,18.9
1.25,1.10552,0.829521,0.248856,-2.01101,0.567472,0.798871,0.239661,0.257572,1.16702,1.20809,0.362427,0.0732131,1.27431,0.407928,-0.360469,0.632408,1.45784,0.437353,-0.0841191,1.39785,10.6234,-0.304448,-50.3649,0.201922,0.411657,0.123497,-0.10397,-0.0155922,0.551085,0.165326,-0.201964,0.35447,0.0,0.0410665,-0.219301,0.278367,0.0835102,0.0392461,-0.387847,0.00183063,0.156687,-0.0787546,-0.0351363,0.0353171,-0.126166,-0.0319652,-0.16769,0.227032,-0.0406269,0.108856,0.16971,-0.173041,-0.062316,0.537466,-0.625756,0.0927837,0.0353463,0.502956,-0.205409,0.622872,0.372385,-0.602978,-0.286525,0.563791,-0.0642885,0.129108,0.180313,0.132751,0.502068,1.02594,0.593421,0.231437,-0.193811,-0.697771,-0.208918,0.174132,-0.14353,0.340694,-0.523579,-0.975711,-0.120831,0.0648387,155.248,262.777,946.763,-0.073563,0.011372,1.52146,1.79,78.0,18.9
1.26,1.12354,0.822993,0.246898,-2.02382,0.573105,0.810415,0.243125,0.261535,1.19891,1.20809,0.362427,0.0732131,1.27632,0.418879,-0.36427,0.648486,1.4495,0.43485,-0.0852636,1.42818,10.8306,-0.297887,-50.8815,0.185506,0.422697,0.126809,-0.10397,-0.0445491,0.555891,0.166767,-0.2176,0.357283,0.0,0.0533865,-0.22143,0.259685,0.0779055,0.0412417,-0.391974,0.00439425,0.156403,-0.0791111,-0.0357503,0.0341287,-0.130279,-0.0348607,-0.165721,0.240174,-0.0340049,0.109547,0.16906,-0.182283,-0.0736756,0.529116,-0.629264,0.0938991,0.0363016,0.515185,-0.204122,0.632979,0.376184,-0.607433,-0.286491,0.532105,-0.0645153,0.141882,0.177558,0.132153,0.504199,1.02225,0.581611,0.233799,-0.193356,-0.696148,-0.209039,0.180568,-0.141523,0.347292,-0.52358,-0.971855,-0.119194,0.059153,155.318,261.986,946.808,-0.0753862,0.0105635,1.51841,1.79,78.0,18.9
1.27,1.1368,0.863462,0.259039,-2.02894,0.567472,0.83235,0.249705,0.264177,1.09687,1.21353,0.364059,0.0818264,1.27732,0.412034,-0.367437,0.640447,1.4495,0.43485,-0.0861219,1.4527,11.1403,-0.284764,-51.5919,0.169089,0.440047,0.132014,-0.10397,-0.049004,0.555891,0.166767,-0.228024,0.351657,0.0,0.0561243,-0.227817,0.248476,0.0745427,0.0439024,-0.391889,0.0076252,0.150345,-0.0829736,-0.0367605,0.0350117,-0.132971,-0.0355455,-0.165896,0.247954,-0.038194,0.111547,0.170306,-0.179363,-0.0798148,0.516562,-0.630184,0.0942884,0.0367909,0.525529,-0.204269,0.645803,0.376912,-0.611604,-0.295094,0.511299,-0.0672924,0.136973,0.175961,0.133758,0.506726,1.01504,0.5729,0.234168,-0.192918,-0.69346,-0.207304,0.190457,-0.141776,0.356341,-0.523583,-0.973654,-0.122203,0.0597811,155.884,260.587,946.882,-0.0753862,0.00951927,1.51379,1.79,78.0,18.9
1.29,1.15098,0.898983,0.269695,-2.05713,0.567472,0.83235,0.249705,0.264177,1.07774,1.21489,0.364467,0.0775198,1.27632,0.414772,-0.373139,0.648486,1.45159,0.435476,-0.0924165,1.49759,11.2367,-0.270329,-51.9148,0.141181,0.46686,0.140058,-0.102265,-0.0824158,0.594339,0.178302,-0.261902,0.35869,0.0,0.0657065,-0.242721,0.226057,0.067817,0.0412417,-0.388173,0.0062107,0.139629,-0.0861357,-0.0370309,0.0333562,-0.139772,-0.0394148,-0.164666,0.236357,-0.0344589,0.122625,0.172632,-0.178548,-0.0907669,0.498621,-0.633297,0.0950786,0.0385542,0.545111,-0.204885,0.654419,0.391308,-0.626704,-0.290207,0.456202,-0.0694336,0.133531,0.170874,0.128832,0.505503,0.998886,0.595583,0.234696,-0.19118,-0.688092,-0.206132,0.209948,-0.131512,0.358808,-0.523585,-0.952686,-0.121919,0.0633684,155.944,258.865,947.027,-0.0761057,0.00771848,1.50606,1.79,78.0,18.9
1.3,1.16556,0.87308,0.261924,-2.05457,0.560432,0.846203,0.253861,0.265938,1.10325,1.20809,0.362427,0.0667531,1.27131,0.414772,-0.367437,0.669924,1.4349,0.43047,-0.0932749,1.52977,11.4076,-0.266392,-52.2377,0.131332,0.481055,0.144316,-0.10397,-0.0991217,0.599145,0.179743,-0.277538,0.361503,0.0,0.0684442,-0.238463,0.22232,0.0666961,0.0432373,-0.390061,0.00554476,0.136503,-0.0879903,-0.0371013,0.0321947,-0.143132,-0.0420607,-0.163634,0.235971,-0.0386746,0.127332,0.174338,-0.172182,-0.0985434,0.493322,-0.640356,0.0946034,0.0391572,0.559827,-0.204074,0.660263,0.395483,-0.629587,-0.285596,0.431065,-0.0694715,0.126255,0.169892,0.130889,0.506087,0.991294,0.5949,0.234545,-0.190646,-0.68568,-0.205293,0.218968,-0.126723,0.359446,-0.523586,-0.945667,-0.122796,0.0667425,155.879,257.999,947.019,-0.0761224,0.00688875,1.50308,1.79,78.0,18.9
1.31,1.1834,0.916708,0.275012,-2.0802,0.56184,0.85313,0.255939,0.26902,1.09049,1.20945,0.362835,0.0796731,1.26629,0.412034,-0.371238,0.669924,1.42656,0.427968,-0.0955639,1.54446,11.4542,-0.254582,-52.5605,0.126407,0.487364,0.146209,-0.10397,-0.114714,0.615165,0.184549,-0.285356,0.36713,0.0,0.071182,-0.246979,0.216716,0.0650147,0.0439024,-0.391826,0.00474366,0.13249,-0.0953139,-0.0359084,0.0320454,-0.140805,-0.0463825,-0.163304,0.248793,-0.0310595,0.130184,0.175617,-0.162352,-0.104494,0.486469,-0.63539,0.0952748,0.0397679,0.567393,-0.204555,0.66585,0.399697,-0.635594,-0.291164,0.40526,-0.0691816,0.12058,0.167091,0.128032,0.509471,0.983548,0.596661,0.235125,-0.190251,-0.683763,-0.204452,0.226075,-0.124923,0.364387,-0.523587,-0.940288,-0.123001,0.0688035,156.273,257.102,947.196,-0.0762094,0.00599707,1.4998,1.79,78.0,18.9
1.32,1.19542,0.903721,0.271116,-2.08788,0.554799,0.860056,0.258017,0.274744,1.02035,1.21217,0.363651,0.0861331,1.26529,0.407928,-0.37504,0.675283,1.41404,0.424213,-0.098425,1.56391,11.6003,-0.251957,-52.8834,0.118198,0.499981,0.149994,-0.102265,-0.109145,0.626379,0.187914,-0.289265,0.365723,0.0,0.0752886,-0.251238,0.220452,0.0661356,0.0445676,-0.389809,0.00469662,0.130094,-0.0967958,-0.0359288,0.0311892,-0.144775,-0.0487249,-0.160867,0.244729,-0.0280009,0.131079,0.173478,-0.166252,-0.109911,0.482908,-0.627069,0.0961137,0.0404614,0.576303,-0.205394,0.670251,0.403732,-0.644093,-0.293657,0.374851,-0.062403,0.123868,0.164522,0.128481,0.509574,0.976383,0.595678,0.235111,-0.189439,-0.683468,-0.20223,0.233532,-0.123768,0.368522,-0.523588,-0.936781,-0.129892,0.07167,156.378,256.01,947.32,-0.0765446,0.00516287,1.49638,1.79,78.0,18.9
1.33,1.19758,0.923886,0.277166,-2.10838,0.547759,0.854284,0.256285,0.276945,1.06499,1.21081,0.363243,0.0818264,1.2703,0.421616,-0.37694,0.70208,1.40153,0.420459,-0.098425,1.58082,11.7733,-0.254582,-53.3355,0.116557,0.512599,0.15378,-0.106526,-0.10469,0.634389,0.190317,-0.300992,0.372756,0.0,0.0848708,-0.253367,0.214847,0.0644542,0.0472284,-0.392163,0.00144769,0.121785,-0.0970917,-0.0355794,0.0311806,-0.14906,-0.051119,-0.159872,0.247588,-0.0201192,0.137461,0.173776,-0.165192,-0.110855,0.478358,-0.620759,0.096913,0.04091,0.582129,-0.206089,0.675133,0.406621,-0.649443,-0.296531,0.349412,-0.0636275,0.118648,0.161491,0.129342,0.510259,0.973561,0.585048,0.235162,-0.189101,-0.680753,-0.20095,0.239435,-0.119595,0.368632,-0.52359,-0.929528,-0.126307,0.0728678,156.144,255.23,947.412,-0.0772637,0.00450783,1.49376,1.79,78.0,18.9
1.35,1.21691,0.964355,0.289307,-2.11351,0.53931,0.869292,0.260788,0.286632,0.950197,1.20945,0.362835,0.0861331,1.27331,0.524283,-0.38771,0.694041,1.38485,0.415454,-0.098425,1.5945,11.7132,-0.245396,-53.2063,0.11984,0.545721,0.163716,-0.106526,-0.114714,0.666429,0.199929,-0.297083,0.379789,0.0,0.0876086,-0.249108,0.211111,0.0633333,0.0478936,-0.391312,0.00524418,0.11767,-0.0999184,-0.0377248,0.03031,-0.155506,-0.053101,-0.159526,0.24053,-0.0286344,0.136101,0.174251,-0.157243,-0.124183,0.455996,-0.659906,0.0958116,0.041519,0.601021,-0.205359,0.691158,0.405338,-0.643534,-0.276171,0.320368,-0.0620359,0.113203,0.15629,0.134227,0.512451,0.954798,0.607833,0.234308,-0.188218,-0.67878,-0.197738,0.252572,-0.118182,0.379586,-0.523591,-0.915715,-0.131892,0.0675508,155.719,253.448,947.761,-0.0772598,0.00310514,1.48809,1.79,78.0,18.9
1.36,1.23243,1.02097,0.306291,-2.13145,0.535086,0.877373,0.263212,0.29896,0.918311,1.21897,0.365692,0.0775198,1.28033,0.568087,-0.397213,0.710119,1.37859,0.413577,-0.0981389,1.59948,11.9111,-0.246708,-53.6584,0.121482,0.574111,0.172233,-0.106526,-0.1136,0.685652,0.205696,-0.294477,0.395262,0.0,0.094453,-0.246979,0.214847,0.0644542,0.0538803,-0.386842,0.00832523,0.118694,-0.100647,-0.0389604,0.0321179,-0.159335,-0.0524776,-0.158103,0.240101,-0.0323824,0.133733,0.174184,-0.163024,-0.12916,0.453354,-0.67073,0.0962032,0.0421292,0.608663,-0.205682,0.69726,0.403846,-0.640274,-0.271147,0.304909,-0.0607101,0.115913,0.155151,0.136498,0.512571,0.951933,0.615363,0.234312,-0.187603,-0.678238,-0.195259,0.257478,-0.114694,0.374792,-0.523592,-0.912379,-0.133283,0.0677642,155.278,252.541,947.902,-0.0782108,0.00238607,1.48412,1.79,78.0,18.9
1.37,1.26859,1.08003,0.324008,-2.14682,0.522413,0.900462,0.270138,0.313049,0.752505,1.25026,0.375079,0.0732131,1.29437,0.605047,-0.40038,0.70208,1.37025,0.411074,-0.102431,1.60232,11.9981,-0.240147,-53.9167,0.118198,0.602501,0.18075,-0.11164,-0.112486,0.727304,0.218191,-0.289265,0.417768,0.0,0.0876086,-0.251238,0.220452,0.0661356,0.0592018,-0.389605,0.00978077,0.120255,-0.102909,-0.0413091,0.0336697,-0.162136,-0.0513941,-0.158145,0.241727,-0.0389104,0.133767,0.174852,-0.163105,-0.132726,0.447776,-0.686818,0.0970539,0.0435287,0.616715,-0.20548,0.704898,0.401621,-0.638767,-0.267163,0.296416,-0.0703413,0.109087,0.148023,0.143795,0.519328,0.948557,0.628945,0.234015,-0.186897,-0.67771,-0.193649,0.263124,-0.109333,0.366371,-0.523593,-0.903942,-0.122682,0.058129,155.164,252.079,948.117,-0.0787167,0.00133082,1.48244,1.79,78.0,18.9
1.3900000000000001,1.28411,1.11964,0.335891,-2.16476,0.502699,0.921241,0.276372,0.318333,0.733373,1.26251,0.378752,0.0753664,1.30439,0.626949,-0.410516,0.723518,1.36399,0.409197,-0.10615,1.61111,11.764,-0.282139,-53.2709,0.096857,0.692403,0.207721,-0.11164,-0.139216,0.821822,0.246547,-0.303598,0.509199,0.0,0.0848708,-0.315112,0.237266,0.0711799,0.0771619,-0.382245,0.00623569,0.117332,-0.104434,-0.0430251,0.035061,-0.167723,-0.0522189,-0.157649,0.233062,-0.0334692,0.130166,0.170387,-0.17488,-0.141345,0.443129,-0.698411,0.0966557,0.0445145,0.623132,-0.201993,0.713634,0.401584,-0.636829,-0.263847,0.275181,-0.0578495,0.131132,0.146948,0.142503,0.522475,0.939901,0.638188,0.23318,-0.184539,-0.679446,-0.189472,0.271919,-0.104326,0.362596,-0.523594,-0.902785,-0.138183,0.06112,154.444,250.835,948.483,-0.0804583,-0.000789682,1.47825,1.79,78.0,18.9
1.4000000000000001,1.30085,1.14224,0.342672,-2.1827,0.501291,0.937404,0.281221,0.320975,0.746128,1.27747,0.383242,0.0968997,1.31041,0.648851,-0.406082,0.734236,1.35982,0.407946,-0.105292,1.6027,11.8345,-0.33988,-53.0126,0.0984987,0.738143,0.221443,-0.114196,-0.141443,0.877891,0.263367,-0.303598,0.564057,0.0,0.0848708,-0.336403,0.278367,0.0835102,0.0844789,-0.391208,0.00433269,0.112822,-0.10593,-0.0432651,0.0337971,-0.16956,-0.0542006,-0.154391,0.246825,-0.0280375,0.129056,0.171183,-0.170564,-0.14182,0.440376,-0.704084,0.0974144,0.0446287,0.625059,-0.201567,0.715518,0.404762,-0.643177,-0.259876,0.276805,-0.0577916,0.133496,0.143821,0.148644,0.523417,0.93806,0.636007,0.233282,-0.183497,-0.681553,-0.187084,0.274962,-0.102855,0.361231,-0.523594,-0.911113,-0.139434,0.0627927,154.344,250.362,948.573,-0.0813343,-0.00175318,1.47639,1.79,78.0,18.9
1.41,1.32024,1.18759,0.356277,-2.1827,0.491434,0.947793,0.284338,0.325818,0.714242,1.29244,0.387731,0.10336,1.31141,0.670753,-0.406715,0.744955,1.34105,0.402315,-0.108725,1.60069,11.9557,-0.345129,-53.3355,0.111632,0.772842,0.231853,-0.11931,-0.139216,0.941971,0.282591,-0.300992,0.618916,0.0,0.0930841,-0.336403,0.304523,0.0913568,0.0904656,-0.396239,0.0114937,0.107597,-0.107102,-0.0463452,0.0340915,-0.171073,-0.0538172,-0.151038,0.24449,-0.0313966,0.132929,0.171332,-0.175728,-0.141789,0.436124,-0.701499,0.0981914,0.0450428,0.62766,-0.201671,0.719128,0.404785,-0.651615,-0.263861,0.281482,-0.0615294,0.133116,0.140576,0.141217,0.523569,0.935482,0.636758,0.233152,-0.18182,-0.681122,-0.185812,0.277001,-0.102348,0.359571,-0.523594,-0.916273,-0.138286,0.0621417,154.132,249.892,948.706,-0.0824014,-0.00250713,1.47395,1.79,78.0,18.9
1.42,1.33482,1.2127,0.363811,-2.18014,0.480169,0.962801,0.28884,0.3289,0.612207,1.29924,0.389772,0.11628,1.31342,0.692656,-0.406082,0.747635,1.33271,0.399812,-0.109011,1.5914,11.9775,-0.338567,-53.1417,0.114915,0.799655,0.239896,-0.126979,-0.149239,0.991633,0.29749,-0.307507,0.669554,0.0,0.114986,-0.338532,0.338151,0.101445,0.0931264,-0.389925,0.012757,0.101143,-0.109663,-0.0481126,0.0347575,-0.172072,-0.0539914,-0.149841,0.239485,-0.0332695,0.134424,0.17033,-0.175889,-0.14292,0.43675,-0.710163,0.0978315,0.0450151,0.629257,-0.200415,0.724424,0.403367,-0.646102,-0.253685,0.287323,-0.0627981,0.132554,0.136928,0.141727,0.523594,0.933579,0.635406,0.233662,-0.181451,-0.67892,-0.18532,0.279859,-0.100407,0.357908,-0.523594,-0.919966,-0.135858,0.0658848,153.886,249.529,948.944,-0.0830871,-0.00292204,1.47189,1.79,78.0,18.9
1.43,1.34081,1.21349,0.364048,-2.18526,0.478761,0.9755,0.29265,0.337706,0.593076,1.31693,0.395078,0.12274,1.31342,0.6995,-0.407349,0.763713,1.32228,0.396683,-0.107867,1.59353,12.0634,-0.33988,-53.3355,0.113274,0.837508,0.251253,-0.132093,-0.153694,1.03328,0.309985,-0.314022,0.706127,0.0,0.1232,-0.323628,0.36057,0.108171,0.0964523,-0.388825,0.0160185,0.0984493,-0.112124,-0.0498743,0.0365249,-0.170945,-0.0545642,-0.149649,0.232951,-0.0337251,0.13426,0.170116,-0.175827,-0.144711,0.43542,-0.722326,0.0979705,0.0448516,0.631589,-0.199657,0.725896,0.404145,-0.648912,-0.251794,0.292913,-0.0627186,0.133375,0.137026,0.140287,0.523598,0.934752,0.635431,0.233993,-0.180775,-0.678432,-0.184307,0.279641,-0.0993504,0.353254,-0.523595,-0.923455,-0.141108,0.0643874,153.354,249.042,949.027,-0.0843093,-0.00341893,1.47012,1.79,78.0,18.9
1.45,1.36424,1.22576,0.367728,-2.15451,0.477353,0.997434,0.29923,0.342549,0.624962,1.32781,0.398343,0.159346,1.30439,0.71182,-0.396579,0.795869,1.29725,0.389175,-0.106436,1.58855,12.0148,-0.346441,-52.8834,0.111632,0.861167,0.25835,-0.136354,-0.153694,1.06372,0.319117,-0.323143,0.737072,0.0,0.128675,-0.306595,0.386725,0.116018,0.0951219,-0.395341,0.0192886,0.0913458,-0.115385,-0.0501655,0.0372583,-0.171829,-0.0585587,-0.147564,0.237259,-0.0355766,0.133623,0.168672,-0.182633,-0.149146,0.43877,-0.747826,0.0983258,0.0442789,0.641165,-0.198356,0.735057,0.403556,-0.640684,-0.232118,0.285981,-0.065653,0.134808,0.131966,0.139146,0.523599,0.933556,0.644746,0.2354,-0.180473,-0.676849,-0.181816,0.283169,-0.0978955,0.346477,-0.523595,-0.923121,-0.140313,0.0680774,152.87,247.805,949.358,-0.0863752,-0.00390213,1.46653,1.79,78.0,18.9
1.46,1.36686,1.26874,0.380622,-2.13913,0.485801,1.01129,0.303386,0.34431,0.790768,1.34141,0.402424,0.200259,1.3074,0.71182,-0.399113,0.811948,1.29725,0.389175,-0.108153,1.59516,11.9288,-0.356939,-52.6897,0.111632,0.883248,0.264974,-0.138058,-0.163718,1.08935,0.326806,-0.327052,0.765205,0.0,0.121831,-0.29382,0.397935,0.11938,0.0964523,-0.399053,0.0211441,0.0860693,-0.117158,-0.0497836,0.0384003,-0.170798,-0.0605879,-0.147574,0.23199,-0.0398634,0.13586,0.167321,-0.186128,-0.153509,0.438493,-0.756583,0.0986664,0.0441242,0.645575,-0.197942,0.740575,0.401712,-0.636653,-0.221181,0.278908,-0.0633602,0.140726,0.129959,0.138989,0.523599,0.935943,0.638901,0.235243,-0.18006,-0.675122,-0.180029,0.283473,-0.0963203,0.341915,-0.523596,-0.922405,-0.139755,0.0663473,152.451,247.236,949.531,-0.0875428,-0.00426681,1.46547,1.79,78.0,18.9
1.47,1.37784,1.3303,0.399091,-2.13401,0.499883,1.0286,0.308581,0.342549,0.892802,1.35366,0.406098,0.215333,1.30138,0.707713,-0.390244,0.830706,1.29934,0.389801,-0.107867,1.59165,12.0821,-0.354315,-52.948,0.118198,0.924256,0.277277,-0.138058,-0.155922,1.11499,0.334496,-0.311416,0.787711,0.0,0.112249,-0.29382,0.420354,0.126106,0.103104,-0.399606,0.0212146,0.0818171,-0.119779,-0.0517581,0.0387273,-0.170955,-0.0603819,-0.146296,0.23608,-0.037427,0.135757,0.165997,-0.186081,-0.155075,0.439348,-0.765349,0.0991448,0.0440949,0.646906,-0.197303,0.746597,0.399433,-0.633884,-0.218323,0.280113,-0.0637538,0.141631,0.126353,0.142327,0.523599,0.93413,0.644492,0.235672,-0.17973,-0.673773,-0.179398,0.285063,-0.0957735,0.337354,-0.523596,-0.927906,-0.135662,0.0634652,152.269,246.824,949.784,-0.0883421,-0.00461177,1.46472,1.79,78.0,18.9
1.49,1.39992,1.39517,0.41855,-2.11351,0.512556,1.04015,0.312045,0.341669,1.01397,1.36046,0.408138,0.258399,1.3064,0.720033,-0.383275,0.870901,1.30351,0.391052,-0.107009,1.58382,12.0708,-0.379248,-52.2377,0.121482,0.987345,0.296203,-0.142319,-0.12251,1.17907,0.35372,-0.276235,0.855229,0.0,0.106773,-0.312982,0.472664,0.141799,0.109756,-0.397014,0.0212423,0.0750116,-0.124709,-0.0534191,0.0406076,-0.170498,-0.061267,-0.144494,0.224234,-0.0346373,0.131114,0.166196,-0.187368,-0.156477,0.444713,-0.787642,0.0993142,0.0435707,0.650325,-0.195878,0.755342,0.397046,-0.627308,-0.201242,0.27036,-0.0662646,0.143148,0.119936,0.142979,0.523599,0.933785,0.662986,0.236071,-0.178617,-0.67197,-0.176768,0.287124,-0.0937365,0.325556,-0.523596,-0.93685,-0.136512,0.0607787,151.803,245.909,950.178,-0.090108,-0.00548371,1.46263,1.79,78.0,18.9
1.5,1.41706,1.44705,0.434114,-2.1007,0.532269,1.05862,0.317586,0.336825,1.19253,1.35774,0.407322,0.286392,1.29938,0.730984,-0.374406,0.908417,1.29934,0.389801,-0.109298,1.58002,12.1019,-0.408118,-52.1085,0.118198,1.02047,0.30614,-0.147432,-0.119169,1.2047,0.361409,-0.285356,0.888988,0.0,0.125937,-0.321499,0.506293,0.151888,0.115078,-0.398419,0.0215067,0.0701758,-0.12703,-0.054241,0.0409104,-0.169673,-0.0617972,-0.143744,0.225589,-0.0375283,0.131197,0.164338,-0.187227,-0.157373,0.44735,-0.795889,0.099976,0.0432944,0.654944,-0.195472,0.760643,0.395498,-0.620558,-0.199021,0.258504,-0.068258,0.143287,0.116693,0.142338,0.523599,0.935374,0.66285,0.236226,-0.177991,-0.671041,-0.174733,0.28777,-0.0930133,0.321987,-0.523596,-0.940241,-0.135002,0.0595295,151.589,245.325,950.394,-0.0910821,-0.00585984,1.46101,1.79,78.0,18.9
1.51,1.45604,1.50136,0.450409,-2.08532,0.549167,1.07594,0.322781,0.333743,1.31369,1.36726,0.410179,0.327306,1.29737,0.743304,-0.367437,0.945932,1.29516,0.38855,-0.109011,1.57851,12.0761,-0.434364,-52.0439,0.106707,1.05359,0.316077,-0.153398,-0.128079,1.24475,0.373424,-0.297083,0.92556,0.0,0.138257,-0.332145,0.539921,0.161976,0.119069,-0.403358,0.0182636,0.0652198,-0.127146,-0.0537092,0.0414,-0.170427,-0.0628852,-0.143712,0.231749,-0.0323318,0.132633,0.163383,-0.185815,-0.159113,0.448531,-0.806594,0.0998448,0.0425795,0.656221,-0.194821,0.762948,0.3956,-0.617847,-0.190504,0.250926,-0.0677821,0.142568,0.116286,0.14228,0.523599,0.935452,0.668971,0.236541,-0.178078,-0.669873,-0.173244,0.287915,-0.0930411,0.31889,-0.523596,-0.943753,-0.138317,0.0611171,151.051,244.684,950.576,-0.0922702,-0.00593299,1.46054,1.79,78.0,18.9
1.52,1.47789,1.53781,0.461344,-2.08276,0.566064,1.09325,0.327976,0.333743,1.46675,1.37543,0.412628,0.346686,1.29737,0.784371,-0.360469,0.959331,1.29308,0.387924,-0.112159,1.57684,12.1019,-0.477669,-52.1085,0.096857,1.07882,0.323647,-0.156807,-0.134761,1.27839,0.383517,-0.319234,0.960726,0.0,0.146471,-0.34279,0.581022,0.174307,0.125721,-0.403876,0.0190245,0.0586403,-0.127908,-0.0533339,0.0413733,-0.170793,-0.0647827,-0.142662,0.223752,-0.0332226,0.132875,0.161925,-0.185818,-0.161138,0.446809,-0.812462,0.100018,0.0421699,0.659464,-0.19438,0.766026,0.396486,-0.617832,-0.181761,0.242149,-0.0647189,0.142951,0.112495,0.141954,0.523599,0.932557,0.680023,0.236891,-0.17767,-0.669159,-0.171959,0.289215,-0.0918353,0.31568,-0.523597,-0.950476,-0.137369,0.0607505,150.822,244.247,950.828,-0.0931249,-0.00623891,1.45941,1.79,78.0,18.9
1.53,1.51409,1.60498,0.481493,-2.09557,0.578737,1.1048,0.331439,0.329781,1.6198,1.37815,0.413444,0.376832,1.30239,0.824069,-0.352867,0.986128,1.29308,0.387924,-0.110442,1.58545,11.9279,-0.528847,-51.5919,0.0804406,1.10248,0.330745,-0.16192,-0.163718,1.31043,0.393129,-0.345294,0.993079,0.0,0.151946,-0.361952,0.603441,0.181032,0.126386,-0.408467,0.0183296,0.0545485,-0.128415,-0.0541045,0.0417557,-0.170988,-0.064859,-0.141712,0.225903,-0.0345034,0.132273,0.16011,-0.1855,-0.160622,0.447264,-0.817266,0.100213,0.042166,0.660204,-0.193716,0.767532,0.397696,-0.616922,-0.170713,0.233487,-0.0606531,0.142212,0.111129,0.145704,0.523599,0.932212,0.679925,0.236635,-0.177245,-0.66784,-0.170767,0.288572,-0.0919048,0.314484,-0.523597,-0.95713,-0.138573,0.0613835,150.339,243.875,950.984,-0.0939943,-0.00683001,1.4583,1.79,78.0,18.9
1.55,1.56873,1.737,0.521101,-2.08788,0.615348,1.15328,0.345985,0.317012,2.02794,1.39719,0.419158,0.482345,1.30439,0.897988,-0.32816,1.07992,1.28474,0.385421,-0.114162,1.58043,12.0305,-0.583963,-51.7856,0.0623825,1.13718,0.341155,-0.160216,-0.158149,1.34728,0.404183,-0.36093,1.02402,0.0,0.14784,-0.370469,0.642674,0.192802,0.130377,-0.421971,0.0124016,0.0453491,-0.130676,-0.05378,0.0416649,-0.170219,-0.066566,-0.13948,0.233636,-0.0288588,0.133065,0.157846,-0.184909,-0.162331,0.449714,-0.838029,0.100978,0.0413738,0.663042,-0.191199,0.773539,0.396886,-0.614672,-0.164265,0.205299,-0.0600072,0.14253,0.103706,0.140928,0.523599,0.933298,0.690154,0.237681,-0.176133,-0.665584,-0.168577,0.288001,-0.0903068,0.308218,-0.523597,-0.968954,-0.130548,0.0616797,149.914,243.099,951.521,-0.0966811,-0.00756582,1.45747,1.79,78.0,18.9
1.56,1.59179,1.8188,0.545641,-2.08532,0.62943,1.16367,0.349102,0.310848,2.17461,1.40127,0.420382,0.538332,1.3074,0.943161,-0.315489,1.10671,1.28265,0.384795,-0.113589,1.57751,12.0689,-0.650889,-51.5919,0.0377578,1.16242,0.348725,-0.162772,-0.181538,1.37771,0.413314,-0.392202,1.05919,0.0,0.146471,-0.381115,0.683775,0.205133,0.133703,-0.41946,0.0124114,0.0399427,-0.132796,-0.0534319,0.0416264,-0.170053,-0.0675789,-0.138318,0.235505,-0.0281587,0.133785,0.155643,-0.184482,-0.163795,0.450134,-0.853148,0.101549,0.0415088,0.664839,-0.191043,0.776276,0.397865,-0.613746,-0.155076,0.195783,-0.0607038,0.142846,0.1022,0.140149,0.523599,0.933449,0.694942,0.23747,-0.175746,-0.664598,-0.167525,0.287803,-0.0898193,0.305682,-0.523597,-0.978655,-0.131924,0.0606843,149.791,242.717,951.735,-0.0971961,-0.00799364,1.45678,1.79,78.0,18.9
1.57,1.60512,1.83581,0.550743,-2.08532,0.639287,1.18099,0.354297,0.309087,2.37868,1.4108,0.423239,0.583551,1.3094,0.991072,-0.308521,1.14155,1.28265,0.384795,-0.116164,1.57299,12.0077,-0.721752,-51.3982,0.0180581,1.19869,0.359608,-0.16192,-0.184879,1.41296,0.423887,-0.407838,1.1028,0.0,0.134151,-0.378985,0.719272,0.215782,0.132372,-0.426206,0.0114799,0.0359745,-0.133065,-0.0529029,0.0427432,-0.169795,-0.0678071,-0.13831,0.239975,-0.0314668,0.132764,0.154062,-0.184022,-0.164171,0.452266,-0.853528,0.102167,0.0417491,0.6662,-0.190835,0.77836,0.396122,-0.611839,-0.153634,0.182517,-0.0525031,0.140449,0.100651,0.143914,0.523599,0.933759,0.696401,0.238191,-0.175369,-0.663231,-0.167519,0.286781,-0.0894637,0.30302,-0.523597,-0.979818,-0.134028,0.0580957,149.287,242.249,951.951,-0.098443,-0.00865655,1.45628,1.79,78.0,18.9
1.59,1.62357,1.82698,0.548094,-2.06482,0.637878,1.19715,0.359146,0.315691,2.33404,1.41624,0.424872,0.596471,1.3074,1.02529,-0.307254,1.15763,1.28682,0.386047,-0.117023,1.54541,12.1207,-0.830671,-51.2044,-0.0246247,1.24286,0.372857,-0.163624,-0.16149,1.50908,0.452723,-0.415655,1.22517,0.0,0.104035,-0.402406,0.835102,0.250531,0.13969,-0.426394,0.00661763,0.0309444,-0.136708,-0.0529443,0.0440324,-0.168405,-0.0679983,-0.135935,0.235072,-0.028622,0.129121,0.15195,-0.183391,-0.166181,0.452355,-0.874864,0.103077,0.0416166,0.66903,-0.189193,0.78314,0.396174,-0.61213,-0.141464,0.166244,-0.0550776,0.14237,0.0955574,0.143691,0.523598,0.935214,0.706143,0.239017,-0.174176,-0.661525,-0.165975,0.284414,-0.0896743,0.299465,-0.523597,-0.990701,-0.128949,0.0582205,149.069,241.579,952.379,-0.100231,-0.00965211,1.45414,1.79,78.0,18.9
1.6,1.63455,1.85453,0.55636,-2.05969,0.646327,1.2087,0.362609,0.315251,2.47434,1.40944,0.422831,0.602931,1.31241,1.04993,-0.300919,1.14959,1.28057,0.38417,-0.118167,1.52495,11.926,-0.871352,-50.4295,-0.0426828,1.26178,0.378535,-0.171294,-0.147012,1.54432,0.463296,-0.406534,1.27581,0.0,0.0985597,-0.406664,0.889281,0.266784,0.139024,-0.429447,0.00454647,0.0278148,-0.13825,-0.0525475,0.0454279,-0.168493,-0.068091,-0.135849,0.23952,-0.0295646,0.129873,0.151438,-0.184195,-0.165364,0.45122,-0.889135,0.103807,0.0418397,0.670416,-0.18918,0.786302,0.395709,-0.609809,-0.12338,0.165659,-0.055675,0.142846,0.0916225,0.143093,0.523598,0.939204,0.702959,0.239369,-0.173887,-0.660689,-0.165144,0.282888,-0.0897135,0.296287,-0.523597,-0.992593,-0.126168,0.0591524,148.896,241.245,952.59,-0.100974,-0.0100637,1.45361,1.79,78.0,18.9
1.61,1.64556,1.82784,0.548352,-2.05201,0.635062,1.2237,0.367111,0.317452,2.41694,1.4244,0.427321,0.600778,1.31041,1.09237,-0.299018,1.14155,1.29308,0.387924,-0.120742,1.50889,12.0358,-0.888411,-50.5587,-0.0673074,1.28386,0.385159,-0.172999,-0.162604,1.55714,0.467141,-0.403929,1.29832,0.0,0.0971908,-0.421568,0.952801,0.28584,0.145676,-0.431509,0.00335745,0.0235209,-0.14023,-0.0521871,0.0467236,-0.167677,-0.0679906,-0.135053,0.238521,-0.0271014,0.128317,0.150285,-0.184067,-0.166602,0.450383,-0.902215,0.103941,0.0416251,0.671792,-0.188546,0.788675,0.394956,-0.611554,-0.117422,0.161491,-0.0519574,0.1409,0.0888396,0.137869,0.523599,0.939516,0.703339,0.239563,-0.173345,-0.659595,-0.163929,0.282019,-0.0902409,0.292949,-0.523598,-0.993643,-0.126962,0.0584923,148.793,240.671,952.818,-0.101716,-0.0106159,1.45273,1.79,78.0,18.9
1.62,1.65559,1.77854,0.533563,-2.02638,0.62943,1.24102,0.372306,0.321415,2.37868,1.43801,0.431402,0.590011,1.31843,1.13481,-0.288248,1.12011,1.29934,0.389801,-0.119312,1.48922,11.8411,-0.918594,-49.7837,-0.0771573,1.29806,0.389418,-0.180669,-0.142557,1.56835,0.470505,-0.406534,1.3166,0.0,0.105404,-0.425826,1.01445,0.304336,0.145011,-0.433529,0.00315674,0.0206117,-0.142169,-0.0521887,0.0472004,-0.166431,-0.0675013,-0.13353,0.236623,-0.0296898,0.126874,0.148122,-0.184711,-0.16871,0.446342,-0.903348,0.104721,0.0416766,0.674009,-0.188398,0.789612,0.395357,-0.617672,-0.113184,0.162903,-0.0510754,0.141584,0.0882318,0.138545,0.523599,0.942418,0.704495,0.239607,-0.173023,-0.659128,-0.16258,0.279954,-0.0908198,0.289753,-0.523598,-0.995086,-0.128584,0.0630871,148.672,240.352,952.975,-0.102521,-0.0108344,1.45217,1.79,78.0,18.9
1.6300000000000001,1.66535,1.74941,0.524823,-2.02126,0.622389,1.2491,0.374731,0.324057,2.30215,1.44753,0.434259,0.577092,1.32645,1.17724,-0.287615,1.09868,1.30351,0.391052,-0.121601,1.47985,11.7147,-0.931716,-49.6546,-0.0935738,1.31383,0.394149,-0.18493,-0.151467,1.58597,0.475792,-0.390899,1.33067,0.0,0.109511,-0.436472,1.05369,0.316106,0.146341,-0.43591,0.000789234,0.0186768,-0.142163,-0.051781,0.0474793,-0.166356,-0.0675532,-0.13292,0.23798,-0.0317117,0.125688,0.146974,-0.18564,-0.168713,0.441262,-0.914402,0.105383,0.0416061,0.674867,-0.187894,0.791798,0.394916,-0.618096,-0.106575,0.168452,-0.0473395,0.145036,0.0863736,0.144525,0.523599,0.944005,0.707882,0.240344,-0.17251,-0.658462,-0.161986,0.279535,-0.09175,0.28821,-0.523598,-0.988173,-0.132547,0.0569132,148.578,239.953,953.091,-0.103558,-0.011352,1.45108,1.79,78.0,18.9
1.6500000000000001,1.68629,1.71712,0.515136,-1.99563,0.585778,1.28604,0.385813,0.3289,2.17461,1.46658,0.439973,0.538332,1.34249,1.24979,-0.282547,1.04776,1.33479,0.400437,-0.119312,1.47236,11.8017,-0.946151,-49.9129,-0.096857,1.32645,0.397935,-0.187486,-0.138102,1.58117,0.47435,-0.393505,1.33489,0.0,0.113617,-0.423697,1.09479,0.328436,0.147672,-0.437534,-0.00286755,0.02293,-0.144416,-0.0513314,0.0487827,-0.166182,-0.0671182,-0.131167,0.238794,-0.0311928,0.120092,0.145408,-0.187767,-0.168603,0.430489,-0.940192,0.105967,0.0415534,0.674846,-0.187991,0.796009,0.396485,-0.625512,-0.0704108,0.173684,-0.0454341,0.146123,0.0826671,0.143921,0.523598,0.94798,0.697497,0.240547,-0.172078,-0.656203,-0.161056,0.277298,-0.0933576,0.285965,-0.523598,-0.985989,-0.1265,0.0561132,148.395,239.457,953.335,-0.104597,-0.0117787,1.45034,1.79,78.0,18.9
1.6600000000000001,1.68417,1.64271,0.492813,-1.97257,0.557616,1.29643,0.38893,0.330661,2.09809,1.4829,0.444871,0.486652,1.35753,1.29496,-0.28128,1.02096,1.35148,0.405443,-0.118453,1.46805,11.8722,-0.952713,-50.1712,-0.105065,1.33749,0.401247,-0.190043,-0.12251,1.59879,0.479636,-0.383081,1.34614,0.0,0.117724,-0.432214,1.13028,0.339085,0.150333,-0.437842,-0.0094243,0.0183187,-0.145082,-0.0502916,0.0493065,-0.165536,-0.0673381,-0.131367,0.235414,-0.0240531,0.117014,0.144531,-0.184662,-0.167786,0.421106,-0.94071,0.107316,0.0416485,0.674792,-0.188719,0.796387,0.398621,-0.634329,-0.0635784,0.180418,-0.0409392,0.147006,0.0811587,0.144636,0.523598,0.94939,0.685575,0.241102,-0.171952,-0.654424,-0.160912,0.276148,-0.095606,0.288119,-0.523598,-0.983119,-0.125032,0.0544459,148.418,239.102,953.365,-0.105045,-0.012059,1.45013,1.79,78.0,18.9
1.67,1.69171,1.63955,0.491865,-1.95207,0.518188,1.32068,0.396203,0.334184,1.97054,1.50195,0.450585,0.430665,1.3836,1.35383,-0.280013,0.940573,1.37233,0.4117,-0.121028,1.47663,11.9074,-0.957962,-50.3003,-0.105065,1.3438,0.40314,-0.190895,-0.118055,1.59398,0.478195,-0.375263,1.35599,0.0,0.125937,-0.432214,1.15831,0.347492,0.148337,-0.440637,-0.00953982,0.0161541,-0.145453,-0.0498662,0.051108,-0.165274,-0.0666566,-0.131367,0.235067,-0.0266359,0.116556,0.143519,-0.18488,-0.167288,0.416676,-0.941149,0.107797,0.0414007,0.674937,-0.189074,0.797035,0.39909,-0.636388,-0.0510974,0.18862,-0.0403789,0.145893,0.0798424,0.143582,0.523598,0.952837,0.685422,0.241537,-0.171616,-0.654109,-0.159969,0.274745,-0.0966702,0.285243,-0.523598,-0.970831,-0.1277,0.0544825,148.301,238.682,953.412,-0.105836,-0.0123511,1.44853,1.79,78.0,18.9
1.69,1.69901,1.5853,0.475591,-1.9495,0.46468,1.3403,0.402091,0.334624,1.74096,1.53188,0.459564,0.363912,1.41267,1.42364,-0.286348,0.860182,1.4057,0.421711,-0.120742,1.50119,11.9499,-0.965836,-50.3649,-0.096857,1.35799,0.407398,-0.197713,-0.0902119,1.58597,0.475792,-0.364839,1.36724,0.0,0.132782,-0.421568,1.19567,0.358702,0.145676,-0.447456,-0.0126742,0.0142602,-0.146184,-0.0487357,0.0529062,-0.164593,-0.0663798,-0.12926,0.241128,-0.0261748,0.114493,0.144761,-0.185099,-0.166577,0.409505,-0.969124,0.108919,0.0414395,0.675742,-0.188473,0.79814,0.402366,-0.646129,-0.0217883,0.189537,-0.0440396,0.148426,0.0775101,0.144048,0.523599,0.956521,0.666313,0.242314,-0.170749,-0.652285,-0.159574,0.271226,-0.0997276,0.282689,-0.523598,-0.954813,-0.124421,0.0533917,148.181,238.256,953.48,-0.107247,-0.0131075,1.44727,1.79,78.0,18.9
1.7,1.70396,1.55861,0.467583,-1.94182,0.411171,1.34838,0.404515,0.34299,1.5624,1.54548,0.463645,0.290699,1.43974,1.50167,-0.286348,0.79051,1.44116,0.432347,-0.12017,1.5096,12.0203,-0.95665,-50.6232,-0.0902905,1.3643,0.409291,-0.195156,-0.0813021,1.59238,0.477714,-0.354415,1.37287,0.0,0.130044,-0.406664,1.21062,0.363186,0.149667,-0.448631,-0.0162833,0.0135354,-0.146888,-0.0470777,0.0536603,-0.163525,-0.0671443,-0.129173,0.240053,-0.0237541,0.110351,0.144336,-0.185232,-0.165773,0.402414,-0.979474,0.109397,0.0416623,0.675645,-0.188892,0.798906,0.403207,-0.649279,-0.00331782,0.195536,-0.040618,0.148588,0.0776877,0.14694,0.523598,0.960554,0.65163,0.242467,-0.170505,-0.651143,-0.1595,0.268992,-0.100494,0.282871,-0.523598,-0.94134,-0.124521,0.050444,148.06,238.084,953.45,-0.107488,-0.0132959,1.44668,1.79,78.0,18.9
1.71,1.71264,1.48255,0.444765,-1.92644,0.35203,1.35416,0.406247,0.354437,1.28181,1.58358,0.475073,0.232559,1.47283,1.56464,-0.299018,0.70744,1.48287,0.444861,-0.117881,1.5188,12.2482,-0.946151,-50.8815,-0.0902905,1.3643,0.409291,-0.194304,-0.061255,1.57956,0.473869,-0.349203,1.37427,0.0,0.13552,-0.396019,1.22743,0.36823,0.152993,-0.449646,-0.0158382,0.0140907,-0.147044,-0.0460523,0.0535924,-0.163942,-0.068019,-0.127091,0.238736,-0.0234923,0.110134,0.144749,-0.184215,-0.164646,0.397591,-0.99358,0.110278,0.0418648,0.675314,-0.190144,0.801539,0.403666,-0.652739,0.00510655,0.197301,-0.0404583,0.148535,0.0768719,0.147383,0.523598,0.966678,0.627438,0.242979,-0.17042,-0.650851,-0.159836,0.266135,-0.102267,0.283299,-0.523598,-0.930619,-0.125714,0.0469183,148.142,237.957,953.443,-0.107722,-0.0134457,1.44574,1.79,78.0,18.9
1.72,1.71544,1.39601,0.418804,-1.89825,0.311195,1.35762,0.407286,0.370728,1.08412,1.61079,0.483236,0.187339,1.48987,1.58243,-0.310421,0.653846,1.51207,0.453621,-0.117595,1.52148,12.4368,-0.92253,-51.269,-0.0804406,1.37219,0.411657,-0.196861,-0.0478903,1.57956,0.473869,-0.350506,1.38271,0.0,0.136888,-0.387502,1.24798,0.374395,0.16031,-0.452107,-0.0179452,0.0139242,-0.147027,-0.0438707,0.0548534,-0.163394,-0.0698128,-0.127018,0.239078,-0.0238611,0.10808,0.144723,-0.185556,-0.163234,0.391777,-1.01032,0.111001,0.0419186,0.675146,-0.19071,0.801744,0.405105,-0.657039,0.0184516,0.210573,-0.041046,0.148534,0.075653,0.147046,0.523598,0.967351,0.620399,0.243375,-0.169946,-0.650028,-0.159037,0.264492,-0.10407,0.284128,-0.523598,-0.920873,-0.12327,0.0468972,148.233,237.771,953.431,-0.108164,-0.0134457,1.44484,1.79,78.0,18.9
1.73,1.70483,1.34994,0.404983,-1.87519,0.283032,1.35416,0.406247,0.386138,0.873671,1.63663,0.49099,0.15504,1.51293,1.53863,-0.320557,0.608291,1.53918,0.461754,-0.113017,1.5224,12.76,-0.891036,-51.7856,-0.0820822,1.38007,0.414022,-0.196008,-0.0389805,1.58277,0.47483,-0.350506,1.38693,0.0,0.134151,-0.39176,1.27787,0.383363,0.170953,-0.453934,-0.0200167,0.0139253,-0.14782,-0.0438532,0.0544107,-0.163182,-0.0682131,-0.124489,0.237717,-0.0240552,0.105878,0.144699,-0.18588,-0.162147,0.38882,-1.01916,0.111343,0.0421056,0.673912,-0.19133,0.802169,0.40493,-0.660357,0.027784,0.222473,-0.0406968,0.148379,0.0750216,0.147292,0.523598,0.971355,0.605773,0.243416,-0.169901,-0.649369,-0.159258,0.262034,-0.106102,0.28417,-0.523598,-0.921892,-0.122379,0.0432956,148.263,237.575,953.386,-0.108164,-0.0137698,1.44429,1.79,78.0,18.9
1.75,1.68486,1.31127,0.39338,-1.8265,0.252053,1.32529,0.397588,0.409474,0.42727,1.71146,0.513438,0.0667531,1.55304,1.36478,-0.374406,0.506462,1.59549,0.478648,-0.107295,1.52517,12.9393,-0.854292,-52.1085,-0.0820822,1.38638,0.415915,-0.194304,-0.0189334,1.57636,0.472908,-0.353112,1.38834,0.0,0.128675,-0.383244,1.29469,0.388407,0.178936,-0.456877,-0.020654,0.0112898,-0.149261,-0.0421007,0.054846,-0.161099,-0.0675232,-0.121906,0.239049,-0.0249317,0.105783,0.14365,-0.184193,-0.16151,0.382062,-1.05104,0.11262,0.0423744,0.673644,-0.192249,0.801938,0.404873,-0.664742,0.057365,0.259377,-0.0326532,0.14989,0.075776,0.148567,0.523599,0.984592,0.571919,0.243981,-0.169409,-0.649341,-0.159346,0.254281,-0.109369,0.284316,-0.523598,-0.919376,-0.124708,0.0429297,148.162,237.495,953.327,-0.108881,-0.0140089,1.44415,1.79,78.0,18.9
1.76,1.68415,1.29117,0.387351,-1.78806,0.253462,1.30567,0.391701,0.424884,0.146675,1.75363,0.52609,0.0322999,1.5761,1.38257,-0.410516,0.466267,1.61218,0.483653,-0.106436,1.52927,13.1465,-0.792615,-52.6251,-0.078799,1.39585,0.418754,-0.196861,-0.00779609,1.57796,0.473389,-0.353112,1.39537,0.0,0.131413,-0.376856,1.30777,0.39233,0.191574,-0.458982,-0.0208525,0.0095005,-0.149409,-0.0396942,0.0548852,-0.16036,-0.0694811,-0.119639,0.237849,-0.0268936,0.103439,0.144223,-0.181547,-0.161464,0.382479,-1.0582,0.113221,0.0425334,0.672436,-0.193029,0.80056,0.404937,-0.669036,0.0609097,0.274726,-0.031278,0.15111,0.0754966,0.149852,0.523599,0.992139,0.553811,0.244266,-0.169546,-0.65002,-0.159423,0.250706,-0.111791,0.28411,-0.523598,-0.913373,-0.1238,0.0411779,148.24,237.389,953.268,-0.108914,-0.0140089,1.44377,1.79,78.0,18.9
1.77,1.69001,1.32755,0.398266,-1.80344,0.270359,1.28489,0.385467,0.435011,-0.197692,1.80261,0.540783,-0.00645998,1.60417,1.43733,-0.443459,0.420712,1.62678,0.488033,-0.109584,1.53333,13.0791,-0.740124,-52.5605,-0.0755157,1.40216,0.420647,-0.196861,-0.024502,1.58437,0.475311,-0.359627,1.39959,0.0,0.127306,-0.351307,1.30777,0.39233,0.201552,-0.460215,-0.0208607,0.00736938,-0.149966,-0.0385699,0.0564909,-0.158979,-0.0694436,-0.118589,0.233799,-0.0277061,0.102653,0.144467,-0.179758,-0.161342,0.37848,-1.07088,0.113797,0.0429293,0.671486,-0.193877,0.801137,0.403866,-0.673234,0.0767963,0.293571,-0.027412,0.151029,0.075321,0.148713,0.523599,0.999068,0.541328,0.244443,-0.16942,-0.649869,-0.159643,0.245553,-0.11479,0.283598,-0.523598,-0.912544,-0.1229,0.0386761,148.19,237.369,953.253,-0.109082,-0.0140426,1.44383,1.79,78.0,18.9
1.79,1.6961,1.364,0.409201,-1.80087,0.304154,1.26757,0.380272,0.450862,-0.446401,1.86927,0.560782,-0.0452199,1.63625,1.52357,-0.468799,0.401954,1.63721,0.491162,-0.1113,1.51441,13.1102,-0.657451,-52.4314,-0.0771573,1.41635,0.424905,-0.189191,0.00445491,1.59078,0.477233,-0.363536,1.41788,0.0,0.125937,-0.281045,1.30777,0.39233,0.215521,-0.464635,-0.0198398,0.00413156,-0.15069,-0.0363434,0.0586312,-0.156224,-0.0694729,-0.114222,0.232612,-0.0287572,0.100954,0.14561,-0.17952,-0.158346,0.381286,-1.11273,0.115782,0.0433947,0.666569,-0.195892,0.800461,0.400166,-0.676518,0.0980581,0.34336,-0.0317296,0.148043,0.0765458,0.149636,0.523599,1.01866,0.516953,0.24538,-0.169193,-0.650615,-0.159865,0.234635,-0.120532,0.281085,-0.523598,-0.921431,-0.126145,0.0366416,148.255,237.471,953.188,-0.109946,-0.013935,1.4441,1.79,78.0,18.9
1.8,1.70587,1.42557,0.42767,-1.79575,0.347806,1.26065,0.378194,0.46363,-0.580321,1.93457,0.580373,-0.0968997,1.67636,1.58654,-0.476402,0.367118,1.65598,0.496793,-0.112159,1.49638,13.0159,-0.623331,-52.2377,-0.0837239,1.42581,0.427744,-0.1926,0.00445491,1.59719,0.479156,-0.367445,1.43054,0.0,0.130044,-0.240592,1.29282,0.387846,0.220843,-0.466402,-0.0162144,0.00413892,-0.150343,-0.0347573,0.0602664,-0.156296,-0.0695606,-0.11112,0.231444,-0.0331945,0.0953443,0.145698,-0.179654,-0.158121,0.39041,-1.13191,0.116402,0.0437438,0.665461,-0.196392,0.798609,0.398502,-0.677643,0.103624,0.368104,-0.0332215,0.149489,0.0761569,0.149725,0.523599,1.0311,0.513178,0.245376,-0.169154,-0.649928,-0.159988,0.228374,-0.124377,0.277456,-0.523598,-0.919759,-0.122326,0.0347183,148.22,237.443,953.134,-0.110037,-0.013935,1.44405,1.79,78.0,18.9
1.81,1.71206,1.44099,0.432298,-1.7855,0.381601,1.25834,0.377501,0.485645,-0.733373,1.99444,0.598331,-0.131353,1.70042,1.63719,-0.480836,0.332282,1.68935,0.506804,-0.112445,1.47977,13.0066,-0.595774,-52.1731,-0.0886488,1.42424,0.427271,-0.196861,-0.0178196,1.6068,0.482039,-0.375263,1.44601,0.0,0.134151,-0.212913,1.28348,0.385044,0.226164,-0.472352,-0.0203443,0.00508888,-0.150067,-0.0331334,0.0615262,-0.155835,-0.0677439,-0.109141,0.231672,-0.0329159,0.090167,0.145621,-0.180465,-0.157626,0.404352,-1.13994,0.117359,0.0440782,0.6634,-0.197505,0.793346,0.398724,-0.677643,0.112061,0.379909,-0.0262099,0.149403,0.0760129,0.152511,0.523599,1.04545,0.522395,0.245377,-0.169349,-0.649371,-0.160049,0.221357,-0.125884,0.268732,-0.523597,-0.919735,-0.118831,0.0325333,148.07,237.47,953.121,-0.110402,-0.013935,1.4453,1.79,78.0,18.9
1.82,1.7159,1.47264,0.441791,-1.77012,0.415395,1.25834,0.377501,0.506779,-0.911934,2.02845,0.608534,-0.157193,1.71847,1.67278,-0.486538,0.310845,1.71646,0.514938,-0.113589,1.45299,13.0118,-0.564279,-51.9794,-0.096857,1.4337,0.43011,-0.197713,-0.00334118,1.60359,0.481078,-0.375263,1.45727,0.0,0.134151,-0.198009,1.28161,0.384483,0.234812,-0.475095,-0.0204604,0.00115479,-0.148632,-0.031159,0.0666322,-0.156414,-0.0672898,-0.108325,0.228301,-0.0271697,0.0857035,0.1458,-0.176907,-0.1576,0.427675,-1.12315,0.118102,0.0446241,0.661968,-0.198116,0.785714,0.39749,-0.682143,0.095571,0.375649,-0.0270107,0.147624,0.0755727,0.15491,0.523599,1.07312,0.497175,0.245832,-0.169365,-0.651076,-0.160248,0.210785,-0.128739,0.260881,-0.523597,-0.900935,-0.120507,0.0276135,147.834,237.645,953.058,-0.110834,-0.0139297,1.44591,1.79,78.0,18.9
1.83,1.69899,1.50019,0.450057,-1.765,0.457639,1.25487,0.376462,0.537159,-0.931065,2.04749,0.614248,-0.176573,1.7305,1.69742,-0.493506,0.270649,1.7394,0.52182,-0.112445,1.44546,12.9238,-0.540658,-51.6565,-0.106707,1.44632,0.433896,-0.20027,-0.0222745,1.61801,0.485404,-0.37396,1.45867,0.0,0.139626,-0.180976,1.27601,0.382802,0.240133,-0.47773,-0.0212744,-0.00411552,-0.147608,-0.0284161,0.0691544,-0.156979,-0.0672822,-0.105294,0.238551,-0.0310879,0.0872681,0.146753,-0.176908,-0.157078,0.449607,-1.1404,0.119486,0.0450469,0.659719,-0.198759,0.783276,0.392657,-0.672979,0.0971765,0.399131,-0.0303983,0.143644,0.0773878,0.152657,0.522945,1.08712,0.504669,0.246324,-0.169187,-0.651925,-0.160257,0.202991,-0.132558,0.255798,-0.523597,-0.899992,-0.114974,0.0307796,147.737,237.668,953.123,-0.111722,-0.0139405,1.446,1.79,78.0,18.9
1.85,1.66953,1.44214,0.432641,-1.70093,0.501291,1.24448,0.373345,0.571062,-1.01397,2.07062,0.621186,-0.185186,1.74253,1.71247,-0.522015,0.230454,1.7686,0.53058,-0.113875,1.4368,12.9559,-0.522286,-51.5919,-0.10999,1.44474,0.433422,-0.201122,-0.00556864,1.62282,0.486845,-0.371354,1.46149,0.0,0.136888,-0.161814,1.26853,0.38056,0.245455,-0.484558,-0.0189048,-0.0167182,-0.14839,-0.0265501,0.0719882,-0.148526,-0.0653478,-0.0919616,0.224428,-0.0305644,0.0815194,0.147176,-0.179252,-0.14987,0.521663,-1.14017,0.12483,0.0454208,0.649805,-0.204092,0.767558,0.385506,-0.663913,0.0851503,0.355321,-0.0217015,0.148595,0.0796526,0.153928,0.522891,1.13549,0.470206,0.24808,-0.169218,-0.649985,-0.158791,0.176687,-0.142326,0.238311,-0.523597,-0.879309,-0.118654,0.0279352,147.108,237.714,952.834,-0.115366,-0.013194,1.44641,1.79,78.0,18.9
1.86,1.64192,1.43898,0.431693,-1.68043,0.504107,1.25718,0.377155,0.577226,-0.950197,2.07334,0.622003,-0.195953,1.75556,1.71521,-0.53025,0.235813,1.77277,0.531831,-0.116164,1.43538,12.9124,-0.514412,-51.4627,-0.108349,1.43843,0.43153,-0.205383,-0.0144785,1.61961,0.485884,-0.367445,1.46571,0.0,0.140995,-0.159685,1.26106,0.378318,0.251441,-0.490615,-0.0179086,-0.0148709,-0.148093,-0.0192346,0.0740157,-0.14599,-0.0708509,-0.085255,0.226713,-0.029463,0.0760349,0.145931,-0.178019,-0.145091,0.548978,-1.15377,0.12686,0.0457962,0.64553,-0.206221,0.761487,0.381507,-0.663796,0.0828162,0.356611,-0.0122557,0.149551,0.0805485,0.158139,0.522726,1.15785,0.439658,0.248756,-0.168754,-0.649806,-0.158482,0.1641,-0.147353,0.235309,-0.523597,-0.880983,-0.126225,0.0239614,146.983,237.626,952.902,-0.116228,-0.0135887,1.44612,1.79,78.0,18.9
1.87,1.62034,1.47873,0.443618,-1.66249,0.498475,1.27796,0.383389,0.578107,-1.09049,2.08967,0.6269,-0.215333,1.76258,1.71111,-0.537219,0.219735,1.79154,0.537462,-0.115878,1.43584,12.9911,-0.498665,-51.721,-0.114915,1.4479,0.434369,-0.201974,-0.00779609,1.61481,0.484442,-0.368748,1.46149,0.0,0.143733,-0.149039,1.25172,0.375516,0.260089,-0.48894,-0.0161516,-0.0154302,-0.147902,-0.0162213,0.0820198,-0.143081,-0.0708442,-0.0854892,0.220658,-0.034328,0.0691345,0.150369,-0.177392,-0.144615,0.600916,-1.17286,0.129236,0.0461116,0.644983,-0.207439,0.751957,0.380761,-0.653274,0.084576,0.307721,-0.023594,0.146587,0.0823082,0.156597,0.522664,1.18713,0.443676,0.250479,-0.168898,-0.648937,-0.15879,0.149979,-0.152666,0.223501,-0.523596,-0.845733,-0.122959,0.0254021,146.877,237.612,952.558,-0.118283,-0.013418,1.44621,1.79,78.0,18.9
1.8900000000000001,1.59845,1.5362,0.460861,-1.66762,0.490026,1.28835,0.386506,0.577226,-1.05861,2.09919,0.629757,-0.228253,1.7676,1.71247,-0.547355,0.227774,1.79363,0.538088,-0.117595,1.44295,12.841,-0.482918,-51.1399,-0.118198,1.44947,0.434842,-0.204531,-0.0211608,1.62602,0.487806,-0.366142,1.46289,0.0,0.149208,-0.134135,1.25172,0.375516,0.270066,-0.500483,-0.0154104,-0.0232182,-0.147864,-0.0123452,0.0836109,-0.139136,-0.0685622,-0.0731412,0.227464,-0.037724,0.0643656,0.149386,-0.176908,-0.144318,0.662254,-1.20204,0.131725,0.0469431,0.644097,-0.210106,0.738051,0.372799,-0.635397,0.119326,0.306684,-0.0206726,0.148224,0.0818183,0.164732,0.519419,1.23256,0.415984,0.251674,-0.168847,-0.64282,-0.160111,0.128497,-0.16046,0.208024,-0.523599,-0.814452,-0.127866,0.0189528,146.699,237.808,952.743,-0.11937,-0.0132203,1.44587,1.79,78.0,18.9
1.9000000000000001,1.58617,1.54668,0.464004,-1.68043,0.474536,1.29759,0.389276,0.577667,-1.16702,2.10871,0.632614,-0.241173,1.77562,1.70426,-0.546722,0.225094,1.80197,0.540591,-0.121887,1.4363,12.8016,-0.475044,-50.7524,-0.123123,1.4479,0.434369,-0.207087,-0.00445491,1.62122,0.486365,-0.363536,1.46993,0.0,0.14784,-0.132006,1.26853,0.38056,0.275388,-0.505427,-0.0132958,-0.0232465,-0.145683,-0.0126179,0.0857157,-0.1394,-0.0636206,-0.0669325,0.232328,-0.0421991,0.05359,0.149759,-0.176176,-0.142106,0.737238,-1.19818,0.132779,0.0474197,0.644327,-0.211668,0.72009,0.366939,-0.614868,0.0685567,0.230804,-0.0129044,0.146789,0.0827258,0.164576,0.518979,1.26219,0.397687,0.252426,-0.168937,-0.641859,-0.1615,0.113282,-0.166177,0.200032,-0.523599,-0.800514,-0.124132,0.0198443,145.768,237.757,952.533,-0.120489,-0.0136178,1.44445,1.79,78.0,18.9
1.9100000000000001,1.57381,1.64298,0.492893,-1.69837,0.463271,1.30682,0.392047,0.577667,-1.08412,2.11552,0.634655,-0.271319,1.77862,1.69605,-0.553057,0.219735,1.7978,0.539339,-0.121887,1.43768,12.6203,-0.469795,-50.3003,-0.11984,1.45105,0.435315,-0.206235,-0.0289569,1.63563,0.49069,-0.367445,1.47414,0.0,0.149208,-0.114973,1.27414,0.382242,0.277384,-0.498093,-0.0194898,-0.0185172,-0.145701,-0.0108165,0.0875573,-0.13945,-0.0614149,-0.0614169,0.229379,-0.0389001,0.0463326,0.150337,-0.174177,-0.141963,0.793157,-1.20394,0.134516,0.0485604,0.645281,-0.213201,0.700711,0.372134,-0.616154,0.0590054,0.193735,-0.0131047,0.145826,0.083692,0.159848,0.518043,1.2867,0.406358,0.252869,-0.168305,-0.641211,-0.162252,0.101872,-0.167885,0.188982,-0.523599,-0.77929,-0.123177,0.0239509,145.53,238.073,952.654,-0.121253,-0.0138274,1.44441,1.79,78.0,18.9
